(G-code generated by FlatCAM Evo vUnstable - Version Date: 2023/6/31)

(Name: MainPCBV1-F_Cu.gtl_inverted_mt_paint_1_cnc)
(Type: G-code from Geometry)
(Units: MM)

(Created on Sunday, 14 April 2024 at 02:53)

(This preprocessor is the default preprocessor when used with a laser.)
(It is made to work with MACH3 compatible motion controllers.)
(This preprocessor makes no moves on the Z axis it will only move horizontally.)
(The horizontal move is done with G0 - highest possible speed set in MACH3.)
(It assumes a manually focused laser.)
(The laser is started with M3 or M4 command and stopped with the M5 command.)

(Feedrate: 500.0 mm/min)
(Steps per circle: 16)
(Preprocessor Geometry: default_laser)

(X range:    1.5100 ...   74.8700  mm)
(Y range:    1.3850 ...   76.6500  mm)

(Laser Power - Spindle Speed: 0.0)
(Laser Minimum Power: 0.0)

G21
G90
G94

G01 F500.00
M05

M05
G01 F500.00
G00 X1.9628 Y2.2144
G01 F60.00
M03
G01 F500.00
G01 X2.0228 Y2.0758
G01 X2.1612 Y1.9236
G01 X2.2883 Y1.8562
G01 X2.4843 Y1.8155
G01 X49.4825 Y1.8155
G01 X49.6601 Y1.8476
G01 X49.7800 Y1.9064
G01 X49.8569 Y1.9643
G01 X49.9846 Y2.1513
G01 X50.0155 Y2.2446
G01 X50.0243 Y2.3336
G01 X50.0185 Y2.4565
G01 X49.9919 Y2.5573
G01 X49.8594 Y2.7557
G01 X36.3059 Y16.3021
G01 X36.1679 Y16.4014
G01 X35.9629 Y16.4597
G01 X32.1428 Y16.4620
G01 X32.0045 Y16.4409
G01 X31.7881 Y16.3817
G01 X31.7001 Y16.3745
G01 X30.7099 Y16.3745
G01 X30.4767 Y16.4189
G01 X30.3418 Y16.4807
G01 X30.2201 Y16.5653
G01 X30.1153 Y16.6701
G01 X29.9383 Y16.8946
G01 X29.8565 Y16.9499
G01 X29.7275 Y17.0060
G01 X29.5915 Y17.0259
G01 X29.4145 Y16.9999
G01 X29.2985 Y16.9469
G01 X29.1784 Y16.8462
G01 X29.0864 Y16.7076
G01 X29.0357 Y16.4933
G01 X29.0381 Y10.0745
G01 X29.0155 Y9.9074
G01 X28.9647 Y9.7444
G01 X28.8623 Y9.5542
G01 X28.7542 Y9.4221
G01 X28.6253 Y9.3101
G01 X28.3975 Y9.1505
G01 X25.7179 Y6.4695
G01 X25.6635 Y6.3943
G01 X25.6073 Y6.2698
G01 X25.5209 Y5.9215
G01 X25.4366 Y5.7344
G01 X25.3256 Y5.5619
G01 X25.1903 Y5.4076
G01 X25.0337 Y5.2750
G01 X24.8592 Y5.1670
G01 X24.6707 Y5.0860
G01 X24.5576 Y5.0563
G01 X24.2683 Y5.0115
G01 X24.0633 Y5.0195
G01 X23.8617 Y5.0578
G01 X23.6680 Y5.1254
G01 X23.4864 Y5.2210
G01 X23.3209 Y5.3423
G01 X23.1752 Y5.4868
G01 X23.0524 Y5.6511
G01 X22.9553 Y5.8319
G01 X22.8860 Y6.0250
G01 X22.8254 Y6.2905
G01 X22.7251 Y6.4653
G01 X22.4531 Y6.7223
G01 X22.3575 Y6.7682
G01 X22.1945 Y6.8078
G01 X15.2721 Y6.8085
G01 X15.0993 Y6.7695
G01 X14.9906 Y6.7125
G01 X14.8532 Y6.5747
G01 X14.7521 Y6.3938
G01 X14.6776 Y6.3024
G01 X14.5862 Y6.2279
G01 X14.4817 Y6.1732
G01 X14.3659 Y6.1400
G01 X12.7259 Y6.1345
G01 X12.5483 Y6.1732
G01 X12.4438 Y6.2279
G01 X12.3524 Y6.3024
G01 X12.2779 Y6.3938
G01 X12.2232 Y6.4983
G01 X12.1900 Y6.6142
G01 X12.1845 Y8.9541
G01 X12.2232 Y9.1317
G01 X12.2779 Y9.2362
G01 X12.3973 Y9.3642
G01 X12.5483 Y9.4568
G01 X12.7259 Y9.4955
G01 X14.3659 Y9.4900
G01 X14.4817 Y9.4568
G01 X14.5862 Y9.4021
G01 X14.6776 Y9.3276
G01 X14.7521 Y9.2362
G01 X14.8495 Y9.0603
G01 X14.9814 Y8.9234
G01 X15.0935 Y8.8641
G01 X15.2749 Y8.8213
G01 X22.8974 Y8.8205
G01 X23.0698 Y8.7880
G01 X23.2300 Y8.7286
G01 X23.3776 Y8.6432
G01 X23.5036 Y8.5385
G01 X23.8475 Y8.1901
G01 X23.9682 Y8.1062
G01 X24.0992 Y8.0582
G01 X24.2881 Y8.0481
G01 X24.4307 Y8.0885
G01 X24.6061 Y8.2031
G01 X26.8710 Y10.4682
G01 X26.9606 Y10.5929
G01 X27.0133 Y10.7515
G01 X27.0245 Y10.8476
G01 X27.0245 Y16.9157
G01 X26.9906 Y17.0972
G01 X26.8745 Y17.2879
G01 X23.7684 Y20.3943
G01 X23.6465 Y20.4857
G01 X23.4823 Y20.5420
G01 X23.3671 Y20.5539
G01 X23.1895 Y20.5151
G01 X23.0812 Y20.4637
G01 X22.9421 Y20.3281
G01 X22.7856 Y20.0869
G01 X22.6503 Y19.9326
G01 X22.4553 Y19.7630
G01 X22.3570 Y19.6233
G01 X22.3138 Y19.4957
G01 X22.3053 Y19.3129
G01 X22.3379 Y19.1886
G01 X22.4259 Y19.0357
G01 X24.9993 Y16.4577
G01 X25.0987 Y16.3124
G01 X25.1701 Y16.1571
G01 X25.2141 Y15.9921
G01 X25.2290 Y15.8291
G01 X25.2273 Y12.4954
G01 X25.2884 Y12.2913
G01 X25.4695 Y11.9910
G01 X25.5439 Y11.7997
G01 X25.5892 Y11.5997
G01 X25.6051 Y11.3849
G01 X25.5766 Y11.1190
G01 X25.5209 Y10.9215
G01 X25.4366 Y10.7344
G01 X25.3256 Y10.5619
G01 X25.1903 Y10.4076
G01 X25.1078 Y10.3377
G01 X24.8592 Y10.1670
G01 X24.6707 Y10.0860
G01 X24.5576 Y10.0563
G01 X24.2683 Y10.0115
G01 X24.0633 Y10.0195
G01 X23.8617 Y10.0578
G01 X23.6680 Y10.1254
G01 X23.4864 Y10.2210
G01 X23.3209 Y10.3423
G01 X23.1752 Y10.4868
G01 X23.0524 Y10.6511
G01 X22.9553 Y10.8319
G01 X22.8968 Y10.9950
G01 X22.8459 Y11.2263
G01 X22.8361 Y11.4312
G01 X22.8566 Y11.6354
G01 X22.9071 Y11.8343
G01 X22.9865 Y12.0235
G01 X23.1570 Y12.3011
G01 X23.2137 Y12.5172
G01 X23.2143 Y15.1833
G01 X23.1889 Y15.3352
G01 X23.1159 Y15.4804
G01 X23.0546 Y15.5584
G01 X16.6291 Y21.9838
G01 X16.5048 Y22.0710
G01 X16.3925 Y22.1189
G01 X16.2998 Y22.1374
G01 X16.0868 Y22.1149
G01 X15.9356 Y22.0399
G01 X15.7851 Y21.8862
G01 X15.7083 Y21.6744
G01 X15.7005 Y18.9176
G01 X15.6680 Y18.7452
G01 X15.6087 Y18.5851
G01 X15.5232 Y18.4374
G01 X15.4185 Y18.3114
G01 X13.3090 Y16.1926
G01 X13.2568 Y16.0875
G01 X13.2172 Y15.9245
G01 X13.2100 Y15.0692
G01 X13.1768 Y14.9533
G01 X13.1221 Y14.8488
G01 X13.0476 Y14.7574
G01 X12.9562 Y14.6829
G01 X12.8517 Y14.6282
G01 X12.6741 Y14.5895
G01 X9.0959 Y14.5895
G01 X9.0341 Y14.5950
G01 X8.7744 Y14.6787
G01 X8.6581 Y14.6876
G01 X8.5152 Y14.6665
G01 X8.4087 Y14.6246
G01 X8.2771 Y14.5218
G01 X8.2076 Y14.4395
G01 X8.1575 Y14.3302
G01 X8.1205 Y14.1467
G01 X8.1207 Y9.7021
G01 X8.1335 Y9.5951
G01 X8.1627 Y9.5090
G01 X8.2334 Y9.3834
G01 X8.3521 Y9.2362
G01 X8.4068 Y9.1317
G01 X8.4400 Y9.0159
G01 X8.4400 Y6.6142
G01 X8.4068 Y6.4983
G01 X8.3521 Y6.3938
G01 X8.2776 Y6.3024
G01 X8.1862 Y6.2279
G01 X8.0817 Y6.1732
G01 X7.9659 Y6.1400
G01 X6.3259 Y6.1345
G01 X6.1483 Y6.1732
G01 X6.0438 Y6.2279
G01 X5.9524 Y6.3024
G01 X5.8779 Y6.3938
G01 X5.8232 Y6.4983
G01 X5.7900 Y6.6142
G01 X5.7845 Y8.9541
G01 X5.8232 Y9.1317
G01 X5.8779 Y9.2362
G01 X6.0405 Y9.4483
G01 X6.1087 Y9.6877
G01 X6.1095 Y14.0435
G01 X6.0880 Y14.1874
G01 X6.0315 Y14.3227
G01 X5.9154 Y14.4590
G01 X5.8068 Y14.5312
G01 X5.6596 Y14.5783
G01 X5.5665 Y14.5895
G01 X4.0341 Y14.5950
G01 X3.9183 Y14.6282
G01 X3.8138 Y14.6829
G01 X3.7224 Y14.7574
G01 X3.6479 Y14.8488
G01 X3.5932 Y14.9533
G01 X3.5545 Y15.1309
G01 X3.5600 Y17.0709
G01 X3.5932 Y17.1867
G01 X3.6479 Y17.2912
G01 X3.7224 Y17.3826
G01 X3.8138 Y17.4571
G01 X3.9183 Y17.5118
G01 X4.0341 Y17.5450
G01 X5.7538 Y17.5521
G01 X5.9083 Y17.5868
G01 X6.0971 Y17.7043
G01 X7.7862 Y19.3932
G01 X7.8755 Y19.5129
G01 X7.9284 Y19.6627
G01 X7.9443 Y19.7657
G01 X7.9385 Y21.2284
G01 X7.9056 Y21.3601
G01 X7.8486 Y21.4633
G01 X7.7306 Y21.5910
G01 X7.6213 Y21.6550
G01 X7.4178 Y21.7040
G01 X6.5991 Y21.7100
G01 X6.4833 Y21.7432
G01 X6.3788 Y21.7979
G01 X6.2874 Y21.8724
G01 X6.2129 Y21.9638
G01 X6.1582 Y22.0683
G01 X6.1250 Y22.1842
G01 X6.1188 Y24.0910
G01 X6.0912 Y24.2379
G01 X6.0117 Y24.3899
G01 X2.8637 Y27.5491
G01 X2.7775 Y27.6139
G01 X2.6637 Y27.6676
G01 X2.4965 Y27.6989
G01 X2.3526 Y27.6809
G01 X2.2638 Y27.6527
G01 X2.0925 Y27.5281
G01 X1.9914 Y27.3806
G01 X1.9505 Y27.2452
G01 X1.9405 Y27.1544
G01 X1.9405 Y2.3579
G01 X1.9628 Y2.2144
G01 X2.1187 Y2.2508
G01 X2.1698 Y2.1458
G01 X2.2929 Y2.0278
G01 X2.4865 Y1.9755
G01 X49.4825 Y1.9755
G01 X49.6023 Y1.9968
G01 X49.7486 Y2.0821
G01 X49.8383 Y2.2160
G01 X49.8643 Y2.3315
G01 X49.8461 Y2.4906
G01 X49.7448 Y2.6440
G01 X36.1928 Y16.1889
G01 X36.0879 Y16.2620
G01 X35.9451 Y16.3007
G01 X32.1464 Y16.3020
G01 X31.8147 Y16.2233
G01 X31.7066 Y16.2145
G01 X30.7034 Y16.2145
G01 X30.5953 Y16.2233
G01 X30.4230 Y16.2675
G01 X30.2623 Y16.3411
G01 X30.1170 Y16.4420
G01 X29.9920 Y16.5671
G01 X29.8363 Y16.7713
G01 X29.6902 Y16.8497
G01 X29.5913 Y16.8659
G01 X29.4611 Y16.8469
G01 X29.3849 Y16.8122
G01 X29.2904 Y16.7320
G01 X29.2335 Y16.6446
G01 X29.1956 Y16.4874
G01 X29.1984 Y10.0696
G01 X29.1724 Y9.8738
G01 X29.1138 Y9.6849
G01 X28.9940 Y9.4625
G01 X28.8686 Y9.3095
G01 X28.7192 Y9.1799
G01 X28.5084 Y9.0351
G01 X25.8371 Y6.3628
G01 X25.7533 Y6.2025
G01 X25.6717 Y5.8666
G01 X25.5776 Y5.6579
G01 X25.4538 Y5.4653
G01 X25.3028 Y5.2932
G01 X25.1280 Y5.1452
G01 X24.9333 Y5.0247
G01 X24.7229 Y4.9343
G01 X24.5984 Y4.9015
G01 X24.5015 Y4.8760
G01 X24.2739 Y4.8511
G01 X24.0451 Y4.8601
G01 X23.8202 Y4.9028
G01 X23.6040 Y4.9783
G01 X23.4014 Y5.0849
G01 X23.2167 Y5.2203
G01 X23.0541 Y5.3815
G01 X22.9171 Y5.5649
G01 X22.8087 Y5.7667
G01 X22.7314 Y5.9822
G01 X22.6834 Y6.2134
G01 X22.6087 Y6.3546
G01 X22.3740 Y6.5827
G01 X22.3082 Y6.6160
G01 X22.1826 Y6.6482
G01 X15.2808 Y6.6487
G01 X15.1386 Y6.6132
G01 X15.0575 Y6.5604
G01 X14.9798 Y6.4768
G01 X14.8864 Y6.3053
G01 X14.7913 Y6.1887
G01 X14.6747 Y6.0936
G01 X14.5414 Y6.0239
G01 X14.3953 Y5.9820
G01 X12.7188 Y5.9745
G01 X12.6347 Y5.9820
G01 X12.4886 Y6.0239
G01 X12.3553 Y6.0936
G01 X12.2387 Y6.1887
G01 X12.1436 Y6.3053
G01 X12.0739 Y6.4386
G01 X12.0320 Y6.5847
G01 X12.0245 Y8.9612
G01 X12.0320 Y9.0453
G01 X12.0739 Y9.1914
G01 X12.1436 Y9.3247
G01 X12.2387 Y9.4413
G01 X12.2961 Y9.4882
G01 X12.3553 Y9.5364
G01 X12.4886 Y9.6061
G01 X12.6347 Y9.6480
G01 X12.7188 Y9.6555
G01 X14.3953 Y9.6480
G01 X14.5414 Y9.6061
G01 X14.6747 Y9.5364
G01 X14.7913 Y9.4413
G01 X14.8864 Y9.3247
G01 X14.9771 Y9.1568
G01 X15.0589 Y9.0667
G01 X15.1349 Y9.0193
G01 X15.2867 Y8.9809
G01 X22.9207 Y8.9790
G01 X23.1125 Y8.9427
G01 X23.3006 Y8.8727
G01 X23.4697 Y8.7746
G01 X23.6155 Y8.6536
G01 X23.9838 Y8.2857
G01 X24.1039 Y8.2214
G01 X24.2720 Y8.2073
G01 X24.3593 Y8.2317
G01 X24.4929 Y8.3162
G01 X26.7547 Y10.5780
G01 X26.8182 Y10.6659
G01 X26.8558 Y10.7812
G01 X26.8645 Y16.9121
G01 X26.8426 Y17.0366
G01 X26.7583 Y17.1779
G01 X23.6553 Y20.2812
G01 X23.5734 Y20.3433
G01 X23.4428 Y20.3869
G01 X23.3652 Y20.3937
G01 X23.2269 Y20.3589
G01 X23.1587 Y20.3226
G01 X23.0586 Y20.2169
G01 X22.9138 Y19.9903
G01 X22.7628 Y19.8182
G01 X22.5710 Y19.6526
G01 X22.4999 Y19.5513
G01 X22.4719 Y19.4712
G01 X22.4645 Y19.3290
G01 X22.4849 Y19.2518
G01 X22.5534 Y19.1324
G01 X25.1215 Y16.5614
G01 X25.2394 Y16.3897
G01 X25.3211 Y16.2113
G01 X25.3725 Y16.0178
G01 X25.3896 Y15.8313
G01 X25.3864 Y12.5141
G01 X25.4415 Y12.3418
G01 X25.6143 Y12.0601
G01 X25.6973 Y11.8467
G01 X25.7479 Y11.6234
G01 X25.7635 Y11.3204
G01 X25.7338 Y11.0870
G01 X25.6717 Y10.8666
G01 X25.5776 Y10.6579
G01 X25.4538 Y10.4653
G01 X25.3028 Y10.2932
G01 X25.1280 Y10.1452
G01 X24.8606 Y9.9935
G01 X24.7229 Y9.9343
G01 X24.5015 Y9.8760
G01 X24.2739 Y9.8511
G01 X24.0451 Y9.8601
G01 X23.8202 Y9.9028
G01 X23.6040 Y9.9783
G01 X23.4014 Y10.0849
G01 X23.2167 Y10.2203
G01 X23.0541 Y10.3815
G01 X22.9171 Y10.5649
G01 X22.8087 Y10.7667
G01 X22.7462 Y10.9409
G01 X22.6867 Y11.2067
G01 X22.6757 Y11.4354
G01 X22.6986 Y11.6633
G01 X22.7550 Y11.8852
G01 X22.8436 Y12.0964
G01 X23.0105 Y12.3653
G01 X23.0541 Y12.5291
G01 X23.0543 Y15.1796
G01 X23.0380 Y15.2819
G01 X22.9786 Y15.3982
G01 X16.5178 Y21.8689
G01 X16.4370 Y21.9261
G01 X16.2833 Y21.9783
G01 X16.1261 Y21.9598
G01 X16.0320 Y21.9121
G01 X15.9168 Y21.7948
G01 X15.8640 Y21.6367
G01 X15.8605 Y18.9118
G01 X15.8233 Y18.7047
G01 X15.7549 Y18.5190
G01 X15.6546 Y18.3453
G01 X15.5336 Y18.1995
G01 X13.4423 Y16.1040
G01 X13.4090 Y16.0382
G01 X13.3759 Y15.9007
G01 X13.3680 Y15.0397
G01 X13.3261 Y14.8936
G01 X13.2564 Y14.7603
G01 X13.1613 Y14.6437
G01 X13.0447 Y14.5486
G01 X12.9114 Y14.4789
G01 X12.7653 Y14.4370
G01 X12.6812 Y14.4295
G01 X9.0888 Y14.4295
G01 X9.0047 Y14.4370
G01 X8.7577 Y14.5179
G01 X8.6763 Y14.5283
G01 X8.4958 Y14.4897
G01 X8.3416 Y14.3522
G01 X8.2910 Y14.2170
G01 X8.2805 Y14.1438
G01 X8.2807 Y9.7057
G01 X8.3152 Y9.5616
G01 X8.3652 Y9.4742
G01 X8.4864 Y9.3247
G01 X8.5561 Y9.1914
G01 X8.5980 Y9.0453
G01 X8.6055 Y8.9612
G01 X8.6055 Y6.6688
G01 X8.5980 Y6.5847
G01 X8.5561 Y6.4386
G01 X8.4864 Y6.3053
G01 X8.3913 Y6.1887
G01 X8.2747 Y6.0936
G01 X8.1414 Y6.0239
G01 X7.9953 Y5.9820
G01 X6.3188 Y5.9745
G01 X6.2347 Y5.9820
G01 X6.0886 Y6.0239
G01 X5.9553 Y6.0936
G01 X5.8387 Y6.1887
G01 X5.7436 Y6.3053
G01 X5.6739 Y6.4386
G01 X5.6320 Y6.5847
G01 X5.6245 Y6.6688
G01 X5.6320 Y9.0453
G01 X5.6739 Y9.1914
G01 X5.7436 Y9.3247
G01 X5.9032 Y9.5312
G01 X5.9491 Y9.6996
G01 X5.9495 Y14.0435
G01 X5.9322 Y14.1511
G01 X5.8960 Y14.2376
G01 X5.8056 Y14.3426
G01 X5.7387 Y14.3864
G01 X5.6214 Y14.4229
G01 X4.0047 Y14.4370
G01 X3.8586 Y14.4789
G01 X3.7253 Y14.5486
G01 X3.6087 Y14.6437
G01 X3.5136 Y14.7603
G01 X3.4439 Y14.8936
G01 X3.4020 Y15.0397
G01 X3.3945 Y15.1238
G01 X3.4020 Y17.1003
G01 X3.4439 Y17.2464
G01 X3.5136 Y17.3797
G01 X3.6087 Y17.4963
G01 X3.7253 Y17.5914
G01 X3.8586 Y17.6611
G01 X4.0047 Y17.7030
G01 X5.7337 Y17.7111
G01 X5.8433 Y17.7330
G01 X5.9832 Y17.8167
G01 X7.6714 Y19.5047
G01 X7.7332 Y19.5860
G01 X7.7844 Y19.7717
G01 X7.7804 Y21.2041
G01 X7.7597 Y21.2932
G01 X7.7220 Y21.3654
G01 X7.6406 Y21.4576
G01 X7.5531 Y21.5096
G01 X7.4119 Y21.5441
G01 X6.5697 Y21.5520
G01 X6.4236 Y21.5939
G01 X6.2903 Y21.6636
G01 X6.1737 Y21.7587
G01 X6.0786 Y21.8753
G01 X6.0089 Y22.0086
G01 X5.9670 Y22.1547
G01 X5.9593 Y24.0746
G01 X5.9430 Y24.1769
G01 X5.8836 Y24.2932
G01 X2.7557 Y27.4310
G01 X2.6054 Y27.5186
G01 X2.4963 Y27.5389
G01 X2.3257 Y27.5052
G01 X2.2045 Y27.4138
G01 X2.1385 Y27.3175
G01 X2.1005 Y27.1544
G01 X2.1005 Y2.3615
G01 X2.1187 Y2.2508
M05
G00 X2.2742 Y2.2879
G01 F60.00
M03
G01 F500.00
G01 X2.3622 Y2.1727
G01 X2.4865 Y2.1355
G01 X49.4825 Y2.1355
G01 X49.5354 Y2.1425
G01 X49.6347 Y2.1944
G01 X49.6917 Y2.2807
G01 X49.7043 Y2.3293
G01 X49.6952 Y2.4374
G01 X49.6302 Y2.5324
G01 X36.0797 Y16.0758
G01 X36.0286 Y16.1134
G01 X35.9273 Y16.1417
G01 X32.1464 Y16.1420
G01 X31.8413 Y16.0649
G01 X31.7130 Y16.0545
G01 X30.6970 Y16.0545
G01 X30.5687 Y16.0649
G01 X30.3694 Y16.1161
G01 X30.1827 Y16.2016
G01 X30.0140 Y16.3188
G01 X29.8688 Y16.4640
G01 X29.7319 Y16.6501
G01 X29.6410 Y16.6971
G01 X29.5994 Y16.7061
G01 X29.5004 Y16.6918
G01 X29.4068 Y16.6222
G01 X29.3820 Y16.5850
G01 X29.3555 Y16.4814
G01 X29.3588 Y10.0623
G01 X29.3293 Y9.8393
G01 X29.2626 Y9.6245
G01 X29.1263 Y9.3715
G01 X28.9837 Y9.1976
G01 X28.8138 Y9.0501
G01 X28.6215 Y8.9220
G01 X25.9551 Y6.2547
G01 X25.9067 Y6.1571
G01 X25.8224 Y5.8118
G01 X25.7186 Y5.5813
G01 X25.5819 Y5.3688
G01 X25.4153 Y5.1787
G01 X25.2223 Y5.0154
G01 X25.0074 Y4.8824
G01 X24.7752 Y4.7826
G01 X24.6391 Y4.7468
G01 X24.5308 Y4.7183
G01 X24.2795 Y4.6908
G01 X24.0270 Y4.7007
G01 X23.7787 Y4.7478
G01 X23.5400 Y4.8312
G01 X23.3164 Y4.9488
G01 X23.1125 Y5.0983
G01 X22.9330 Y5.2762
G01 X22.7818 Y5.4787
G01 X22.6622 Y5.7014
G01 X22.5767 Y5.9393
G01 X22.5321 Y6.1614
G01 X22.4798 Y6.2598
G01 X22.2855 Y6.4495
G01 X22.1648 Y6.4892
G01 X15.3001 Y6.4895
G01 X15.2061 Y6.4678
G01 X15.1658 Y6.4424
G01 X15.1064 Y6.3790
G01 X15.0207 Y6.2167
G01 X14.9050 Y6.0750
G01 X14.7633 Y5.9593
G01 X14.6011 Y5.8746
G01 X14.4247 Y5.8240
G01 X12.7117 Y5.8145
G01 X12.6053 Y5.8240
G01 X12.4289 Y5.8746
G01 X12.2667 Y5.9593
G01 X12.1250 Y6.0750
G01 X12.0093 Y6.2167
G01 X11.9246 Y6.3789
G01 X11.8740 Y6.5553
G01 X11.8645 Y8.9684
G01 X11.8740 Y9.0747
G01 X11.9246 Y9.2511
G01 X12.0093 Y9.4133
G01 X12.1250 Y9.5550
G01 X12.1950 Y9.6122
G01 X12.2667 Y9.6707
G01 X12.4289 Y9.7554
G01 X12.6053 Y9.8060
G01 X12.7116 Y9.8155
G01 X14.4247 Y9.8060
G01 X14.6011 Y9.7554
G01 X14.7633 Y9.6707
G01 X14.9050 Y9.5550
G01 X15.0207 Y9.4133
G01 X15.1039 Y9.2548
G01 X15.1629 Y9.1883
G01 X15.2927 Y9.1408
G01 X22.9426 Y9.1377
G01 X23.1639 Y9.0946
G01 X23.3590 Y9.0222
G01 X23.5538 Y8.9111
G01 X23.7274 Y8.7687
G01 X24.0732 Y8.4184
G01 X24.1443 Y8.3762
G01 X24.2559 Y8.3664
G01 X24.3798 Y8.4293
G01 X26.6383 Y10.6878
G01 X26.6759 Y10.7389
G01 X26.7005 Y10.8195
G01 X26.7045 Y16.9121
G01 X26.6939 Y16.9775
G01 X26.6383 Y17.0719
G01 X23.5004 Y20.2009
G01 X23.3816 Y20.2343
G01 X23.2485 Y20.1898
G01 X23.1909 Y20.1268
G01 X23.0419 Y19.8938
G01 X22.8753 Y19.7037
G01 X22.6997 Y19.5551
G01 X22.6443 Y19.4816
G01 X22.6237 Y19.3452
G01 X22.6826 Y19.2272
G01 X25.2444 Y16.6639
G01 X25.3822 Y16.4623
G01 X25.4745 Y16.2579
G01 X25.5311 Y16.0411
G01 X25.5502 Y15.8336
G01 X25.5462 Y12.5219
G01 X25.5848 Y12.4128
G01 X25.7591 Y12.1291
G01 X25.8508 Y11.8936
G01 X25.9065 Y11.6471
G01 X25.9232 Y11.3082
G01 X25.8910 Y11.0550
G01 X25.8224 Y10.8118
G01 X25.7186 Y10.5813
G01 X25.5819 Y10.3688
G01 X25.4153 Y10.1787
G01 X25.2224 Y10.0154
G01 X24.9237 Y9.8464
G01 X24.7752 Y9.7826
G01 X24.5308 Y9.7183
G01 X24.2795 Y9.6908
G01 X24.0270 Y9.7007
G01 X23.7787 Y9.7478
G01 X23.5400 Y9.8312
G01 X23.3164 Y9.9488
G01 X23.1125 Y10.0983
G01 X22.9330 Y10.2762
G01 X22.7818 Y10.4787
G01 X22.6622 Y10.7014
G01 X22.5956 Y10.8868
G01 X22.5274 Y11.1872
G01 X22.5153 Y11.4396
G01 X22.5406 Y11.6911
G01 X22.6028 Y11.9361
G01 X22.7006 Y12.1692
G01 X22.8627 Y12.4273
G01 X22.8942 Y12.5350
G01 X22.8945 Y15.1724
G01 X22.8845 Y15.2363
G01 X22.8413 Y15.3161
G01 X16.4063 Y21.7542
G01 X16.2749 Y21.8185
G01 X16.1738 Y21.8069
G01 X16.1287 Y21.7845
G01 X16.0557 Y21.7155
G01 X16.0208 Y21.6018
G01 X16.0205 Y18.9081
G01 X15.9791 Y18.6670
G01 X15.9023 Y18.4560
G01 X15.7911 Y18.2612
G01 X15.6487 Y18.0876
G01 X13.5755 Y16.0155
G01 X13.5358 Y15.8948
G01 X13.5260 Y15.0103
G01 X13.4754 Y14.8339
G01 X13.3907 Y14.6717
G01 X13.2750 Y14.5300
G01 X13.1333 Y14.4143
G01 X12.9711 Y14.3296
G01 X12.7947 Y14.2790
G01 X12.6884 Y14.2695
G01 X9.0817 Y14.2695
G01 X8.9753 Y14.2790
G01 X8.6844 Y14.3685
G01 X8.5656 Y14.3458
G01 X8.4777 Y14.2680
G01 X8.4405 Y14.1438
G01 X8.4405 Y9.7130
G01 X8.4505 Y9.6491
G01 X8.4900 Y9.5752
G01 X8.6207 Y9.4133
G01 X8.7054 Y9.2511
G01 X8.7560 Y9.0747
G01 X8.7655 Y8.9684
G01 X8.7655 Y6.6616
G01 X8.7560 Y6.5553
G01 X8.7054 Y6.3789
G01 X8.6207 Y6.2167
G01 X8.5050 Y6.0750
G01 X8.3633 Y5.9593
G01 X8.2011 Y5.8746
G01 X8.0247 Y5.8240
G01 X6.3117 Y5.8145
G01 X6.2053 Y5.8240
G01 X6.0289 Y5.8746
G01 X5.8667 Y5.9593
G01 X5.7250 Y6.0750
G01 X5.6093 Y6.2167
G01 X5.5246 Y6.3789
G01 X5.4740 Y6.5553
G01 X5.4645 Y6.6616
G01 X5.4740 Y9.0747
G01 X5.5246 Y9.2511
G01 X5.6093 Y9.4133
G01 X5.7558 Y9.5943
G01 X5.7892 Y9.7056
G01 X5.7895 Y14.0435
G01 X5.7758 Y14.1171
G01 X5.6878 Y14.2323
G01 X5.5709 Y14.2692
G01 X3.9753 Y14.2790
G01 X3.7989 Y14.3296
G01 X3.6367 Y14.4143
G01 X3.4950 Y14.5300
G01 X3.3793 Y14.6717
G01 X3.2946 Y14.8339
G01 X3.2440 Y15.0103
G01 X3.2440 Y17.1297
G01 X3.2946 Y17.3061
G01 X3.3793 Y17.4683
G01 X3.4950 Y17.6100
G01 X3.5677 Y17.6694
G01 X3.6367 Y17.7257
G01 X3.7989 Y17.8104
G01 X3.9753 Y17.8610
G01 X4.0816 Y17.8705
G01 X5.7264 Y17.8709
G01 X5.7827 Y17.8811
G01 X5.8732 Y17.9329
G01 X7.5908 Y19.6590
G01 X7.6245 Y19.7776
G01 X7.6222 Y21.1798
G01 X7.5955 Y21.2675
G01 X7.5309 Y21.3411
G01 X7.4948 Y21.3605
G01 X7.3985 Y21.3845
G01 X6.5403 Y21.3940
G01 X6.3639 Y21.4446
G01 X6.2017 Y21.5293
G01 X6.0600 Y21.6450
G01 X5.9443 Y21.7867
G01 X5.8596 Y21.9489
G01 X5.8090 Y22.1253
G01 X5.7995 Y24.0674
G01 X5.7895 Y24.1313
G01 X5.7463 Y24.2111
G01 X2.6454 Y27.3151
G01 X2.5044 Y27.3791
G01 X2.3956 Y27.3612
G01 X2.3118 Y27.2952
G01 X2.2870 Y27.2580
G01 X2.2605 Y27.1544
G01 X2.2605 Y2.3615
G01 X2.2742 Y2.2879
M05
G00 X12.6776 Y6.6665
G01 F60.00
M03
G01 F500.00
G01 X12.7164 Y6.6276
G01 X12.7650 Y6.6150
G01 X14.3013 Y6.6218
G01 X14.3430 Y6.6524
G01 X14.3640 Y6.7007
G01 X14.3650 Y7.2898
G01 X22.5824 Y7.2898
G01 X23.3326 Y6.5397
G01 X23.3240 Y6.3117
G01 X23.3603 Y6.1291
G01 X23.4691 Y5.8991
G01 X23.5872 Y5.7552
G01 X23.7915 Y5.6037
G01 X23.9635 Y5.5324
G01 X24.2151 Y5.4951
G01 X24.4004 Y5.5134
G01 X24.5689 Y5.5655
G01 X24.7159 Y5.6441
G01 X24.8528 Y5.7552
G01 X24.9655 Y5.8910
G01 X25.0495 Y6.0461
G01 X25.1016 Y6.2146
G01 X25.1199 Y6.3901
G01 X25.1074 Y6.5397
G01 X28.1943 Y9.6265
G01 X28.3176 Y9.6857
G01 X28.4014 Y9.7536
G01 X28.4954 Y9.8818
G01 X28.5460 Y10.0274
G01 X28.5552 Y17.5547
G01 X28.5440 Y17.6620
G01 X28.4908 Y17.8066
G01 X28.4014 Y17.9261
G01 X26.0486 Y20.2789
G01 X26.1841 Y20.1691
G01 X26.3311 Y20.0905
G01 X26.5967 Y20.0240
G01 X26.8604 Y20.0384
G01 X27.0289 Y20.0905
G01 X27.1759 Y20.1691
G01 X27.3787 Y20.3529
G01 X27.4759 Y20.5001
G01 X27.5397 Y20.6541
G01 X27.5799 Y20.9151
G01 X27.5397 Y21.1859
G01 X27.4713 Y21.3485
G01 X27.3198 Y21.5528
G01 X27.1840 Y21.6655
G01 X27.0198 Y21.7533
G01 X26.8507 Y21.8035
G01 X26.5967 Y21.8160
G01 X26.4227 Y21.7823
G01 X26.2515 Y21.7113
G01 X26.0472 Y21.5598
G01 X25.9345 Y21.4240
G01 X25.8505 Y21.2689
G01 X25.7965 Y21.0907
G01 X25.7840 Y20.8367
G01 X25.8176 Y20.6630
G01 X25.8887 Y20.4915
G01 X26.0389 Y20.2886
G01 X20.6650 Y25.6626
G01 X20.6557 Y35.2579
G01 X20.6230 Y35.3657
G01 X20.5425 Y35.4972
G01 X19.4773 Y36.5655
G01 X19.5049 Y36.7901
G01 X19.4847 Y36.9949
G01 X19.4269 Y37.1822
G01 X19.2810 Y37.4255
G01 X19.2086 Y37.5055
G01 X19.0564 Y37.6291
G01 X18.8831 Y37.7206
G01 X18.6953 Y37.7766
G01 X18.4119 Y37.7905
G01 X18.2189 Y37.7531
G01 X18.0293 Y37.6745
G01 X17.8669 Y37.5648
G01 X17.6759 Y37.3539
G01 X17.5794 Y37.1731
G01 X17.5104 Y36.8979
G01 X17.5095 Y36.7019
G01 X17.5469 Y36.5089
G01 X17.6209 Y36.3280
G01 X17.7290 Y36.1645
G01 X17.8680 Y36.0242
G01 X18.0380 Y35.9109
G01 X18.3051 Y35.8153
G01 X18.5099 Y35.7951
G01 X18.7345 Y35.8227
G01 X19.6145 Y34.9427
G01 X19.6145 Y25.9702
G01 X19.1859 Y25.9702
G01 X19.0844 Y26.0326
G01 X18.9599 Y26.0574
G01 X18.0501 Y26.0574
G01 X17.9166 Y26.0289
G01 X17.7877 Y25.9333
G01 X17.7441 Y25.8681
G01 X17.7128 Y25.7806
G01 X17.7050 Y25.1825
G01 X17.7216 Y25.0762
G01 X17.7668 Y24.9840
G01 X17.8368 Y24.9089
G01 X17.9256 Y24.8574
G01 X18.0256 Y24.8338
G01 X18.9599 Y24.8326
G01 X19.0844 Y24.8574
G01 X19.1859 Y24.9198
G01 X19.9222 Y24.9198
G01 X27.5048 Y17.3372
G01 X27.5048 Y10.4226
G01 X24.3647 Y7.2824
G01 X24.2249 Y7.2949
G01 X24.0753 Y7.2824
G01 X23.1358 Y8.2187
G01 X23.0055 Y8.2982
G01 X22.8976 Y8.3310
G01 X14.3650 Y8.3402
G01 X14.3640 Y8.9293
G01 X14.3430 Y8.9776
G01 X14.3013 Y9.0082
G01 X12.7650 Y9.0150
G01 X12.6943 Y8.9857
G01 X12.6650 Y8.9150
G01 X12.6650 Y6.7150
G01 X12.6776 Y6.6665
M05
G00 X14.8450 Y6.7996
G01 F60.00
M03
G01 F500.00
G01 X14.8450 Y6.8098
G01 X14.8564 Y6.8098
G01 X14.8521 Y6.8060
G01 X14.8450 Y6.7996
M05
G00 X14.8547 Y8.8202
G01 F60.00
M03
G01 F500.00
G01 X14.8450 Y8.8202
G01 X14.8450 Y8.8287
G01 X14.8509 Y8.8234
G01 X14.8547 Y8.8202
M05
G00 X8.1202 Y14.5891
G01 F60.00
M03
G01 F500.00
G01 X8.1201 Y14.8522
G01 X8.1888 Y14.9978
G01 X8.2144 Y15.1471
G01 X8.2149 Y16.9783
G01 X9.6744 Y18.4383
G01 X9.7895 Y18.5823
G01 X9.8798 Y18.7533
G01 X9.8798 Y17.5500
G01 X9.1264 Y17.5499
G01 X8.9782 Y17.5283
G01 X8.8577 Y17.4794
G01 X8.7520 Y17.4054
G01 X8.6653 Y17.3101
G01 X8.6006 Y17.1953
G01 X8.5671 Y17.0869
G01 X8.5551 Y16.9786
G01 X8.5551 Y15.1614
G01 X8.5807 Y14.9994
G01 X8.6531 Y14.8475
G01 X8.4846 Y14.8236
G01 X8.3661 Y14.7825
G01 X8.2520 Y14.7113
G01 X8.1202 Y14.5891
G01 X8.3401 Y14.9456
G01 X8.3701 Y15.0870
G01 X8.3750 Y16.9121
G01 X8.3950 Y16.9321
G01 X8.3951 Y15.1643
G01 X8.4218 Y14.9729
G01 X8.3401 Y14.9456
M05
G00 X9.1729 Y17.7100
G01 F60.00
M03
G01 F500.00
G01 X9.7198 Y18.2569
G01 X9.7198 Y17.7100
G01 X9.1729 Y17.7100
G01 X9.5591 Y17.8700
M05
G00 X12.0502 Y19.1584
G01 F60.00
M03
G01 F500.00
G01 X12.0732 Y19.1486
G01 X12.0814 Y19.1453
G01 X12.0832 Y19.1446
G01 X12.0842 Y19.1442
G01 X12.0915 Y19.1414
G01 X12.1358 Y19.1255
G01 X12.2189 Y19.1020
G01 X12.3759 Y19.0777
G01 X13.1182 Y19.0861
G01 X12.0502 Y18.0181
G01 X12.0502 Y19.1584
G01 X12.2102 Y18.9399
G01 X12.4033 Y18.9161
G01 X12.7209 Y18.9150
G01 X12.2102 Y18.4043
G01 X12.2102 Y18.9399
G01 X11.8902 Y19.4503
G01 X12.0746 Y19.3237
G01 X12.2962 Y19.2490
G01 X12.4436 Y19.2350
G01 X13.0607 Y19.2398
G01 X13.2405 Y19.2797
G01 X13.4245 Y19.3690
G01 X13.5710 Y19.4901
G01 X13.6898 Y19.6478
G01 X13.6898 Y19.4314
G01 X11.8902 Y17.6318
G01 X11.8902 Y19.4503
M05
G00 X13.6898 Y21.3822
G01 F60.00
M03
G01 F500.00
G01 X13.5635 Y21.5477
G01 X13.5417 Y21.5689
G01 X13.5388 Y21.5715
G01 X13.5206 Y21.5880
G01 X13.5088 Y21.5983
G01 X13.4558 Y21.6395
G01 X13.3552 Y21.7014
G01 X13.3552 Y21.7235
G01 X13.4057 Y21.7130
G01 X13.4285 Y21.7097
G01 X13.4342 Y21.7090
G01 X13.4685 Y21.7061
G01 X13.6898 Y21.7050
G01 X13.6898 Y21.3822
G01 X13.2000 Y21.9914
G01 X13.2989 Y21.9163
G01 X13.4173 Y21.8734
G01 X13.8498 Y21.8650
G01 X13.8498 Y19.3651
G01 X11.8747 Y17.3900
G01 X11.7302 Y17.3900
G01 X11.7302 Y19.7346
G01 X11.7975 Y19.9038
G01 X11.8856 Y19.7002
G01 X12.0294 Y19.5416
G01 X12.1274 Y19.4765
G01 X12.2334 Y19.4303
G01 X12.4396 Y19.3951
G01 X13.0176 Y19.3967
G01 X13.2207 Y19.4428
G01 X13.3487 Y19.5107
G01 X13.4565 Y19.6018
G01 X13.5532 Y19.7312
G01 X13.6109 Y19.8621
G01 X13.6424 Y20.0591
G01 X13.6425 Y20.9670
G01 X13.6299 Y21.0940
G01 X13.5727 Y21.2624
G01 X13.4796 Y21.4027
G01 X13.3502 Y21.5183
G01 X13.1952 Y21.5966
G01 X13.2000 Y21.9914
M05
G00 X11.7054 Y22.2528
G01 F60.00
M03
G01 F500.00
G01 X11.7514 Y22.1976
G01 X11.8248 Y22.1850
G01 X11.8342 Y20.7762
G01 X11.8668 Y20.6695
G01 X11.9161 Y20.5792
G01 X12.0975 Y20.3847
G01 X12.0988 Y20.0356
G01 X12.1412 Y19.8957
G01 X12.2497 Y19.7763
G01 X12.3181 Y19.7399
G01 X12.4083 Y19.7173
G01 X13.0019 Y19.7163
G01 X13.1418 Y19.7587
G01 X13.2612 Y19.8672
G01 X13.3166 Y20.0016
G01 X13.3224 Y20.9699
G01 X13.2834 Y21.1256
G01 X13.1907 Y21.2386
G01 X13.0456 Y21.3072
G01 X12.8752 Y21.3150
G01 X12.8752 Y22.1850
G01 X12.9626 Y22.2070
G01 X13.0000 Y22.2850
G01 X13.0000 Y26.8850
G01 X12.9626 Y26.9630
G01 X12.8752 Y26.9850
G01 X12.8752 Y27.0524
G01 X13.2026 Y27.3798
G01 X17.6524 Y27.3798
G01 X17.7050 Y27.3272
G01 X17.7051 Y27.0026
G01 X17.7216 Y26.9012
G01 X17.7877 Y26.7817
G01 X17.8857 Y26.7012
G01 X17.9581 Y26.6713
G01 X18.0501 Y26.6576
G01 X18.9844 Y26.6588
G01 X19.0844 Y26.6824
G01 X19.1808 Y26.7402
G01 X19.2613 Y26.8382
G01 X19.2972 Y26.9344
G01 X19.3037 Y27.5619
G01 X19.2801 Y27.6619
G01 X19.2432 Y27.7310
G01 X19.1528 Y27.8212
G01 X19.0281 Y27.8747
G01 X18.6353 Y27.8825
G01 X18.1993 Y28.3140
G01 X18.0664 Y28.3920
G01 X17.9166 Y28.4280
G01 X12.9850 Y28.4302
G01 X12.8279 Y28.4061
G01 X12.6892 Y28.3389
G01 X11.9161 Y27.5658
G01 X11.8630 Y27.4664
G01 X11.8340 Y27.3676
G01 X11.8248 Y26.9850
G01 X11.7442 Y26.9680
G01 X11.7010 Y26.8993
G01 X11.7054 Y22.2528
M05
G00 X7.8415 Y21.7067
G01 F60.00
M03
G01 F500.00
G01 X7.9448 Y21.7235
G01 X7.9448 Y21.5983
G01 X7.8887 Y21.6622
G01 X7.8415 Y21.7067
M05
G00 X8.1000 Y27.1786
G01 F60.00
M03
G01 F500.00
G01 X7.9765 Y27.2660
G01 X7.8372 Y27.3032
G01 X6.7000 Y27.3050
G01 X6.6032 Y27.2935
G01 X6.4547 Y27.2258
G01 X6.3397 Y27.1007
G01 X6.2864 Y26.9564
G01 X6.2800 Y26.7503
G01 X3.4752 Y29.5551
G01 X3.4752 Y43.4345
G01 X6.9067 Y40.0031
G01 X7.0836 Y39.8697
G01 X7.2500 Y39.7977
G01 X7.5000 Y39.7598
G01 X15.3359 Y39.7598
G01 X15.4932 Y39.7758
G01 X15.6489 Y39.8224
G01 X15.7921 Y39.8975
G01 X15.9142 Y39.9945
G01 X19.6400 Y43.7197
G01 X19.6498 Y43.0164
G01 X19.7098 Y42.8326
G01 X19.8055 Y42.6893
G01 X19.9460 Y42.5676
G01 X20.1202 Y42.4875
G01 X20.2894 Y42.4605
G01 X20.7597 Y42.4600
G01 X20.8348 Y42.3849
G01 X20.8348 Y35.6410
G01 X20.7388 Y35.7565
G01 X19.8194 Y36.6759
G01 X19.8180 Y36.9293
G01 X19.7691 Y37.1747
G01 X19.6713 Y37.4129
G01 X19.5284 Y37.6285
G01 X19.4235 Y37.7426
G01 X19.2406 Y37.8909
G01 X19.1088 Y37.9684
G01 X18.8966 Y38.0554
G01 X18.6138 Y38.1102
G01 X18.3962 Y38.1102
G01 X18.2659 Y38.0929
G01 X17.9954 Y38.0125
G01 X17.7548 Y37.8807
G01 X17.5865 Y37.7426
G01 X17.4956 Y37.6452
G01 X17.3387 Y37.4129
G01 X17.2363 Y37.1583
G01 X17.1939 Y36.9448
G01 X17.1852 Y36.8038
G01 X17.2101 Y36.5392
G01 X17.2875 Y36.2854
G01 X17.4103 Y36.0576
G01 X17.5837 Y35.8501
G01 X17.7891 Y35.6864
G01 X17.9012 Y35.6216
G01 X18.1023 Y35.5383
G01 X18.3707 Y35.4820
G01 X18.6241 Y35.4806
G01 X19.2945 Y34.8102
G01 X19.2945 Y28.1098
G01 X19.1958 Y28.1576
G01 X19.0770 Y28.1912
G01 X18.7678 Y28.2025
G01 X18.3564 Y28.5959
G01 X18.2015 Y28.6823
G01 X18.0435 Y28.7321
G01 X17.8720 Y28.7502
G01 X16.3585 Y28.7502
G01 X16.4389 Y28.8766
G01 X16.4700 Y29.0350
G01 X16.4700 Y38.4350
G01 X16.4571 Y38.5375
G01 X16.4239 Y38.6262
G01 X16.3663 Y38.7112
G01 X16.2953 Y38.7758
G01 X16.1797 Y38.8344
G01 X16.0500 Y38.8550
G01 X5.2500 Y38.8550
G01 X5.1475 Y38.8421
G01 X5.0539 Y38.8064
G01 X4.9738 Y38.7513
G01 X4.9053 Y38.6748
G01 X4.8485 Y38.5583
G01 X4.8300 Y38.4350
G01 X4.8300 Y29.0350
G01 X4.8474 Y28.9153
G01 X4.8993 Y28.8041
G01 X4.9918 Y28.7039
G01 X5.1036 Y28.6414
G01 X5.2271 Y28.6158
G01 X9.8048 Y28.6150
G01 X9.8000 Y27.1786
G01 X9.6643 Y27.2715
G01 X9.5000 Y27.3050
G01 X8.3628 Y27.3032
G01 X8.2235 Y27.2660
G01 X8.1000 Y27.1786
M05
G00 X6.1465 Y27.7889
G01 F60.00
M03
G01 F500.00
G01 X5.9604 Y27.9750
G01 X9.1648 Y27.9750
G01 X9.1648 Y27.9450
G01 X8.3570 Y27.9440
G01 X8.1000 Y27.9017
G01 X7.8247 Y27.9446
G01 X6.6387 Y27.9430
G01 X6.3858 Y27.8973
G01 X6.1465 Y27.7889
G01 X5.5741 Y28.1350
G01 X9.3248 Y28.1350
G01 X9.3248 Y27.7850
G01 X8.3635 Y27.7841
G01 X8.1000 Y27.7335
G01 X7.9684 Y27.7689
G01 X7.8229 Y27.7846
G01 X6.6456 Y27.7831
G01 X6.4999 Y27.7622
G01 X6.3667 Y27.7209
G01 X6.2409 Y27.6590
G01 X6.1288 Y27.5803
G01 X5.5741 Y28.1350
G01 X5.1848 Y28.2981
G01 X9.4848 Y28.2950
G01 X9.4848 Y27.6250
G01 X8.3670 Y27.6241
G01 X8.2290 Y27.6048
G01 X8.1000 Y27.5614
G01 X7.9695 Y27.6051
G01 X7.8301 Y27.6242
G01 X6.6399 Y27.6223
G01 X6.4903 Y27.5947
G01 X6.3563 Y27.5403
G01 X6.2279 Y27.4547
G01 X6.1283 Y27.3546
G01 X5.1848 Y28.2981
G01 X5.1717 Y28.9728
G01 X5.2500 Y28.9350
G01 X10.1248 Y28.9350
G01 X10.1248 Y26.9850
G01 X10.0374 Y26.9630
G01 X10.0000 Y26.8850
G01 X10.0000 Y22.2850
G01 X10.0220 Y22.2224
G01 X10.0716 Y22.1891
G01 X10.3598 Y22.1850
G01 X10.3598 Y21.1959
G01 X10.3011 Y21.1034
G01 X10.2738 Y20.9944
G01 X10.2725 Y20.0650
G01 X10.2974 Y19.9356
G01 X10.3598 Y19.8341
G01 X10.3598 Y17.0700
G01 X9.1350 Y17.0700
G01 X9.0864 Y17.0574
G01 X9.0520 Y17.0258
G01 X9.0350 Y16.9700
G01 X9.0350 Y15.1700
G01 X9.0643 Y15.0993
G01 X9.1350 Y15.0700
G01 X12.6350 Y15.0700
G01 X12.6836 Y15.0826
G01 X12.7180 Y15.1142
G01 X12.7350 Y15.1700
G01 X12.7350 Y16.3122
G01 X15.0664 Y18.6436
G01 X15.1558 Y18.7631
G01 X15.1989 Y18.8673
G01 X15.2202 Y19.0150
G01 X15.2202 Y23.9400
G01 X15.2059 Y24.0598
G01 X15.2324 Y24.0598
G01 X23.6948 Y15.5974
G01 X23.6948 Y12.1248
G01 X23.5213 Y11.9621
G01 X23.3867 Y11.7348
G01 X23.3240 Y11.4783
G01 X23.3384 Y11.2146
G01 X23.4287 Y10.9665
G01 X23.5802 Y10.7622
G01 X23.7915 Y10.6037
G01 X23.9635 Y10.5324
G01 X24.2249 Y10.4951
G01 X24.4773 Y10.5327
G01 X24.7159 Y10.6441
G01 X24.8598 Y10.7622
G01 X24.9709 Y10.8991
G01 X25.0533 Y11.0552
G01 X25.1035 Y11.2243
G01 X25.1199 Y11.3999
G01 X25.1016 Y11.5754
G01 X25.0159 Y11.8149
G01 X24.9125 Y11.9697
G01 X24.7452 Y12.1248
G01 X24.7452 Y15.8150
G01 X24.7238 Y15.9632
G01 X24.6593 Y16.1026
G01 X24.5914 Y16.1864
G01 X15.7869 Y24.9878
G01 X15.6555 Y25.0682
G01 X15.5064 Y25.1071
G01 X14.7000 Y25.1102
G01 X14.7000 Y26.8850
G01 X14.6780 Y26.9476
G01 X14.6287 Y26.9808
G01 X13.4857 Y26.9840
G01 X13.4220 Y26.9476
G01 X13.4000 Y26.8850
G01 X13.4010 Y22.2707
G01 X13.4293 Y22.2143
G01 X13.4857 Y22.1860
G01 X14.1698 Y22.1850
G01 X14.1698 Y19.2326
G01 X12.0072 Y17.0700
G01 X11.4102 Y17.0700
G01 X11.4102 Y19.8341
G01 X11.4689 Y19.9266
G01 X11.4962 Y20.0356
G01 X11.4975 Y20.9650
G01 X11.4726 Y21.0944
G01 X11.4102 Y21.1959
G01 X11.4102 Y24.3500
G01 X11.3861 Y24.5071
G01 X11.3000 Y24.6713
G01 X11.3000 Y26.8850
G01 X11.2626 Y26.9630
G01 X11.1752 Y26.9850
G01 X11.1752 Y28.9350
G01 X16.0500 Y28.9350
G01 X16.1058 Y28.9520
G01 X16.1400 Y28.9914
G01 X16.1500 Y38.4350
G01 X16.1207 Y38.5057
G01 X16.0500 Y38.5350
G01 X5.2500 Y38.5350
G01 X5.1874 Y38.5130
G01 X5.1500 Y38.4350
G01 X5.1500 Y29.0350
G01 X5.1718 Y28.9728
M05
G00 X2.1500 Y27.9520
G01 F60.00
M03
G01 F500.00
G01 X2.1500 Y28.0371
G01 X2.2124 Y27.9748
G01 X2.1500 Y27.9520
G01 X1.9900 Y28.4234
G01 X2.5569 Y27.8565
G01 X2.4251 Y27.8536
G01 X2.2338 Y27.8131
G01 X2.1147 Y27.7529
G01 X1.9900 Y27.6513
G01 X1.9900 Y28.4234
G01 X1.8300 Y28.9334
G01 X1.9162 Y28.7528
G01 X2.0281 Y28.6116
G01 X6.2800 Y24.3597
G01 X6.2805 Y22.2678
G01 X6.3167 Y22.1134
G01 X6.4030 Y21.9880
G01 X6.5357 Y21.8985
G01 X6.7000 Y21.8650
G01 X7.8372 Y21.8668
G01 X7.9716 Y21.9017
G01 X8.1048 Y21.9866
G01 X8.1048 Y19.4851
G01 X6.0097 Y17.3900
G01 X4.0636 Y17.3836
G01 X3.9339 Y17.3387
G01 X3.8260 Y17.2543
G01 X3.7540 Y17.1465
G01 X3.7181 Y17.0186
G01 X3.7158 Y15.1471
G01 X3.7540 Y14.9935
G01 X3.8444 Y14.8670
G01 X3.9707 Y14.7835
G01 X4.1121 Y14.7508
G01 X6.0097 Y14.7500
G01 X6.2698 Y14.4899
G01 X6.2698 Y9.3238
G01 X6.1421 Y9.2709
G01 X6.0339 Y9.1732
G01 X5.9692 Y9.0554
G01 X5.9451 Y8.9207
G01 X5.9455 Y6.6978
G01 X5.9817 Y6.5434
G01 X6.0744 Y6.4120
G01 X6.2007 Y6.3285
G01 X6.3421 Y6.2958
G01 X7.9022 Y6.2968
G01 X8.0293 Y6.3285
G01 X8.1353 Y6.3937
G01 X8.2209 Y6.4921
G01 X8.2721 Y6.6125
G01 X8.2850 Y6.7150
G01 X8.2819 Y8.9636
G01 X8.2483 Y9.0866
G01 X8.1813 Y9.1912
G01 X8.0807 Y9.2753
G01 X7.9602 Y9.3238
G01 X7.9577 Y14.9014
G01 X8.0286 Y15.0236
G01 X8.0545 Y15.1528
G01 X8.0490 Y17.0387
G01 X9.5579 Y18.5480
G01 X9.6638 Y18.6828
G01 X9.7524 Y18.8701
G01 X9.7819 Y18.9865
G01 X9.7952 Y19.1291
G01 X9.8000 Y21.9914
G01 X9.9088 Y21.9111
G01 X10.0398 Y21.8698
G01 X10.0398 Y21.2954
G01 X9.9789 Y21.1510
G01 X9.9530 Y20.9856
G01 X9.9525 Y20.0650
G01 X9.9769 Y19.8866
G01 X10.0398 Y19.7346
G01 X10.0398 Y17.3900
G01 X9.0523 Y17.3816
G01 X8.9585 Y17.3510
G01 X8.8768 Y17.3011
G01 X8.8039 Y17.2282
G01 X8.7517 Y17.1416
G01 X8.7151 Y16.9757
G01 X8.7158 Y15.1471
G01 X8.7324 Y15.0503
G01 X8.7663 Y14.9689
G01 X8.8187 Y14.8938
G01 X8.8897 Y14.8292
G01 X9.0053 Y14.7706
G01 X9.1293 Y14.7501
G01 X12.6407 Y14.7501
G01 X12.7375 Y14.7629
G01 X12.8213 Y14.7936
G01 X12.9053 Y14.8487
G01 X12.9661 Y14.9118
G01 X13.0286 Y15.0236
G01 X13.0542 Y15.1471
G01 X13.0550 Y16.1797
G01 X15.3015 Y18.4265
G01 X15.4303 Y18.5986
G01 X15.5023 Y18.7650
G01 X15.5402 Y19.0130
G01 X15.5402 Y23.2995
G01 X23.3748 Y15.4649
G01 X23.3748 Y12.2742
G01 X23.2107 Y12.0800
G01 X23.0964 Y11.8700
G01 X23.0245 Y11.6378
G01 X23.0002 Y11.4038
G01 X23.0202 Y11.1754
G01 X23.0590 Y11.0213
G01 X23.1465 Y10.8156
G01 X23.2715 Y10.6280
G01 X23.4623 Y10.4392
G01 X23.6270 Y10.3292
G01 X23.7486 Y10.2699
G01 X24.0023 Y10.1949
G01 X24.1994 Y10.1755
G01 X24.3347 Y10.1805
G01 X24.5937 Y10.2340
G01 X24.7767 Y10.3098
G01 X24.8936 Y10.3780
G01 X25.0969 Y10.5473
G01 X25.2225 Y10.7004
G01 X25.2935 Y10.8156
G01 X25.3546 Y10.9474
G01 X25.4155 Y11.1522
G01 X25.4356 Y11.2960
G01 X25.4356 Y11.4940
G01 X25.3895 Y11.7419
G01 X25.3052 Y11.9517
G01 X25.1758 Y12.1527
G01 X25.0652 Y12.2742
G01 X25.0652 Y15.8209
G01 X25.0475 Y15.9866
G01 X24.9989 Y16.1429
G01 X24.9254 Y16.2804
G01 X24.8218 Y16.4084
G01 X21.5188 Y19.7115
G01 X21.8200 Y19.7084
G01 X22.0202 Y19.7486
G01 X22.1657 Y19.8012
G01 X22.3404 Y19.8946
G01 X22.4607 Y19.9827
G01 X22.6096 Y20.1304
G01 X22.7034 Y20.2563
G01 X22.7988 Y20.4343
G01 X22.8488 Y20.5706
G01 X22.8916 Y20.7800
G01 X22.8999 Y20.9249
G01 X22.8799 Y21.1392
G01 X22.8457 Y21.2796
G01 X22.7652 Y21.4767
G01 X22.6893 Y21.6050
G01 X22.5461 Y21.7791
G01 X22.3746 Y21.9225
G01 X22.2367 Y22.0052
G01 X22.0388 Y22.0859
G01 X21.8200 Y22.1316
G01 X21.6594 Y22.1395
G01 X21.4437 Y22.1168
G01 X21.2287 Y22.0532
G01 X21.0870 Y21.9858
G01 X20.8934 Y21.8522
G01 X20.7401 Y21.6977
G01 X20.6142 Y21.5130
G01 X20.5454 Y21.3676
G01 X20.4826 Y21.1532
G01 X20.4604 Y20.9367
G01 X20.4715 Y20.7588
G01 X15.9961 Y25.2300
G01 X15.8300 Y25.3397
G01 X15.6197 Y25.4129
G01 X15.4628 Y25.4300
G01 X15.0200 Y25.4302
G01 X15.0199 Y26.8907
G01 X14.9818 Y27.0598
G01 X17.3850 Y27.0598
G01 X17.4114 Y26.8215
G01 X17.5098 Y26.6184
G01 X17.5869 Y26.5283
G01 X17.6805 Y26.4520
G01 X17.7905 Y26.3920
G01 X17.8938 Y26.3575
G01 X17.7246 Y26.2902
G01 X17.5724 Y26.1721
G01 X17.4601 Y26.0155
G01 X17.3970 Y25.8334
G01 X17.3850 Y25.7075
G01 X17.3948 Y25.0689
G01 X17.4601 Y24.8745
G01 X17.5785 Y24.7116
G01 X17.6773 Y24.6292
G01 X17.7833 Y24.5702
G01 X17.9042 Y24.5299
G01 X18.0099 Y24.5142
G01 X18.9756 Y24.5130
G01 X19.1410 Y24.5389
G01 X19.2854 Y24.5998
G01 X19.7897 Y24.5998
G01 X27.1848 Y17.2047
G01 X27.1848 Y10.5551
G01 X24.2440 Y7.6143
G01 X24.1960 Y7.6143
G01 X23.3279 Y8.4749
G01 X23.1279 Y8.5939
G01 X22.9033 Y8.6536
G01 X14.6850 Y8.6602
G01 X14.6832 Y8.9522
G01 X14.6483 Y9.0866
G01 X14.5493 Y9.2240
G01 X14.3947 Y9.3144
G01 X14.2650 Y9.3350
G01 X12.7650 Y9.3350
G01 X12.6510 Y9.3192
G01 X12.5364 Y9.2673
G01 X12.4437 Y9.1853
G01 X12.3785 Y9.0793
G01 X12.3468 Y8.9522
G01 X12.3450 Y6.7150
G01 X12.3692 Y6.5746
G01 X12.4197 Y6.4759
G01 X12.4947 Y6.3937
G01 X12.5885 Y6.3340
G01 X12.6936 Y6.3014
G01 X14.2822 Y6.2955
G01 X14.3851 Y6.3125
G01 X14.4807 Y6.3547
G01 X14.5556 Y6.4120
G01 X14.6253 Y6.4993
G01 X14.6819 Y6.6664
G01 X14.6850 Y6.9698
G01 X22.4499 Y6.9698
G01 X23.0007 Y6.4190
G01 X23.0280 Y6.1369
G01 X23.0868 Y5.9437
G01 X23.1542 Y5.8020
G01 X23.2642 Y5.6373
G01 X23.3609 Y5.5289
G01 X23.4623 Y5.4392
G01 X23.6406 Y5.3215
G01 X23.7724 Y5.2604
G01 X23.9868 Y5.1976
G01 X24.1994 Y5.1755
G01 X24.3600 Y5.1834
G01 X24.5715 Y5.2268
G01 X24.7767 Y5.3098
G01 X24.9146 Y5.3925
G01 X25.0861 Y5.5359
G01 X25.2370 Y5.7214
G01 X25.3489 Y5.9327
G01 X25.4181 Y6.1657
G01 X25.4393 Y6.4190
G01 X28.3732 Y9.3529
G01 X28.5068 Y9.4273
G01 X28.6304 Y9.5302
G01 X28.7438 Y9.6728
G01 X28.8373 Y9.8750
G01 X28.8752 Y10.1250
G01 X28.8718 Y17.6288
G01 X28.8089 Y17.8827
G01 X28.6725 Y18.1036
G01 X27.0290 Y19.7511
G01 X27.2730 Y19.8542
G01 X27.4377 Y19.9642
G01 X27.5461 Y20.0609
G01 X27.6358 Y20.1623
G01 X27.7458 Y20.3270
G01 X27.8530 Y20.5857
G01 X27.8916 Y20.7800
G01 X27.8999 Y20.9249
G01 X27.8916 Y21.0600
G01 X27.8526 Y21.2556
G01 X27.7458 Y21.5130
G01 X27.6358 Y21.6777
G01 X27.5488 Y21.7763
G01 X27.3404 Y21.9454
G01 X27.1657 Y22.0388
G01 X27.0294 Y22.0888
G01 X26.8977 Y22.1201
G01 X26.7006 Y22.1395
G01 X26.4219 Y22.1120
G01 X26.2324 Y22.0546
G01 X26.1006 Y21.9935
G01 X25.9854 Y21.9225
G01 X25.8323 Y21.7969
G01 X25.6546 Y21.5804
G01 X25.5612 Y21.4057
G01 X25.5111 Y21.2690
G01 X20.9850 Y25.7951
G01 X20.9850 Y30.0778
G01 X21.2324 Y29.9454
G01 X21.4257 Y29.8871
G01 X21.5771 Y29.8646
G01 X21.7790 Y29.8644
G01 X21.9163 Y29.8832
G01 X22.0537 Y29.9190
G01 X22.2472 Y30.0000
G01 X22.3746 Y30.0775
G01 X22.5277 Y30.2031
G01 X22.7054 Y30.4196
G01 X22.7988 Y30.5943
G01 X22.8488 Y30.7306
G01 X22.8801 Y30.8623
G01 X22.8996 Y31.0633
G01 X22.8768 Y31.3163
G01 X22.8051 Y31.5514
G01 X22.6893 Y31.7650
G01 X22.5252 Y31.9592
G01 X22.5205 Y42.8227
G01 X22.4626 Y43.0539
G01 X22.3437 Y43.2581
G01 X21.6300 Y43.9803
G01 X21.6195 Y44.5474
G01 X21.5723 Y44.7017
G01 X21.4802 Y44.8521
G01 X21.4802 Y47.7879
G01 X21.5770 Y47.9491
G01 X21.6248 Y48.1278
G01 X21.6290 Y49.5398
G01 X21.7099 Y49.5398
G01 X22.5900 Y48.6597
G01 X22.6005 Y48.0926
G01 X22.6477 Y47.9383
G01 X22.7398 Y47.7879
G01 X22.7398 Y44.8521
G01 X22.6336 Y44.6672
G01 X22.6020 Y44.5559
G01 X22.5901 Y44.4379
G01 X22.5903 Y43.1153
G01 X22.6051 Y42.9892
G01 X22.6477 Y42.8583
G01 X22.7080 Y42.7505
G01 X22.7954 Y42.6474
G01 X22.8960 Y42.5676
G01 X23.0192 Y42.5049
G01 X23.2110 Y42.4620
G01 X23.7097 Y42.4600
G01 X25.8348 Y40.3349
G01 X25.8348 Y31.9592
G01 X25.6707 Y31.7650
G01 X25.5549 Y31.5514
G01 X25.4845 Y31.3228
G01 X25.4601 Y31.0849
G01 X25.4824 Y30.8475
G01 X25.5454 Y30.6324
G01 X25.6142 Y30.4870
G01 X25.7478 Y30.2934
G01 X25.9099 Y30.1339
G01 X26.1006 Y30.0065
G01 X26.2324 Y29.9454
G01 X26.4219 Y29.8880
G01 X26.7040 Y29.8607
G01 X27.0041 Y29.5609
G01 X27.1271 Y29.4621
G01 X27.3276 Y29.3651
G01 X27.5145 Y29.3260
G01 X31.0696 Y29.3223
G01 X31.2102 Y29.2625
G01 X31.3510 Y29.2370
G01 X32.3451 Y29.2367
G01 X32.5104 Y29.2690
G01 X32.6681 Y29.3453
G01 X32.8045 Y29.4643
G01 X32.9002 Y29.6076
G01 X32.9526 Y29.7542
G01 X32.9696 Y29.8864
G01 X32.9696 Y30.4486
G01 X32.9425 Y30.6198
G01 X32.8681 Y30.7848
G01 X32.7681 Y30.9092
G01 X32.6235 Y31.0166
G01 X32.4612 Y31.0800
G01 X32.6235 Y31.1434
G01 X32.7681 Y31.2508
G01 X32.8807 Y31.3962
G01 X32.9456 Y31.5516
G01 X32.9698 Y31.7172
G01 X32.9675 Y32.3119
G01 X32.9360 Y32.4654
G01 X32.8661 Y32.6132
G01 X32.7792 Y32.7231
G01 X32.6745 Y32.8105
G01 X32.5518 Y32.8758
G01 X32.4220 Y32.9137
G01 X31.3980 Y32.9250
G01 X31.2240 Y32.9013
G01 X30.1452 Y33.9801
G01 X30.1452 Y39.6199
G01 X30.2851 Y39.7598
G01 X31.2552 Y39.7598
G01 X31.1718 Y39.5126
G01 X31.1554 Y39.3517
G01 X31.1616 Y39.2248
G01 X31.1920 Y39.0725
G01 X31.2344 Y38.9543
G01 X31.3112 Y38.8119
G01 X31.3975 Y38.7000
G01 X31.3112 Y38.5881
G01 X31.2312 Y38.4386
G01 X31.1906 Y38.3224
G01 X31.1592 Y38.1537
G01 X31.1731 Y37.8804
G01 X31.2674 Y37.6158
G01 X31.1917 Y37.5016
G01 X31.1568 Y37.3672
G01 X31.1581 Y36.2114
G01 X31.2063 Y36.0589
G01 X31.3168 Y35.9289
G01 X31.4553 Y35.8574
G01 X31.6298 Y35.8400
G01 X31.6302 Y35.5064
G01 X31.6497 Y35.3433
G01 X31.7220 Y35.1415
G01 X31.8325 Y34.9761
G01 X35.6874 Y31.1172
G01 X35.8114 Y31.0151
G01 X36.0201 Y30.9126
G01 X36.2188 Y30.8726
G01 X37.9464 Y30.8698
G01 X38.0727 Y30.7204
G01 X38.1809 Y30.6210
G01 X38.4533 Y30.4450
G01 X38.1811 Y30.2691
G01 X38.0727 Y30.1696
G01 X37.9464 Y30.0202
G01 X35.0003 Y30.0199
G01 X34.7844 Y29.9880
G01 X34.5986 Y29.9103
G01 X34.4173 Y29.7727
G01 X30.6073 Y25.9627
G01 X30.4697 Y25.7814
G01 X30.3917 Y25.5943
G01 X30.3599 Y25.3729
G01 X30.3598 Y20.0957
G01 X30.2428 Y19.9868
G01 X30.1601 Y19.8630
G01 X30.1024 Y19.7058
G01 X30.0851 Y19.5609
G01 X30.0867 Y18.9849
G01 X30.1395 Y18.7655
G01 X30.2098 Y18.6409
G01 X30.3232 Y18.5178
G01 X30.4470 Y18.4351
G01 X30.5938 Y18.3800
G01 X30.4246 Y18.3127
G01 X30.2710 Y18.1932
G01 X30.1601 Y18.0380
G01 X30.0950 Y17.8443
G01 X30.0850 Y17.2050
G01 X30.0969 Y17.0798
G01 X30.1723 Y16.8746
G01 X30.3143 Y16.7005
G01 X30.4002 Y16.6369
G01 X30.5142 Y16.5799
G01 X30.6291 Y16.5470
G01 X30.7491 Y16.5351
G01 X31.7040 Y16.5370
G01 X31.8448 Y16.5625
G01 X31.9854 Y16.6223
G01 X36.2124 Y16.6223
G01 X49.8839 Y2.9508
G01 X50.0860 Y2.8024
G01 X50.3315 Y2.7181
G01 X50.4800 Y2.7048
G01 X67.8100 Y2.7048
G01 X68.0376 Y2.7362
G01 X68.2230 Y2.8128
G01 X68.4063 Y2.9510
G01 X74.5500 Y9.0947
G01 X74.5500 Y1.7050
G01 X1.8300 Y1.7050
G01 X1.8300 Y28.9334
M05
G00 X4.1152 Y37.6146
G01 F60.00
M03
G01 F500.00
G01 X4.1884 Y37.6112
G01 X4.1899 Y29.7455
G01 X4.1152 Y29.8202
G01 X4.1152 Y37.6146
G01 X3.9552 Y37.7979
G01 X4.1627 Y37.7720
G01 X4.3491 Y37.7836
G01 X4.3500 Y29.3592
G01 X3.9552 Y29.7539
G01 X3.9552 Y37.7979
G01 X3.7952 Y38.0208
G01 X3.9692 Y37.9585
G01 X4.1856 Y37.9313
G01 X4.3488 Y37.9462
G01 X4.5100 Y37.9990
G01 X4.5131 Y28.9698
G01 X3.7952 Y29.6876
G01 X3.7952 Y38.0208
G01 X3.6352 Y38.3500
G01 X3.7698 Y38.2261
G01 X3.8774 Y38.1586
G01 X4.0010 Y38.1153
G01 X4.1611 Y38.0925
G01 X4.2829 Y38.0971
G01 X4.4100 Y38.1304
G01 X4.5643 Y38.2045
G01 X4.6700 Y38.2863
G01 X4.6700 Y29.0350
G01 X4.6880 Y28.8925
G01 X4.7409 Y28.7573
G01 X4.8287 Y28.6364
G01 X4.9407 Y28.5444
G01 X5.0778 Y28.4812
G01 X5.2185 Y28.4561
G01 X9.6448 Y28.4550
G01 X9.6448 Y27.4465
G01 X9.5029 Y27.4650
G01 X8.3771 Y27.4644
G01 X8.2342 Y27.4408
G01 X8.1000 Y27.3813
G01 X7.9674 Y27.4403
G01 X7.8315 Y27.4639
G01 X6.6456 Y27.4622
G01 X6.4955 Y27.4277
G01 X6.3531 Y27.3497
G01 X6.2376 Y27.2350
G01 X6.1601 Y27.0965
G01 X3.6352 Y29.6214
G01 X3.6352 Y38.3500
G01 X3.6969 Y38.5463
G01 X3.7904 Y38.4190
G01 X3.9668 Y38.2938
G01 X4.1703 Y38.2522
G01 X4.3297 Y38.2715
G01 X4.4702 Y38.3348
G01 X4.5597 Y38.4022
G01 X4.6680 Y38.5539
G01 X4.7629 Y38.7562
G01 X4.8374 Y38.8476
G01 X4.9288 Y38.9221
G01 X5.0333 Y38.9768
G01 X5.2109 Y39.0155
G01 X6.3550 Y39.0156
G01 X6.4889 Y39.0367
G01 X6.6527 Y39.1079
G01 X6.7611 Y39.2089
G01 X6.8603 Y39.3695
G01 X6.8919 Y39.5669
G01 X6.8860 Y39.6610
G01 X6.8601 Y39.7496
G01 X6.7945 Y39.8732
G01 X6.7354 Y39.9476
G01 X4.5501 Y42.1321
G01 X4.3686 Y42.2384
G01 X4.2201 Y42.2734
G01 X4.0036 Y42.2447
G01 X3.8572 Y42.1640
G01 X3.7663 Y42.0815
G01 X3.7093 Y42.0029
G01 X3.6392 Y41.7844
G01 X3.6355 Y38.7918
G01 X3.6489 Y38.6909
G01 X3.6969 Y38.5463
G01 X3.8412 Y38.6152
G01 X3.8413 Y38.6153
G01 X3.8441 Y38.6091
G01 X3.8466 Y38.6043
G01 X3.8531 Y38.5929
G01 X3.8669 Y38.5722
G01 X3.9007 Y38.5349
G01 X4.0315 Y38.4400
G01 X4.1837 Y38.4116
G01 X4.2861 Y38.4257
G01 X4.4025 Y38.4806
G01 X4.4652 Y38.5356
G01 X4.5295 Y38.6341
G01 X4.6286 Y38.8447
G01 X4.7237 Y38.9613
G01 X4.8403 Y39.0564
G01 X4.9736 Y39.1261
G01 X5.1197 Y39.1680
G01 X5.2038 Y39.1755
G01 X6.4143 Y39.1820
G01 X6.5441 Y39.2297
G01 X6.6278 Y39.2982
G01 X6.7096 Y39.4232
G01 X6.7318 Y39.5697
G01 X6.7135 Y39.6857
G01 X6.6275 Y39.8289
G01 X4.4477 Y42.0088
G01 X4.3801 Y42.0571
G01 X4.2532 Y42.1084
G01 X4.1814 Y42.1134
G01 X4.0497 Y42.0914
G01 X3.9731 Y42.0518
G01 X3.8664 Y41.9519
G01 X3.8283 Y41.8779
G01 X3.7961 Y41.7465
G01 X3.7955 Y38.7956
G01 X3.8412 Y38.6152
G01 X3.9867 Y38.6818
G01 X4.1063 Y38.5835
G01 X4.2181 Y38.5726
G01 X4.3152 Y38.6146
G01 X4.3911 Y38.7143
G01 X4.4943 Y38.9333
G01 X4.6100 Y39.0750
G01 X4.7517 Y39.1907
G01 X4.9139 Y39.2754
G01 X5.0903 Y39.3260
G01 X5.1966 Y39.3355
G01 X6.3726 Y39.3368
G01 X6.4642 Y39.3687
G01 X6.5049 Y39.4007
G01 X6.5617 Y39.4841
G01 X6.5725 Y39.5883
G01 X6.5092 Y39.7213
G01 X4.3387 Y41.8917
G01 X4.2169 Y41.9525
G01 X4.0957 Y41.9382
G01 X3.9913 Y41.8514
G01 X3.9555 Y41.7294
G01 X3.9555 Y38.7956
G01 X3.9867 Y38.6818
M05
G00 X6.7959 Y39.0150
G01 F60.00
M03
G01 F500.00
G01 X6.9423 Y39.1846
G01 X7.0161 Y39.3300
G01 X7.0513 Y39.5512
G01 X7.0389 Y39.7120
G01 X7.2780 Y39.6249
G01 X7.5000 Y39.5998
G01 X15.3339 Y39.5998
G01 X15.5388 Y39.6218
G01 X15.7417 Y39.6883
G01 X15.7159 Y39.4917
G01 X15.7325 Y39.3435
G01 X15.8140 Y39.1444
G01 X15.9082 Y39.0150
G01 X6.7959 Y39.0150
G01 X7.1233 Y39.1750
G01 X7.1805 Y39.3203
G01 X7.2065 Y39.4778
G01 X7.4995 Y39.4398
G01 X15.3305 Y39.4398
G01 X15.5560 Y39.4620
G01 X15.5744 Y39.3169
G01 X15.6223 Y39.1750
G01 X7.1233 Y39.1750
M05
G00 X7.1791 Y42.3475
G01 F60.00
M03
G01 F500.00
G01 X6.5616 Y42.9650
G01 X7.4334 Y42.9650
G01 X7.2980 Y42.8105
G01 X7.2783 Y42.7824
G01 X7.2718 Y42.7722
G01 X7.2697 Y42.7688
G01 X7.2593 Y42.7515
G01 X7.2279 Y42.6882
G01 X7.1882 Y42.5451
G01 X7.1791 Y42.3475
G01 X7.0593 Y42.6936
G01 X6.9479 Y42.8050
G01 X7.1062 Y42.8050
G01 X7.0593 Y42.6936
G01 X7.6529 Y42.9111
G01 X7.5088 Y42.8175
G01 X7.3792 Y42.6347
G01 X7.3503 Y42.5442
G01 X7.3383 Y42.4220
G01 X7.3561 Y42.2678
G01 X7.4626 Y42.0683
G01 X7.7659 Y41.7615
G01 X7.8884 Y41.6740
G01 X8.0483 Y41.6213
G01 X8.1426 Y41.6105
G01 X10.3746 Y41.6141
G01 X10.5480 Y41.6666
G01 X10.6599 Y41.7341
G01 X10.7836 Y41.8823
G01 X10.8409 Y42.0154
G01 X10.8573 Y42.1719
G01 X10.8457 Y42.2813
G01 X10.8077 Y42.3815
G01 X10.7223 Y42.5188
G01 X9.5101 Y43.7329
G01 X9.3160 Y43.9952
G01 X9.2193 Y44.0653
G01 X9.0597 Y44.1307
G01 X8.9356 Y44.1422
G01 X8.7732 Y44.1164
G01 X8.6694 Y44.0707
G01 X8.5605 Y43.9838
G01 X8.4862 Y43.8994
G01 X8.4336 Y43.7883
G01 X8.3992 Y43.6533
G01 X8.3900 Y43.4441
G01 X8.3568 Y43.3283
G01 X8.3021 Y43.2238
G01 X8.2276 Y43.1324
G01 X8.1362 Y43.0579
G01 X8.0317 Y43.0032
G01 X7.9158 Y42.9700
G01 X7.7772 Y42.9534
G01 X7.6529 Y42.9111
G01 X7.7132 Y42.7629
G01 X7.6488 Y42.7276
G01 X7.5967 Y42.6755
G01 X7.5307 Y42.5810
G01 X7.5036 Y42.4885
G01 X7.5053 Y42.3282
G01 X7.5718 Y42.1904
G01 X7.9136 Y41.8463
G01 X7.9852 Y41.8064
G01 X8.1104 Y41.7726
G01 X10.3326 Y41.7710
G01 X10.4886 Y41.8151
G01 X10.5747 Y41.8729
G01 X10.6639 Y41.9943
G01 X10.6917 Y42.0939
G01 X10.6894 Y42.2471
G01 X10.6143 Y42.3975
G01 X9.3929 Y43.6238
G01 X9.2027 Y43.8823
G01 X9.0428 Y43.9691
G01 X8.9414 Y43.9823
G01 X8.7968 Y43.9559
G01 X8.7251 Y43.9145
G01 X8.6264 Y43.8208
G01 X8.5618 Y43.6549
G01 X8.5480 Y43.4147
G01 X8.5061 Y43.2686
G01 X8.4364 Y43.1353
G01 X8.3413 Y43.0187
G01 X8.2247 Y42.9236
G01 X8.0914 Y42.8539
G01 X7.9453 Y42.8120
G01 X7.8120 Y42.7972
G01 X7.7132 Y42.7629
M05
G00 X7.7706 Y42.6135
G01 F60.00
M03
G01 F500.00
G01 X7.7315 Y42.5877
G01 X7.6680 Y42.4962
G01 X7.6572 Y42.3921
G01 X7.6694 Y42.3441
G01 X7.7141 Y42.2661
G01 X7.9829 Y41.9967
G01 X8.0308 Y41.9606
G01 X8.1237 Y41.9323
G01 X10.3269 Y41.9309
G01 X10.4557 Y41.9803
G01 X10.5311 Y42.0965
G01 X10.5352 Y42.2046
G01 X10.4806 Y42.3093
G01 X9.2771 Y43.5133
G01 X9.0947 Y43.7642
G01 X8.9769 Y43.8214
G01 X8.8491 Y43.8045
G01 X8.7466 Y43.7121
G01 X8.7160 Y43.6078
G01 X8.7060 Y43.3853
G01 X8.6554 Y43.2089
G01 X8.5707 Y43.0467
G01 X8.4550 Y42.9050
G01 X8.3133 Y42.7893
G01 X8.1511 Y42.7046
G01 X7.7706 Y42.6135
M05
G00 X5.9359 Y43.3644
G01 F60.00
M03
G01 F500.00
G01 X3.4752 Y45.8251
G01 X3.4752 Y51.7004
G01 X4.4448 Y51.6950
G01 X4.4476 Y50.5788
G01 X4.4802 Y50.4031
G01 X4.5489 Y50.2389
G01 X4.6881 Y50.0516
G01 X6.2198 Y48.5199
G01 X6.2198 Y46.1538
G01 X6.0921 Y46.1009
G01 X5.9937 Y46.0153
G01 X5.9261 Y45.9034
G01 X5.8958 Y45.7679
G01 X5.8950 Y43.5450
G01 X5.9065 Y43.4482
G01 X5.9359 Y43.3644
G01 X5.4627 Y44.2902
G01 X5.5750 Y44.3359
G01 X5.5750 Y44.1779
G01 X5.4627 Y44.2902
G01 X5.1181 Y44.4085
G01 X5.3234 Y44.4220
G01 X5.4606 Y44.4593
G01 X5.5908 Y44.5337
G01 X5.7350 Y44.6654
G01 X5.7350 Y43.7916
G01 X5.1181 Y44.4085
M05
G00 X3.9590 Y46.0802
G01 F60.00
M03
G01 F500.00
G01 X4.0217 Y45.9578
G01 X5.0451 Y44.9361
G01 X5.1428 Y44.8899
G01 X5.1848 Y44.8869
G01 X5.2899 Y44.9089
G01 X5.3732 Y44.9808
G01 X5.4140 Y45.1011
G01 X5.4240 Y45.9047
G01 X5.4746 Y46.0811
G01 X5.5593 Y46.2433
G01 X5.7038 Y46.4211
G01 X5.7390 Y46.5335
G01 X5.7342 Y48.2760
G01 X5.6733 Y48.3871
G01 X4.3416 Y49.7186
G01 X4.2064 Y49.7837
G01 X4.1052 Y49.7709
G01 X4.0637 Y49.7494
G01 X3.9913 Y49.6813
G01 X3.9560 Y49.5687
G01 X3.9590 Y46.0802
M05
G00 X3.7999 Y46.0631
G01 F60.00
M03
G01 F500.00
G01 X3.8254 Y45.9755
G01 X3.9033 Y45.8502
G01 X4.9550 Y44.8039
G01 X5.1168 Y44.7316
G01 X5.2779 Y44.7387
G01 X5.3838 Y44.7789
G01 X5.5091 Y44.8959
G01 X5.5417 Y44.9621
G01 X5.5739 Y45.0935
G01 X5.5820 Y45.8753
G01 X5.6239 Y46.0214
G01 X5.6936 Y46.1547
G01 X5.8473 Y46.3497
G01 X5.8974 Y46.5107
G01 X5.8995 Y48.2274
G01 X5.8881 Y48.3197
G01 X5.7917 Y48.4948
G01 X4.4547 Y49.8318
G01 X4.3782 Y49.8879
G01 X4.2259 Y49.9425
G01 X4.0592 Y49.9242
G01 X3.9651 Y49.8755
G01 X3.8526 Y49.7611
G01 X3.7989 Y49.6009
G01 X3.7999 Y46.0631
G01 X3.6425 Y46.0327
G01 X3.6543 Y45.9767
G01 X3.7257 Y45.8239
G01 X3.7875 Y45.7398
G01 X4.8055 Y44.7216
G01 X4.8974 Y44.6511
G01 X5.1056 Y44.5711
G01 X5.3260 Y44.5849
G01 X5.4759 Y44.6481
G01 X5.6396 Y44.8033
G01 X5.6898 Y44.9008
G01 X5.7317 Y45.0632
G01 X5.7400 Y45.8458
G01 X5.7732 Y45.9617
G01 X5.8279 Y46.0662
G01 X5.9965 Y46.2901
G01 X6.0567 Y46.4955
G01 X6.0595 Y48.2274
G01 X6.0420 Y48.3635
G01 X5.9712 Y48.5177
G01 X5.9075 Y48.6052
G01 X4.5637 Y49.9490
G01 X4.4416 Y50.0350
G01 X4.2455 Y50.1013
G01 X4.0208 Y50.0795
G01 X3.8666 Y50.0015
G01 X3.7663 Y49.9114
G01 X3.7140 Y49.8410
G01 X3.6406 Y49.6237
G01 X3.6425 Y46.0327
M05
G00 X3.7952 Y42.5042
G01 F60.00
M03
G01 F500.00
G01 X3.7952 Y42.6619
G01 X3.9073 Y42.5498
G01 X3.7952 Y42.5042
G01 X4.2519 Y42.4315
G01 X4.0466 Y42.4180
G01 X3.9094 Y42.3807
G01 X3.7792 Y42.3063
G01 X3.6352 Y42.1749
G01 X3.6352 Y43.0482
G01 X4.2519 Y42.4315
M05
G00 X8.5550 Y45.5492
G01 F60.00
M03
G01 F500.00
G01 X8.5664 Y45.5467
G01 X8.5747 Y45.5450
G01 X8.5768 Y45.5446
G01 X8.5809 Y45.5438
G01 X8.6186 Y45.5375
G01 X8.6862 Y45.5313
G01 X8.8165 Y45.5366
G01 X8.9836 Y45.5661
G01 X9.1248 Y45.6202
G01 X9.1248 Y44.4441
G01 X8.9938 Y44.4620
G01 X8.8636 Y44.4567
G01 X8.6964 Y44.4272
G01 X8.5550 Y44.3730
G01 X8.5550 Y45.5492
G01 X8.7150 Y45.3705
G01 X8.9648 Y45.3975
G01 X8.9648 Y44.6228
G01 X8.7150 Y44.5957
G01 X8.7150 Y45.3705
G01 X8.3935 Y45.7827
G01 X8.5307 Y45.7225
G01 X8.6403 Y45.6960
G01 X8.7546 Y45.6915
G01 X8.8950 Y45.7100
G01 X9.0008 Y45.7398
G01 X9.0960 Y45.7873
G01 X9.2848 Y45.9495
G01 X9.2848 Y44.3721
G01 X9.2997 Y44.2036
G01 X9.1541 Y44.2691
G01 X9.0482 Y44.2960
G01 X8.9297 Y44.3021
G01 X8.7890 Y44.2841
G01 X8.6823 Y44.2547
G01 X8.5874 Y44.2081
G01 X8.3950 Y44.0435
G01 X8.3935 Y45.7827
M05
G00 X11.2952 Y46.0097
G01 F60.00
M03
G01 F500.00
G01 X11.4436 Y45.8779
G01 X11.5682 Y45.8072
G01 X11.6780 Y45.7696
G01 X11.7857 Y45.7550
G01 X11.9409 Y45.7598
G01 X12.1399 Y45.8179
G01 X12.1350 Y43.9516
G01 X11.2952 Y44.7914
G01 X11.2952 Y46.0097
G01 X11.3742 Y46.1812
G01 X11.4660 Y46.0607
G01 X11.6155 Y45.9621
G01 X11.7479 Y45.9190
G01 X11.8969 Y45.9169
G01 X11.9946 Y45.9324
G01 X12.0897 Y45.9725
G01 X12.2131 Y46.0585
G01 X12.3938 Y46.2321
G01 X12.4983 Y46.2868
G01 X12.6141 Y46.3200
G01 X14.4160 Y46.3308
G01 X14.5348 Y46.3699
G01 X14.6868 Y46.4649
G01 X14.8865 Y46.6710
G01 X14.9579 Y46.8019
G01 X14.9995 Y47.0026
G01 X14.9986 Y53.3016
G01 X14.9488 Y53.4982
G01 X14.8307 Y53.6893
G01 X14.7689 Y53.8242
G01 X14.7317 Y53.9693
G01 X14.7240 Y54.6556
G01 X14.6930 Y54.8188
G01 X14.6447 Y54.9204
G01 X14.5472 Y55.0378
G01 X14.4668 Y55.1021
G01 X14.3758 Y55.1441
G01 X14.1823 Y55.1845
G01 X13.2806 Y55.1844
G01 X13.1746 Y55.1697
G01 X13.0221 Y55.1161
G01 X12.7019 Y54.9251
G01 X12.5737 Y54.8024
G01 X12.4938 Y54.6330
G01 X12.4706 Y54.5202
G01 X12.4777 Y54.4107
G01 X12.5087 Y54.2797
G01 X12.5818 Y54.1317
G01 X12.6205 Y53.9541
G01 X12.6205 Y52.0759
G01 X12.5818 Y51.8983
G01 X12.5271 Y51.7938
G01 X12.4526 Y51.7024
G01 X12.3612 Y51.6279
G01 X12.2567 Y51.5732
G01 X12.1409 Y51.5400
G01 X11.7690 Y51.5281
G01 X11.6434 Y51.4968
G01 X11.5596 Y51.4547
G01 X11.4492 Y51.3638
G01 X11.3862 Y51.2896
G01 X11.3402 Y51.1983
G01 X11.3006 Y51.0530
G01 X11.3018 Y46.3746
G01 X11.3742 Y46.1812
G01 X11.5167 Y46.2540
G01 X11.5812 Y46.1724
G01 X11.7054 Y46.0963
G01 X11.7952 Y46.0748
G01 X11.9200 Y46.0796
G01 X11.9989 Y46.1051
G01 X12.0922 Y46.1666
G01 X12.1887 Y46.2713
G01 X12.3053 Y46.3664
G01 X12.4386 Y46.4361
G01 X12.5847 Y46.4780
G01 X14.3126 Y46.4825
G01 X14.4145 Y46.4941
G01 X14.5862 Y46.5897
G01 X14.7450 Y46.7504
G01 X14.8067 Y46.8541
G01 X14.8395 Y47.0026
G01 X14.8356 Y53.3196
G01 X14.7922 Y53.4577
G01 X14.6911 Y53.6098
G01 X14.6175 Y53.7705
G01 X14.5733 Y53.9428
G01 X14.5619 Y54.6748
G01 X14.5262 Y54.8060
G01 X14.4380 Y54.9204
G01 X14.3501 Y54.9829
G01 X14.1956 Y55.0239
G01 X13.2404 Y55.0206
G01 X13.0930 Y54.9726
G01 X12.7542 Y54.7625
G01 X12.6887 Y54.6853
G01 X12.6322 Y54.5287
G01 X12.6518 Y54.3579
G01 X12.7311 Y54.1914
G01 X12.7730 Y54.0453
G01 X12.7805 Y53.9613
G01 X12.7805 Y52.0688
G01 X12.7730 Y51.9847
G01 X12.7311 Y51.8386
G01 X12.6614 Y51.7053
G01 X12.5663 Y51.5887
G01 X12.4497 Y51.4936
G01 X12.3164 Y51.4239
G01 X12.1703 Y51.3820
G01 X11.8222 Y51.3737
G01 X11.6752 Y51.3368
G01 X11.5264 Y51.2110
G01 X11.4618 Y51.0451
G01 X11.4555 Y46.4564
G01 X11.4691 Y46.3577
G01 X11.5167 Y46.2540
M05
G00 X11.6592 Y46.3268
G01 F60.00
M03
G01 F500.00
G01 X11.6872 Y46.2922
G01 X11.7779 Y46.2396
G01 X11.9112 Y46.2414
G01 X12.0030 Y46.2998
G01 X12.0750 Y46.3850
G01 X12.2167 Y46.5007
G01 X12.3789 Y46.5854
G01 X12.5553 Y46.6360
G01 X14.3606 Y46.6459
G01 X14.4715 Y46.7017
G01 X14.6133 Y46.8428
G01 X14.6554 Y46.9064
G01 X14.6795 Y47.0026
G01 X14.6795 Y53.2753
G01 X14.6488 Y53.3868
G01 X14.5516 Y53.5302
G01 X14.4661 Y53.7169
G01 X14.4149 Y53.9162
G01 X14.4045 Y54.0445
G01 X14.4022 Y54.6598
G01 X14.3739 Y54.7498
G01 X14.3156 Y54.8169
G01 X14.2748 Y54.8404
G01 X14.1785 Y54.8645
G01 X13.2646 Y54.8625
G01 X13.1639 Y54.8292
G01 X13.0298 Y54.7366
G01 X12.9086 Y54.6800
G01 X12.8320 Y54.6134
G01 X12.7947 Y54.5240
G01 X12.7915 Y54.4731
G01 X12.8099 Y54.3877
G01 X12.8804 Y54.2511
G01 X12.9310 Y54.0747
G01 X12.9405 Y53.9684
G01 X12.9405 Y52.0617
G01 X12.9310 Y51.9553
G01 X12.8804 Y51.7789
G01 X12.7957 Y51.6167
G01 X12.6800 Y51.4750
G01 X12.5383 Y51.3593
G01 X12.3761 Y51.2746
G01 X12.1997 Y51.2240
G01 X11.8308 Y51.2139
G01 X11.7566 Y51.1976
G01 X11.6631 Y51.1256
G01 X11.6396 Y51.0848
G01 X11.6155 Y50.9885
G01 X11.6155 Y46.4564
G01 X11.6240 Y46.3990
G01 X11.6592 Y46.3268
M05
G00 X11.4552 Y45.6850
G01 F60.00
M03
G01 F500.00
G01 X11.5728 Y45.6335
G01 X11.6970 Y45.6031
G01 X11.9750 Y45.6028
G01 X11.9750 Y44.3379
G01 X11.4552 Y44.8576
G01 X11.4552 Y45.6850
G01 X11.6152 Y45.4558
G01 X11.8150 Y45.4345
G01 X11.8150 Y44.7241
G01 X11.6152 Y44.9239
G01 X11.6152 Y45.4558
M05
G00 X12.2950 Y43.5653
G01 F60.00
M03
G01 F500.00
G01 X11.1352 Y44.7251
G01 X11.1352 Y51.6950
G01 X12.1114 Y51.7014
G01 X12.1984 Y51.7261
G01 X12.2798 Y51.7703
G01 X12.4032 Y51.9042
G01 X12.4442 Y52.0010
G01 X12.4599 Y52.1093
G01 X12.4582 Y53.9522
G01 X12.4265 Y54.0793
G01 X12.3613 Y54.1853
G01 X12.2686 Y54.2673
G01 X12.1597 Y54.3176
G01 X12.0400 Y54.3350
G01 X11.1352 Y54.3350
G01 X11.1352 Y55.2974
G01 X11.2256 Y55.4285
G01 X11.2825 Y55.5788
G01 X11.3664 Y55.3818
G01 X11.5037 Y55.2253
G01 X11.6807 Y55.1192
G01 X11.8874 Y55.0717
G01 X12.4654 Y55.0701
G01 X12.6083 Y55.0874
G01 X12.7184 Y55.1230
G01 X12.8256 Y55.1803
G01 X12.9221 Y55.2574
G01 X12.9976 Y55.3440
G01 X15.2247 Y55.3448
G01 X15.3938 Y55.2775
G01 X15.1902 Y55.1894
G01 X15.0316 Y55.0456
G01 X14.9665 Y54.9476
G01 X14.9203 Y54.8416
G01 X14.8850 Y54.6295
G01 X14.8853 Y54.0878
G01 X14.9084 Y53.9279
G01 X15.0007 Y53.7263
G01 X15.1590 Y53.5624
G01 X15.1598 Y46.7101
G01 X14.5016 Y46.0519
G01 X14.3793 Y46.1315
G01 X14.2379 Y46.1642
G01 X12.7150 Y46.1650
G01 X12.5434 Y46.1283
G01 X12.4060 Y46.0293
G01 X12.3285 Y45.9093
G01 X12.2955 Y45.7622
G01 X12.2950 Y43.5653
M05
G00 X11.0156 Y42.2278
G01 F60.00
M03
G01 F500.00
G01 X11.4994 Y41.7483
G01 X11.7076 Y41.6102
G01 X10.7611 Y41.6102
G01 X10.8967 Y41.7649
G01 X10.9667 Y41.8871
G01 X11.0064 Y42.0302
G01 X11.0156 Y42.2278
G01 X11.0885 Y41.7704
G01 X11.1354 Y41.8817
G01 X11.2467 Y41.7705
G01 X11.0885 Y41.7704
M05
G00 X16.0353 Y39.8878
G01 F60.00
M03
G01 F500.00
G01 X15.9390 Y39.7576
G01 X15.8940 Y39.6371
G01 X15.8764 Y39.4593
G01 X15.9110 Y39.3133
G01 X15.9712 Y39.1924
G01 X16.0490 Y39.1016
G01 X16.1785 Y39.0143
G01 X16.3712 Y38.9221
G01 X16.4626 Y38.8476
G01 X16.5371 Y38.7562
G01 X16.5918 Y38.6517
G01 X16.6250 Y38.5359
G01 X16.6349 Y38.2689
G01 X16.6876 Y38.0909
G01 X16.7678 Y37.9679
G01 X16.9257 Y37.8445
G01 X17.0781 Y37.7948
G01 X17.2091 Y37.7850
G01 X17.2955 Y37.7958
G01 X17.4817 Y37.8786
G01 X17.7294 Y38.0605
G01 X17.9155 Y38.1572
G01 X18.1133 Y38.2267
G01 X18.3190 Y38.2676
G01 X18.5283 Y38.2791
G01 X18.7372 Y38.2610
G01 X18.9414 Y38.2137
G01 X19.1370 Y38.1380
G01 X19.3199 Y38.0356
G01 X19.4866 Y37.9084
G01 X19.7616 Y37.6039
G01 X19.8715 Y37.5308
G01 X20.0005 Y37.4782
G01 X20.0984 Y37.4636
G01 X20.2563 Y37.4804
G01 X20.3574 Y37.5124
G01 X20.4559 Y37.5760
G01 X20.5838 Y37.7070
G01 X20.6341 Y37.8108
G01 X20.6737 Y37.9833
G01 X20.6745 Y41.7663
G01 X20.6573 Y41.8948
G01 X20.6248 Y41.9889
G01 X20.5289 Y42.1302
G01 X20.4438 Y42.2083
G01 X20.2826 Y42.2829
G01 X20.0317 Y42.3439
G01 X19.8968 Y42.4057
G01 X19.7751 Y42.4903
G01 X19.5884 Y42.6875
G01 X19.4467 Y42.7881
G01 X19.3395 Y42.8248
G01 X19.1987 Y42.8378
G01 X19.1060 Y42.8299
G01 X19.0129 Y42.8000
G01 X18.8279 Y42.6809
G01 X16.0353 Y39.8878
G01 X16.1507 Y39.7768
G01 X16.0672 Y39.6566
G01 X16.0380 Y39.5174
G01 X16.0439 Y39.4171
G01 X16.0931 Y39.3013
G01 X16.1800 Y39.2022
G01 X16.4597 Y39.0564
G01 X16.5763 Y38.9613
G01 X16.6714 Y38.8447
G01 X16.7411 Y38.7114
G01 X16.7830 Y38.5653
G01 X16.7929 Y38.2936
G01 X16.8334 Y38.1568
G01 X16.8855 Y38.0763
G01 X17.0140 Y37.9788
G01 X17.1833 Y37.9454
G01 X17.2943 Y37.9624
G01 X17.4080 Y38.0213
G01 X17.6456 Y38.1973
G01 X17.8518 Y38.3044
G01 X18.0710 Y38.3814
G01 X18.2989 Y38.4267
G01 X18.5308 Y38.4395
G01 X18.7623 Y38.4195
G01 X18.9886 Y38.3670
G01 X19.2053 Y38.2832
G01 X19.4080 Y38.1697
G01 X19.5927 Y38.0287
G01 X19.7556 Y37.8631
G01 X19.8552 Y37.7362
G01 X19.9308 Y37.6798
G01 X20.0271 Y37.6372
G01 X20.1010 Y37.6236
G01 X20.2922 Y37.6586
G01 X20.4491 Y37.7933
G01 X20.4817 Y37.8595
G01 X20.5139 Y37.9909
G01 X20.5145 Y41.7628
G01 X20.5031 Y41.8506
G01 X20.4651 Y41.9472
G01 X20.3514 Y42.0777
G01 X20.2218 Y42.1347
G01 X19.9780 Y42.1925
G01 X19.8172 Y42.2661
G01 X19.6721 Y42.3670
G01 X19.4918 Y42.5596
G01 X19.3724 Y42.6464
G01 X19.2952 Y42.6702
G01 X19.1508 Y42.6753
G01 X19.0769 Y42.6533
G01 X18.9536 Y42.5795
G01 X16.1507 Y39.7768
M05
G00 X16.2643 Y39.6641
G01 F60.00
M03
G01 F500.00
G01 X16.2114 Y39.5868
G01 X16.1966 Y39.4956
G01 X16.1996 Y39.4539
G01 X16.2392 Y39.3671
G01 X16.3389 Y39.2912
G01 X16.5483 Y39.1907
G01 X16.6900 Y39.0750
G01 X16.8057 Y38.9333
G01 X16.8904 Y38.7711
G01 X16.9410 Y38.5947
G01 X16.9510 Y38.3182
G01 X16.9786 Y38.2249
G01 X17.0032 Y38.1847
G01 X17.0914 Y38.1191
G01 X17.2388 Y38.1125
G01 X17.3168 Y38.1528
G01 X17.5618 Y38.3341
G01 X17.7881 Y38.4516
G01 X18.0287 Y38.5361
G01 X18.2788 Y38.5859
G01 X18.5333 Y38.5999
G01 X18.7874 Y38.5779
G01 X19.0358 Y38.5203
G01 X19.2736 Y38.4283
G01 X19.4960 Y38.3037
G01 X19.6987 Y38.1490
G01 X19.9957 Y37.8264
G01 X20.1036 Y37.7836
G01 X20.2299 Y37.8063
G01 X20.3187 Y37.8860
G01 X20.3545 Y38.0080
G01 X20.3545 Y41.7628
G01 X20.3363 Y41.8507
G01 X20.2501 Y41.9522
G01 X19.9244 Y42.0411
G01 X19.7376 Y42.1266
G01 X19.5690 Y42.2438
G01 X19.3870 Y42.4387
G01 X19.3049 Y42.5013
G01 X19.1872 Y42.5180
G01 X19.1393 Y42.5058
G01 X19.0542 Y42.4547
G01 X16.2643 Y39.6641
M05
G00 X16.6300 Y37.8823
G01 F60.00
M03
G01 F500.00
G01 X16.7880 Y37.7430
G01 X16.9262 Y37.6685
G01 X17.0727 Y37.6343
G01 X17.2839 Y37.6310
G01 X17.1878 Y37.4690
G01 X17.0908 Y37.2312
G01 X17.0486 Y37.0557
G01 X17.0251 Y36.7999
G01 X17.0486 Y36.5343
G01 X17.0906 Y36.3595
G01 X17.1878 Y36.1210
G01 X17.2825 Y35.9611
G01 X17.1285 Y35.9642
G01 X16.9142 Y35.9185
G01 X16.7806 Y35.8451
G01 X16.6300 Y35.7085
G01 X16.6300 Y37.8823
G01 X16.7900 Y37.5542
G01 X17.0162 Y37.4804
G01 X16.9432 Y37.2944
G01 X16.9000 Y37.1313
G01 X16.8651 Y36.7999
G01 X16.8998 Y36.4597
G01 X16.9434 Y36.2950
G01 X17.0160 Y36.1099
G01 X16.7900 Y36.0380
G01 X16.7900 Y37.5542
M05
G00 X19.8756 Y37.3531
G01 F60.00
M03
G01 F500.00
G01 X20.0831 Y37.3041
G01 X20.3314 Y37.3334
G01 X20.5046 Y37.4124
G01 X20.6748 Y37.5625
G01 X20.6748 Y36.0468
G01 X19.9829 Y36.7387
G01 X19.9595 Y37.0676
G01 X19.8756 Y37.3531
G01 X20.1072 Y37.1434
G01 X20.3350 Y37.1698
G01 X20.5148 Y37.2332
G01 X20.5148 Y36.4331
G01 X20.1449 Y36.8030
G01 X20.1072 Y37.1434
G01 X20.2930 Y37.0003
G01 X20.3548 Y37.0105
G01 X20.3548 Y36.8194
G01 X20.3023 Y36.8718
G01 X20.2930 Y37.0003
M05
G00 X20.6748 Y42.2031
G01 F60.00
M03
G01 F500.00
G01 X20.5861 Y42.3000
G01 X20.6748 Y42.3000
G01 X20.6748 Y42.2031
G01 X19.5026 Y42.9387
G01 X19.3470 Y42.9859
G01 X19.1427 Y42.9961
G01 X19.4800 Y43.3334
G01 X19.4820 Y43.0751
G01 X19.5026 Y42.9387
M05
G00 X18.8677 Y45.5643
G01 F60.00
M03
G01 F500.00
G01 X18.8752 Y47.8911
G01 X19.4800 Y48.4959
G01 X19.4804 Y48.1894
G01 X19.4955 Y48.0507
G01 X19.5459 Y47.8861
G01 X19.6291 Y47.7356
G01 X19.6298 Y46.3263
G01 X18.8677 Y45.5643
G01 X19.0352 Y45.9581
G01 X19.0352 Y47.8248
G01 X19.3248 Y48.1143
G01 X19.3711 Y47.8965
G01 X19.4691 Y47.6879
G01 X19.4697 Y46.3926
G01 X19.0352 Y45.9581
G01 X19.2360 Y47.7993
G01 X19.3090 Y47.6442
G01 X19.3097 Y46.4588
G01 X19.1952 Y46.3443
G01 X19.1952 Y47.7585
G01 X19.2360 Y47.7993
M05
G00 X20.3032 Y49.8598
G01 F60.00
M03
G01 F500.00
G01 X20.1716 Y49.8314
G01 X20.0674 Y49.7621
G01 X20.1651 Y49.8598
G01 X20.3032 Y49.8598
M05
G00 X22.3949 Y51.3323
G01 F60.00
M03
G01 F500.00
G01 X22.4656 Y51.3846
G01 X22.5798 Y51.4921
G01 X22.5798 Y51.2448
G01 X22.3949 Y51.3323
M05
G00 X21.8002 Y47.6868
G01 F60.00
M03
G01 F500.00
G01 X21.8963 Y47.8891
G01 X21.9422 Y48.0876
G01 X21.9500 Y48.8471
G01 X22.2700 Y48.5271
G01 X22.2704 Y48.1855
G01 X22.2855 Y48.0359
G01 X22.3364 Y47.8540
G01 X22.4191 Y47.6879
G01 X22.4198 Y44.9532
G01 X22.3237 Y44.7509
G01 X22.2778 Y44.5524
G01 X22.2700 Y43.7929
G01 X21.9500 Y44.1129
G01 X21.9496 Y44.4545
G01 X21.9345 Y44.6041
G01 X21.8836 Y44.7860
G01 X21.8009 Y44.9521
G01 X21.8002 Y47.6868
G01 X21.9603 Y47.6429
G01 X22.0698 Y47.9092
G01 X22.1100 Y48.2100
G01 X22.1492 Y47.9130
G01 X22.2590 Y47.6443
G01 X22.2597 Y44.9971
G01 X22.1502 Y44.7308
G01 X22.1100 Y44.4300
G01 X22.0708 Y44.7270
G01 X21.9610 Y44.9957
G01 X21.9603 Y47.6429
M05
G00 X24.6401 Y47.8093
G01 F60.00
M03
G01 F500.00
G01 X24.5906 Y47.5863
G01 X24.5908 Y45.0451
G01 X24.6183 Y44.8898
G01 X24.6960 Y44.7086
G01 X24.7333 Y44.5631
G01 X24.7429 Y44.2277
G01 X24.7850 Y44.0638
G01 X24.9004 Y43.8866
G01 X27.4599 Y41.3271
G01 X27.5589 Y41.1822
G01 X27.6301 Y41.0271
G01 X27.6843 Y40.8473
G01 X27.7816 Y40.6922
G01 X27.9455 Y40.5689
G01 X28.0890 Y40.5225
G01 X28.3051 Y40.5245
G01 X28.5029 Y40.6151
G01 X28.6250 Y40.7171
G01 X29.2929 Y41.3849
G01 X29.4378 Y41.4838
G01 X29.5929 Y41.5551
G01 X29.7579 Y41.5991
G01 X29.9209 Y41.6140
G01 X31.5288 Y41.6109
G01 X31.6613 Y41.6325
G01 X31.9311 Y41.7097
G01 X32.0648 Y41.7205
G01 X32.9358 Y41.7205
G01 X33.1183 Y41.6890
G01 X33.2880 Y41.6305
G01 X33.4463 Y41.5457
G01 X33.5888 Y41.4367
G01 X33.7122 Y41.3063
G01 X33.8131 Y41.1578
G01 X33.8890 Y40.9951
G01 X33.9645 Y40.7093
G01 X34.0085 Y40.6130
G01 X34.1168 Y40.4818
G01 X34.2132 Y40.4106
G01 X34.3617 Y40.3575
G01 X34.4553 Y40.3413
G01 X35.7474 Y40.3405
G01 X35.9198 Y40.3081
G01 X36.0799 Y40.2487
G01 X36.2277 Y40.1632
G01 X36.3536 Y40.0585
G01 X36.7093 Y39.6977
G01 X36.7957 Y39.6280
G01 X36.8963 Y39.5771
G01 X37.0404 Y39.5428
G01 X37.1429 Y39.5400
G01 X37.2340 Y39.5591
G01 X37.3641 Y39.6099
G01 X37.4628 Y39.6814
G01 X37.5742 Y39.8242
G01 X37.6521 Y40.0095
G01 X37.7614 Y40.2047
G01 X37.8972 Y40.3826
G01 X38.0566 Y40.5395
G01 X38.2366 Y40.6725
G01 X38.4335 Y40.7787
G01 X38.6434 Y40.8562
G01 X38.8621 Y40.9032
G01 X39.9164 Y40.9150
G01 X40.1070 Y40.8955
G01 X40.3242 Y40.8415
G01 X40.5316 Y40.7575
G01 X40.7250 Y40.6451
G01 X41.0059 Y40.4221
G01 X41.1893 Y40.3536
G01 X41.2929 Y40.3405
G01 X42.1524 Y40.3405
G01 X42.2620 Y40.3518
G01 X42.3804 Y40.3948
G01 X42.5357 Y40.4978
G01 X46.3254 Y44.2874
G01 X46.4107 Y44.4043
G01 X46.4789 Y44.5906
G01 X46.4827 Y44.6879
G01 X46.4634 Y44.8188
G01 X46.3878 Y44.9805
G01 X46.3026 Y45.0782
G01 X46.2276 Y45.1371
G01 X46.1402 Y45.1779
G01 X46.0038 Y45.2144
G01 X42.3009 Y45.2195
G01 X42.1233 Y45.2582
G01 X42.0188 Y45.3129
G01 X41.9274 Y45.3874
G01 X41.8529 Y45.4788
G01 X41.7982 Y45.5833
G01 X41.7595 Y45.7609
G01 X41.7592 Y49.2264
G01 X41.7218 Y49.4116
G01 X41.6541 Y49.5306
G01 X41.5018 Y49.6771
G01 X41.3079 Y49.7487
G01 X40.7120 Y49.7566
G01 X40.6038 Y49.7331
G01 X40.4853 Y49.6788
G01 X40.1963 Y49.4763
G01 X40.0064 Y49.3849
G01 X39.8065 Y49.3217
G01 X39.5997 Y49.2873
G01 X39.3901 Y49.2823
G01 X39.1819 Y49.3070
G01 X38.9792 Y49.3607
G01 X38.7862 Y49.4425
G01 X38.6065 Y49.5506
G01 X38.4439 Y49.6830
G01 X38.3016 Y49.8370
G01 X38.1824 Y50.0094
G01 X38.0887 Y50.1970
G01 X38.0223 Y50.3959
G01 X37.9847 Y50.6021
G01 X37.9764 Y50.8116
G01 X37.9978 Y51.0202
G01 X38.0483 Y51.2237
G01 X38.1271 Y51.4180
G01 X38.2208 Y51.5793
G01 X38.3622 Y51.7639
G01 X38.5139 Y51.9087
G01 X38.6600 Y52.0131
G01 X38.8705 Y52.1272
G01 X39.0683 Y52.1967
G01 X39.2740 Y52.2376
G01 X39.4833 Y52.2491
G01 X39.6922 Y52.2310
G01 X39.8964 Y52.1837
G01 X40.0920 Y52.1080
G01 X40.2749 Y52.0056
G01 X40.5116 Y51.8350
G01 X40.7428 Y51.7713
G01 X41.2310 Y51.7706
G01 X41.3499 Y51.7849
G01 X41.5400 Y51.8738
G01 X41.6468 Y51.9692
G01 X41.7350 Y52.1260
G01 X41.7982 Y52.3367
G01 X41.8529 Y52.4412
G01 X41.9274 Y52.5326
G01 X42.0972 Y52.6672
G01 X42.1614 Y52.7392
G01 X42.2456 Y52.8885
G01 X42.2746 Y53.0427
G01 X42.2642 Y53.1959
G01 X42.2167 Y53.3220
G01 X42.1258 Y53.4509
G01 X41.9914 Y53.5674
G01 X41.9169 Y53.6588
G01 X41.8622 Y53.7633
G01 X41.8235 Y53.9409
G01 X41.8230 Y54.3106
G01 X41.8025 Y54.4351
G01 X41.7543 Y54.5583
G01 X41.6605 Y54.6774
G01 X41.5155 Y54.7835
G01 X41.3022 Y54.8387
G01 X38.0926 Y54.8395
G01 X37.9202 Y54.8720
G01 X37.7600 Y54.9313
G01 X37.6122 Y55.0168
G01 X37.4864 Y55.1216
G01 X34.7492 Y57.8634
G01 X34.6185 Y57.9548
G01 X34.4368 Y58.0094
G01 X33.8625 Y58.0139
G01 X33.6729 Y57.9706
G01 X33.5359 Y57.8884
G01 X33.4494 Y57.7995
G01 X33.3646 Y57.6361
G01 X33.3389 Y57.5057
G01 X33.3575 Y57.3237
G01 X33.4141 Y57.1913
G01 X33.5241 Y57.0581
G01 X33.7871 Y56.8332
G01 X33.9186 Y56.6688
G01 X34.0250 Y56.4871
G01 X34.1040 Y56.2921
G01 X34.1539 Y56.0880
G01 X34.1740 Y55.8780
G01 X34.1636 Y55.6678
G01 X34.1229 Y55.4612
G01 X34.0528 Y55.2627
G01 X33.9547 Y55.0764
G01 X33.7693 Y54.8051
G01 X33.7400 Y54.7169
G01 X33.7179 Y54.5663
G01 X33.7314 Y54.4534
G01 X33.7847 Y54.3151
G01 X33.9186 Y54.1288
G01 X34.0250 Y53.9471
G01 X34.1040 Y53.7520
G01 X34.1540 Y53.5475
G01 X34.1740 Y53.3380
G01 X34.1636 Y53.1278
G01 X34.1229 Y52.9212
G01 X34.0528 Y52.7227
G01 X33.9547 Y52.5364
G01 X33.7693 Y52.2651
G01 X33.7400 Y52.1769
G01 X33.7179 Y52.0263
G01 X33.7314 Y51.9134
G01 X33.7847 Y51.7751
G01 X33.9186 Y51.5888
G01 X34.0250 Y51.4071
G01 X34.1040 Y51.2120
G01 X34.1540 Y51.0075
G01 X34.1740 Y50.7980
G01 X34.1636 Y50.5884
G01 X34.1228 Y50.3812
G01 X34.0528 Y50.1827
G01 X33.9196 Y49.9243
G01 X33.8724 Y49.7153
G01 X33.8838 Y49.6037
G01 X33.9292 Y49.4672
G01 X34.0643 Y49.2582
G01 X34.1261 Y49.1234
G01 X34.1705 Y48.8905
G01 X34.1705 Y47.5599
G01 X34.1261 Y47.3266
G01 X34.0643 Y47.1918
G01 X33.9797 Y47.0701
G01 X33.8749 Y46.9653
G01 X33.7531 Y46.8807
G01 X33.6184 Y46.8189
G01 X33.4731 Y46.7817
G01 X31.6049 Y46.7745
G01 X31.3716 Y46.8189
G01 X31.2369 Y46.8807
G01 X31.1151 Y46.9653
G01 X31.0103 Y47.0701
G01 X30.9257 Y47.1918
G01 X30.8639 Y47.3266
G01 X30.8195 Y47.5599
G01 X30.8267 Y48.9781
G01 X30.8639 Y49.1234
G01 X30.9257 Y49.2581
G01 X31.0674 Y49.4807
G01 X31.1085 Y49.6057
G01 X31.1201 Y49.7110
G01 X31.0804 Y49.9091
G01 X30.9650 Y50.1229
G01 X30.8860 Y50.3180
G01 X30.8360 Y50.5225
G01 X30.8160 Y50.7320
G01 X30.8264 Y50.9422
G01 X30.8671 Y51.1487
G01 X30.9373 Y51.3473
G01 X31.0353 Y51.5336
G01 X31.2207 Y51.8049
G01 X31.2517 Y51.9009
G01 X31.2721 Y52.0588
G01 X31.2566 Y52.1641
G01 X31.2053 Y52.2949
G01 X31.0714 Y52.4812
G01 X30.9650 Y52.6629
G01 X30.8860 Y52.8580
G01 X30.8360 Y53.0625
G01 X30.8160 Y53.2720
G01 X30.8264 Y53.4823
G01 X30.8671 Y53.6888
G01 X30.9372 Y53.8873
G01 X31.0353 Y54.0736
G01 X31.2207 Y54.3449
G01 X31.2517 Y54.4409
G01 X31.2721 Y54.5988
G01 X31.2566 Y54.7041
G01 X31.2053 Y54.8349
G01 X31.0714 Y55.0212
G01 X30.9650 Y55.2029
G01 X30.8860 Y55.3980
G01 X30.8360 Y55.6025
G01 X30.8160 Y55.8120
G01 X30.8264 Y56.0222
G01 X30.8670 Y56.2281
G01 X30.9096 Y56.3490
G01 X31.0352 Y56.6135
G01 X31.1591 Y56.7838
G01 X31.5471 Y57.1476
G01 X31.6362 Y57.3405
G01 X31.6487 Y57.4935
G01 X31.6151 Y57.6656
G01 X31.5384 Y57.7959
G01 X31.3946 Y57.9321
G01 X31.2136 Y58.0005
G01 X31.1063 Y58.0145
G01 X29.9426 Y58.0145
G01 X29.7733 Y57.9866
G01 X29.6391 Y57.9186
G01 X29.5593 Y57.8572
G01 X27.0955 Y55.3909
G01 X27.0418 Y55.3103
G01 X26.9864 Y55.1809
G01 X26.9435 Y54.9090
G01 X26.8866 Y54.7072
G01 X26.8018 Y54.5155
G01 X26.6908 Y54.3375
G01 X26.5559 Y54.1771
G01 X26.3998 Y54.0372
G01 X26.2254 Y53.9207
G01 X26.0364 Y53.8299
G01 X25.8365 Y53.7667
G01 X25.5129 Y53.7120
G01 X25.3303 Y53.6194
G01 X24.7416 Y53.0392
G01 X24.6729 Y52.9505
G01 X24.6321 Y52.8631
G01 X24.5905 Y52.6662
G01 X24.5908 Y50.1251
G01 X24.6220 Y49.9576
G01 X24.6961 Y49.7884
G01 X24.7405 Y49.5556
G01 X24.7405 Y48.1649
G01 X24.6961 Y47.9316
G01 X24.6401 Y47.8093
G01 X24.8475 Y47.8780
G01 X24.7751 Y47.7160
G01 X24.7507 Y47.5906
G01 X24.7507 Y45.0494
G01 X24.7751 Y44.9240
G01 X24.8474 Y44.7622
G01 X24.8917 Y44.5897
G01 X24.9119 Y44.1803
G01 X25.0019 Y44.0123
G01 X27.5771 Y41.4362
G01 X27.6998 Y41.2590
G01 X27.8663 Y40.8432
G01 X27.9268 Y40.7757
G01 X28.0516 Y40.6959
G01 X28.2461 Y40.6766
G01 X28.3168 Y40.6953
G01 X28.4174 Y40.7504
G01 X29.1972 Y41.5134
G01 X29.3589 Y41.6236
G01 X29.5363 Y41.7052
G01 X29.7274 Y41.7567
G01 X29.9187 Y41.7746
G01 X31.5208 Y41.7707
G01 X31.9054 Y41.8682
G01 X32.0583 Y41.8805
G01 X32.9515 Y41.8802
G01 X33.1582 Y41.8445
G01 X33.3523 Y41.7776
G01 X33.5332 Y41.6806
G01 X33.6963 Y41.5560
G01 X33.8373 Y41.4068
G01 X33.9527 Y41.2371
G01 X34.0394 Y41.0510
G01 X34.1315 Y40.7209
G01 X34.2206 Y40.6046
G01 X34.2864 Y40.5529
G01 X34.4629 Y40.5011
G01 X35.7532 Y40.5005
G01 X35.9652 Y40.4620
G01 X36.1481 Y40.3939
G01 X36.3215 Y40.2934
G01 X36.4655 Y40.1736
G01 X36.8845 Y39.7611
G01 X36.9597 Y39.7247
G01 X37.1106 Y39.6982
G01 X37.2779 Y39.7457
G01 X37.3639 Y39.8093
G01 X37.4372 Y39.9070
G01 X37.5069 Y40.0778
G01 X37.6273 Y40.2928
G01 X37.7769 Y40.4887
G01 X37.9524 Y40.6615
G01 X38.1506 Y40.8079
G01 X38.3675 Y40.9249
G01 X38.5987 Y41.0102
G01 X38.8395 Y41.0620
G01 X39.0224 Y41.0750
G01 X39.9246 Y41.0750
G01 X40.1346 Y41.0535
G01 X40.3737 Y40.9941
G01 X40.6021 Y40.9015
G01 X40.8152 Y40.7778
G01 X41.0908 Y40.5578
G01 X41.2363 Y40.5068
G01 X42.1524 Y40.5005
G01 X42.2978 Y40.5321
G01 X42.4253 Y40.6136
G01 X46.2248 Y44.4138
G01 X46.2671 Y44.4748
G01 X46.3184 Y44.6018
G01 X46.3224 Y44.6842
G01 X46.2970 Y44.8182
G01 X46.2556 Y44.8899
G01 X46.1619 Y44.9886
G01 X46.0969 Y45.0236
G01 X45.9810 Y45.0561
G01 X42.2938 Y45.0595
G01 X42.2097 Y45.0670
G01 X42.0636 Y45.1089
G01 X41.9303 Y45.1786
G01 X41.8137 Y45.2737
G01 X41.7186 Y45.3903
G01 X41.6489 Y45.5236
G01 X41.6070 Y45.6697
G01 X41.5995 Y49.2135
G01 X41.5767 Y49.3416
G01 X41.5289 Y49.4309
G01 X41.4154 Y49.5424
G01 X41.2701 Y49.5932
G01 X40.7152 Y49.5960
G01 X40.5467 Y49.5297
G01 X40.2748 Y49.3363
G01 X40.0655 Y49.2358
G01 X39.8440 Y49.1657
G01 X39.6148 Y49.1276
G01 X39.3825 Y49.1221
G01 X39.1518 Y49.1494
G01 X38.9273 Y49.2090
G01 X38.7134 Y49.2995
G01 X38.5143 Y49.4194
G01 X38.3341 Y49.5661
G01 X38.1764 Y49.7367
G01 X38.0443 Y49.9278
G01 X37.9405 Y50.1356
G01 X37.8670 Y50.3560
G01 X37.8252 Y50.5845
G01 X37.8161 Y50.8167
G01 X37.8398 Y51.0478
G01 X37.8958 Y51.2733
G01 X37.9830 Y51.4886
G01 X38.0824 Y51.6597
G01 X38.2435 Y51.8719
G01 X38.4116 Y52.0323
G01 X38.6006 Y52.1673
G01 X38.8068 Y52.2744
G01 X39.0260 Y52.3514
G01 X39.2539 Y52.3967
G01 X39.4858 Y52.4095
G01 X39.7173 Y52.3895
G01 X39.9436 Y52.3370
G01 X40.1603 Y52.2532
G01 X40.3630 Y52.1397
G01 X40.5813 Y51.9790
G01 X40.7258 Y51.9339
G01 X41.3035 Y51.9386
G01 X41.4492 Y52.0058
G01 X41.5197 Y52.0664
G01 X41.5874 Y52.1876
G01 X41.6489 Y52.3964
G01 X41.7186 Y52.5297
G01 X41.8137 Y52.6463
G01 X42.0179 Y52.8147
G01 X42.0920 Y52.9358
G01 X42.1146 Y53.0418
G01 X42.1079 Y53.1615
G01 X42.0765 Y53.2449
G01 X42.0076 Y53.3431
G01 X41.8777 Y53.4537
G01 X41.7826 Y53.5703
G01 X41.7129 Y53.7036
G01 X41.6710 Y53.8497
G01 X41.6635 Y53.9338
G01 X41.6576 Y54.3488
G01 X41.6216 Y54.4679
G01 X41.5421 Y54.5697
G01 X41.4491 Y54.6379
G01 X41.2946 Y54.6789
G01 X38.0868 Y54.6795
G01 X37.8796 Y54.7167
G01 X37.6939 Y54.7851
G01 X37.5205 Y54.8852
G01 X37.3745 Y55.0064
G01 X34.6391 Y57.7473
G01 X34.5523 Y57.8091
G01 X34.4140 Y57.8511
G01 X33.8825 Y57.8545
G01 X33.7551 Y57.8320
G01 X33.6449 Y57.7698
G01 X33.5841 Y57.7126
G01 X33.5191 Y57.5919
G01 X33.4987 Y57.4982
G01 X33.5140 Y57.3574
G01 X33.5545 Y57.2694
G01 X33.6320 Y57.1762
G01 X33.9048 Y56.9422
G01 X34.0508 Y56.7596
G01 X34.1689 Y56.5580
G01 X34.2566 Y56.3414
G01 X34.3121 Y56.1148
G01 X34.3344 Y55.8816
G01 X34.3228 Y55.6482
G01 X34.2776 Y55.4189
G01 X34.1998 Y55.1985
G01 X34.0909 Y54.9917
G01 X33.9153 Y54.7395
G01 X33.8779 Y54.5665
G01 X33.8867 Y54.4920
G01 X33.9342 Y54.3736
G01 X34.0508 Y54.2196
G01 X34.1689 Y54.0180
G01 X34.2567 Y53.8013
G01 X34.3122 Y53.5743
G01 X34.3344 Y53.3417
G01 X34.3228 Y53.1082
G01 X34.2776 Y52.8789
G01 X34.1998 Y52.6585
G01 X34.0909 Y52.4517
G01 X33.9153 Y52.1995
G01 X33.8779 Y52.0265
G01 X33.8867 Y51.9520
G01 X33.9342 Y51.8336
G01 X34.0508 Y51.6796
G01 X34.1689 Y51.4780
G01 X34.2567 Y51.2613
G01 X34.3122 Y51.0343
G01 X34.3344 Y50.8017
G01 X34.3228 Y50.5682
G01 X34.2776 Y50.3389
G01 X34.1998 Y50.1185
G01 X34.0697 Y49.8690
G01 X34.0322 Y49.7084
G01 X34.0401 Y49.6377
G01 X34.0809 Y49.5201
G01 X34.2039 Y49.3377
G01 X34.2775 Y49.1770
G01 X34.3217 Y49.0047
G01 X34.3305 Y48.8970
G01 X34.3305 Y47.5534
G01 X34.3217 Y47.4453
G01 X34.2775 Y47.2730
G01 X34.2039 Y47.1123
G01 X34.1030 Y46.9671
G01 X33.9779 Y46.8420
G01 X33.8327 Y46.7411
G01 X33.6720 Y46.6675
G01 X33.4997 Y46.6233
G01 X31.5984 Y46.6145
G01 X31.4903 Y46.6233
G01 X31.3180 Y46.6675
G01 X31.1573 Y46.7411
G01 X31.0120 Y46.8421
G01 X30.8870 Y46.9671
G01 X30.7861 Y47.1123
G01 X30.7125 Y47.2730
G01 X30.6683 Y47.4453
G01 X30.6595 Y47.5534
G01 X30.6683 Y49.0047
G01 X30.7125 Y49.1770
G01 X30.7861 Y49.3377
G01 X30.9122 Y49.5250
G01 X30.9602 Y49.7052
G01 X30.9246 Y49.8694
G01 X30.8211 Y50.0520
G01 X30.7333 Y50.2687
G01 X30.6778 Y50.4957
G01 X30.6556 Y50.7284
G01 X30.6672 Y50.9618
G01 X30.7124 Y51.1911
G01 X30.7902 Y51.4115
G01 X30.8991 Y51.6183
G01 X31.0747 Y51.8705
G01 X31.1121 Y52.0585
G01 X31.0558 Y52.2364
G01 X30.9392 Y52.3903
G01 X30.8211 Y52.5920
G01 X30.7333 Y52.8087
G01 X30.6778 Y53.0357
G01 X30.6556 Y53.2684
G01 X30.6672 Y53.5018
G01 X30.7124 Y53.7311
G01 X30.7902 Y53.9515
G01 X30.8991 Y54.1583
G01 X31.0747 Y54.4105
G01 X31.1121 Y54.5985
G01 X31.0558 Y54.7764
G01 X30.9392 Y54.9304
G01 X30.8211 Y55.1320
G01 X30.7333 Y55.3487
G01 X30.6778 Y55.5757
G01 X30.6556 Y55.8084
G01 X30.6672 Y56.0418
G01 X30.7124 Y56.2711
G01 X30.7587 Y56.4023
G01 X30.8991 Y56.6983
G01 X31.0366 Y56.8873
G01 X31.2000 Y57.0544
G01 X31.4081 Y57.2282
G01 X31.4771 Y57.3672
G01 X31.4903 Y57.4686
G01 X31.4684 Y57.6003
G01 X31.4174 Y57.6911
G01 X31.3082 Y57.7974
G01 X31.1629 Y57.8482
G01 X29.9426 Y57.8545
G01 X29.8394 Y57.8400
G01 X29.6697 Y57.7414
G01 X27.2167 Y55.2864
G01 X27.1381 Y55.1299
G01 X27.1005 Y54.8765
G01 X27.0375 Y54.6529
G01 X26.9435 Y54.4404
G01 X26.8206 Y54.2432
G01 X26.6711 Y54.0654
G01 X26.4981 Y53.9104
G01 X26.3049 Y53.7814
G01 X26.0955 Y53.6808
G01 X25.8740 Y53.6107
G01 X25.5675 Y53.5612
G01 X25.4326 Y53.4954
G01 X24.8636 Y52.9353
G01 X24.7833 Y52.8109
G01 X24.7505 Y52.6624
G01 X24.7507 Y50.1294
G01 X24.7751 Y50.0040
G01 X24.8475 Y49.8420
G01 X24.8917 Y49.6697
G01 X24.9005 Y49.5615
G01 X24.9005 Y48.1584
G01 X24.8917 Y48.0503
G01 X24.8475 Y47.8780
G01 X24.9989 Y47.8244
G01 X24.9289 Y47.6710
G01 X24.9105 Y47.5820
G01 X24.9105 Y45.0579
G01 X24.9289 Y44.9690
G01 X24.9989 Y44.8156
G01 X25.0501 Y44.6163
G01 X25.0640 Y44.2352
G01 X25.1203 Y44.1199
G01 X27.6929 Y41.5467
G01 X27.8419 Y41.3329
G01 X27.9289 Y41.1434
G01 X28.0043 Y40.9241
G01 X28.1115 Y40.8443
G01 X28.2405 Y40.8379
G01 X28.3399 Y40.8919
G01 X29.0733 Y41.6179
G01 X29.2730 Y41.7590
G01 X29.4766 Y41.8539
G01 X29.6944 Y41.9135
G01 X29.9165 Y41.9352
G01 X31.5127 Y41.9305
G01 X31.8797 Y42.0266
G01 X32.0519 Y42.0405
G01 X32.9688 Y42.0395
G01 X33.1981 Y41.9999
G01 X33.4166 Y41.9247
G01 X33.6202 Y41.8156
G01 X33.8037 Y41.6753
G01 X33.9624 Y41.5074
G01 X34.0922 Y41.3163
G01 X34.1899 Y41.1070
G01 X34.2725 Y40.7973
G01 X34.3662 Y40.6916
G01 X34.4800 Y40.6605
G01 X35.7569 Y40.6605
G01 X36.0135 Y40.6148
G01 X36.2090 Y40.5423
G01 X36.4044 Y40.4308
G01 X36.5774 Y40.2887
G01 X36.9459 Y39.9150
G01 X37.0026 Y39.8789
G01 X37.1088 Y39.8582
G01 X37.2084 Y39.8898
G01 X37.2490 Y39.9211
G01 X37.3003 Y39.9898
G01 X37.3618 Y40.1460
G01 X37.4933 Y40.3808
G01 X37.6565 Y40.5947
G01 X37.8482 Y40.7835
G01 X38.0647 Y40.9433
G01 X38.3014 Y41.0711
G01 X38.5539 Y41.1642
G01 X38.8169 Y41.2208
G01 X39.0167 Y41.2350
G01 X39.9327 Y41.2350
G01 X40.1621 Y41.2115
G01 X40.4233 Y41.1466
G01 X40.6727 Y41.0456
G01 X40.9053 Y40.9105
G01 X41.1681 Y40.6981
G01 X41.2648 Y40.6646
G01 X42.1524 Y40.6605
G01 X42.2271 Y40.6756
G01 X42.3122 Y40.7267
G01 X46.1016 Y44.5162
G01 X46.1625 Y44.6381
G01 X46.1456 Y44.7659
G01 X46.0614 Y44.8637
G01 X45.9489 Y44.8990
G01 X42.2867 Y44.8995
G01 X42.1803 Y44.9090
G01 X42.0039 Y44.9596
G01 X41.8417 Y45.0443
G01 X41.7000 Y45.1600
G01 X41.5843 Y45.3017
G01 X41.4996 Y45.4639
G01 X41.4490 Y45.6403
G01 X41.4395 Y49.2135
G01 X41.4037 Y49.3313
G01 X41.3356 Y49.4037
G01 X41.2324 Y49.4377
G01 X40.7255 Y49.4359
G01 X40.6231 Y49.3887
G01 X40.3543 Y49.1970
G01 X40.1245 Y49.0867
G01 X39.8814 Y49.0098
G01 X39.6299 Y48.9679
G01 X39.3750 Y48.9619
G01 X39.1218 Y48.9919
G01 X38.8753 Y49.0572
G01 X38.6405 Y49.1566
G01 X38.4221 Y49.2881
G01 X38.2243 Y49.4491
G01 X38.0512 Y49.6364
G01 X37.9063 Y49.8461
G01 X37.7923 Y50.0742
G01 X37.7116 Y50.3161
G01 X37.6658 Y50.5669
G01 X37.6558 Y50.8217
G01 X37.6818 Y51.0754
G01 X37.7433 Y51.3228
G01 X37.8390 Y51.5591
G01 X37.9440 Y51.7401
G01 X38.1249 Y51.9799
G01 X38.3094 Y52.1559
G01 X38.5168 Y52.3041
G01 X38.7431 Y52.4216
G01 X38.9837 Y52.5061
G01 X39.2338 Y52.5559
G01 X39.4883 Y52.5699
G01 X39.7424 Y52.5479
G01 X39.9907 Y52.4903
G01 X40.2286 Y52.3983
G01 X40.4510 Y52.2737
G01 X40.6509 Y52.1230
G01 X40.7486 Y52.0923
G01 X41.2383 Y52.0912
G01 X41.2966 Y52.1026
G01 X41.3973 Y52.1695
G01 X41.4447 Y52.2616
G01 X41.4996 Y52.4561
G01 X41.5843 Y52.6183
G01 X41.7000 Y52.7600
G01 X41.8972 Y52.9198
G01 X41.9448 Y52.9985
G01 X41.9547 Y53.0448
G01 X41.9351 Y53.1694
G01 X41.8832 Y53.2421
G01 X41.7640 Y53.3400
G01 X41.6483 Y53.4817
G01 X41.5636 Y53.6439
G01 X41.5130 Y53.8203
G01 X41.5012 Y54.3148
G01 X41.4816 Y54.3905
G01 X41.4212 Y54.4650
G01 X41.3827 Y54.4924
G01 X41.2775 Y54.5195
G01 X38.0831 Y54.5195
G01 X37.8423 Y54.5608
G01 X37.6310 Y54.6378
G01 X37.4356 Y54.7492
G01 X37.2626 Y54.8913
G01 X34.5322 Y57.6283
G01 X34.4861 Y57.6635
G01 X34.3913 Y57.6927
G01 X33.8221 Y57.6862
G01 X33.7129 Y57.6176
G01 X33.6585 Y57.4908
G01 X33.6684 Y57.3992
G01 X33.6883 Y57.3575
G01 X33.7400 Y57.2943
G01 X33.8348 Y57.2266
G01 X34.0225 Y57.0512
G01 X34.1830 Y56.8505
G01 X34.3128 Y56.6288
G01 X34.4093 Y56.3907
G01 X34.4703 Y56.1416
G01 X34.4948 Y55.8853
G01 X34.4820 Y55.6287
G01 X34.4323 Y55.3766
G01 X34.3468 Y55.1343
G01 X34.2271 Y54.9069
G01 X34.0612 Y54.6739
G01 X34.0377 Y54.5593
G01 X34.0779 Y54.4439
G01 X34.1830 Y54.3105
G01 X34.3128 Y54.0888
G01 X34.4093 Y53.8506
G01 X34.4704 Y53.6010
G01 X34.4948 Y53.3453
G01 X34.4820 Y53.0887
G01 X34.4323 Y52.8366
G01 X34.3468 Y52.5943
G01 X34.2271 Y52.3669
G01 X34.0612 Y52.1339
G01 X34.0377 Y52.0193
G01 X34.0779 Y51.9039
G01 X34.1830 Y51.7705
G01 X34.3128 Y51.5488
G01 X34.4093 Y51.3106
G01 X34.4704 Y51.0610
G01 X34.4948 Y50.8053
G01 X34.4820 Y50.5486
G01 X34.4323 Y50.2966
G01 X34.3468 Y50.0543
G01 X34.2171 Y49.8066
G01 X34.1925 Y49.7101
G01 X34.2235 Y49.5928
G01 X34.3434 Y49.4173
G01 X34.4289 Y49.2306
G01 X34.4801 Y49.0313
G01 X34.4905 Y48.9031
G01 X34.4801 Y47.4187
G01 X34.4289 Y47.2194
G01 X34.3434 Y47.0327
G01 X34.2262 Y46.8640
G01 X34.0810 Y46.7188
G01 X33.9123 Y46.6016
G01 X33.7256 Y46.5161
G01 X33.5263 Y46.4649
G01 X33.3980 Y46.4545
G01 X31.4637 Y46.4649
G01 X31.2644 Y46.5161
G01 X31.0777 Y46.6016
G01 X30.9090 Y46.7188
G01 X30.7638 Y46.8640
G01 X30.6466 Y47.0327
G01 X30.5611 Y47.2194
G01 X30.5099 Y47.4187
G01 X30.4995 Y47.5469
G01 X30.5099 Y49.0313
G01 X30.5611 Y49.2306
G01 X30.6466 Y49.4173
G01 X30.7692 Y49.5969
G01 X30.8002 Y49.7078
G01 X30.7736 Y49.8158
G01 X30.6771 Y49.9812
G01 X30.5807 Y50.2194
G01 X30.5196 Y50.4690
G01 X30.4952 Y50.7247
G01 X30.5080 Y50.9813
G01 X30.5577 Y51.2334
G01 X30.6432 Y51.4757
G01 X30.7629 Y51.7031
G01 X30.9288 Y51.9361
G01 X30.9523 Y52.0507
G01 X30.9121 Y52.1661
G01 X30.8070 Y52.2995
G01 X30.6772 Y52.5212
G01 X30.5807 Y52.7594
G01 X30.5196 Y53.0090
G01 X30.4952 Y53.2647
G01 X30.5080 Y53.5213
G01 X30.5577 Y53.7734
G01 X30.6432 Y54.0157
G01 X30.7629 Y54.2431
G01 X30.9288 Y54.4761
G01 X30.9523 Y54.5907
G01 X30.9121 Y54.7061
G01 X30.8070 Y54.8395
G01 X30.6771 Y55.0612
G01 X30.5807 Y55.2994
G01 X30.5196 Y55.5490
G01 X30.4952 Y55.8047
G01 X30.5080 Y56.0613
G01 X30.5577 Y56.3134
G01 X30.6079 Y56.4555
G01 X30.6432 Y56.5557
G01 X30.7629 Y56.7831
G01 X30.9141 Y56.9908
G01 X31.0937 Y57.1746
G01 X31.2700 Y57.3131
G01 X31.3220 Y57.4090
G01 X31.3300 Y57.4648
G01 X31.3027 Y57.5784
G01 X31.2284 Y57.6587
G01 X31.1158 Y57.6940
G01 X29.9426 Y57.6945
G01 X29.8831 Y57.6861
G01 X29.7899 Y57.6347
G01 X27.3378 Y55.1819
G01 X27.2894 Y55.0770
G01 X27.2576 Y54.8439
G01 X27.1884 Y54.5985
G01 X27.0853 Y54.3653
G01 X26.9503 Y54.1490
G01 X26.7863 Y53.9538
G01 X26.5964 Y53.7837
G01 X26.3844 Y53.6420
G01 X26.1545 Y53.5317
G01 X25.9114 Y53.4548
G01 X25.6118 Y53.4074
G01 X25.5159 Y53.3588
G01 X24.9462 Y52.7842
G01 X24.9105 Y52.6624
G01 X24.9105 Y50.1379
G01 X24.9289 Y50.0490
G01 X24.9989 Y49.8956
G01 X25.0501 Y49.6963
G01 X25.0605 Y49.5681
G01 X25.0605 Y48.1519
G01 X25.0501 Y48.0237
G01 X24.9989 Y47.8244
M05
G00 X22.4300 Y43.4036
G01 F60.00
M03
G01 F500.00
G01 X21.7900 Y44.0466
G01 X21.7770 Y44.5757
G01 X21.7286 Y44.7430
G01 X21.6409 Y44.9043
G01 X21.6402 Y47.7346
G01 X21.7350 Y47.9134
G01 X21.7854 Y48.1238
G01 X21.7900 Y49.2334
G01 X22.4300 Y48.5934
G01 X22.4430 Y48.0643
G01 X22.4914 Y47.8970
G01 X22.5791 Y47.7357
G01 X22.5798 Y44.9054
G01 X22.4850 Y44.7266
G01 X22.4346 Y44.5162
G01 X22.4300 Y43.4036
G01 X22.9059 Y42.3796
G01 X22.8109 Y42.3161
G01 X22.6852 Y42.1990
G01 X22.6852 Y42.5314
G01 X22.7923 Y42.4444
G01 X22.9059 Y42.3796
M05
G00 X27.8452 Y40.2620
G01 F60.00
M03
G01 F500.00
G01 X27.9939 Y40.2143
G01 X28.1572 Y40.1967
G01 X28.1348 Y39.9715
G01 X28.1348 Y33.6200
G01 X28.1670 Y33.3497
G01 X27.9884 Y33.3192
G01 X27.8452 Y33.2646
G01 X27.8452 Y40.2620
G01 X28.3822 Y40.3793
G01 X28.3164 Y40.1767
G01 X28.2949 Y39.9779
G01 X28.2948 Y33.6200
G01 X28.3191 Y33.4011
G01 X28.3993 Y33.1745
G01 X28.2192 Y33.1935
G01 X27.9980 Y33.1552
G01 X27.8521 Y33.0831
G01 X27.6852 Y32.9352
G01 X27.6852 Y40.5623
G01 X27.8441 Y40.4426
G01 X27.9945 Y40.3785
G01 X28.2174 Y40.3547
G01 X28.3822 Y40.3793
M05
G00 X30.4652 Y39.4398
G01 F60.00
M03
G01 F500.00
G01 X30.8395 Y39.4398
G01 X30.8389 Y39.2384
G01 X30.8633 Y39.0684
G01 X30.9231 Y38.8699
G01 X31.0049 Y38.7000
G01 X30.8917 Y38.4407
G01 X30.8391 Y38.1645
G01 X30.8444 Y37.9127
G01 X30.9062 Y37.6466
G01 X30.8577 Y37.5111
G01 X30.8360 Y37.3644
G01 X30.8350 Y36.2601
G01 X30.6295 Y36.2312
G01 X30.4652 Y36.1713
G01 X30.4652 Y39.4398
M05
G00 X30.6252 Y36.3939
G01 F60.00
M03
G01 F500.00
G01 X30.6252 Y39.2798
G01 X30.6766 Y39.2798
G01 X30.7256 Y38.9585
G01 X30.8236 Y38.7000
G01 X30.7289 Y38.4537
G01 X30.6793 Y38.1729
G01 X30.6831 Y37.9141
G01 X30.7353 Y37.6536
G01 X30.6936 Y37.5111
G01 X30.6761 Y37.3708
G01 X30.6750 Y36.4024
G01 X30.6252 Y36.3939
G01 X30.3052 Y35.8419
G01 X30.3052 Y39.5536
G01 X30.3514 Y39.5998
G01 X31.0275 Y39.5998
G01 X30.9954 Y39.3556
G01 X31.0149 Y39.1259
G01 X31.0819 Y38.9038
G01 X31.1937 Y38.7000
G01 X31.1173 Y38.5722
G01 X31.0519 Y38.4157
G01 X30.9986 Y38.1518
G01 X31.0122 Y37.8714
G01 X31.0815 Y37.6346
G01 X31.0197 Y37.4974
G01 X30.9956 Y37.3529
G01 X30.9951 Y36.2514
G01 X31.0237 Y36.0800
G01 X30.8391 Y36.1002
G01 X30.6180 Y36.0619
G01 X30.4721 Y35.9898
G01 X30.3052 Y35.8419
M05
G00 X31.1597 Y35.3478
G01 F60.00
M03
G01 F500.00
G01 X31.1444 Y35.4112
G01 X31.0849 Y35.4970
G01 X30.9871 Y35.5769
G01 X30.8968 Y35.6173
G01 X30.7591 Y35.6027
G01 X30.6526 Y35.5017
G01 X30.6255 Y35.3964
G01 X30.6255 Y34.2726
G01 X30.6339 Y34.2131
G01 X30.6746 Y34.1356
G01 X31.3328 Y33.4717
G01 X31.3875 Y33.4326
G01 X31.4926 Y33.4055
G01 X32.1743 Y33.4055
G01 X32.3000 Y33.4441
G01 X32.3725 Y33.5276
G01 X32.3911 Y33.5714
G01 X32.3952 Y33.6796
G01 X32.3512 Y33.7685
G01 X31.4389 Y34.6905
G01 X31.3210 Y34.8630
G01 X31.2261 Y35.0666
G01 X31.1597 Y35.3478
M05
G00 X31.3190 Y35.3628
G01 F60.00
M03
G01 F500.00
G01 X31.2913 Y35.4746
G01 X31.2093 Y35.5980
G01 X31.0706 Y35.7134
G01 X30.9509 Y35.7679
G01 X30.8512 Y35.7804
G01 X30.7003 Y35.7514
G01 X30.6289 Y35.7075
G01 X30.5226 Y35.5983
G01 X30.4657 Y35.4040
G01 X30.4655 Y34.2726
G01 X30.4850 Y34.1545
G01 X30.5430 Y34.0442
G01 X31.2197 Y33.3586
G01 X31.3513 Y33.2760
G01 X31.4850 Y33.2457
G01 X32.2118 Y33.2475
G01 X32.3871 Y33.3099
G01 X32.5006 Y33.4317
G01 X32.5459 Y33.5300
G01 X32.5572 Y33.6669
G01 X32.5417 Y33.7474
G01 X32.4878 Y33.8518
G01 X31.5666 Y34.7872
G01 X31.4565 Y34.9487
G01 X31.3748 Y35.1263
G01 X31.3229 Y35.3198
G01 X31.3190 Y35.3628
G01 X31.4779 Y35.3814
G01 X31.4301 Y35.5553
G01 X31.3464 Y35.6831
G01 X31.2827 Y35.7492
G01 X31.1463 Y35.8546
G01 X30.9958 Y35.9214
G01 X30.8368 Y35.9397
G01 X30.7062 Y35.9205
G01 X30.6164 Y35.8891
G01 X30.4363 Y35.7486
G01 X30.3502 Y35.6062
G01 X30.3055 Y35.3964
G01 X30.3058 Y34.2598
G01 X30.3208 Y34.1453
G01 X30.3499 Y34.0639
G01 X30.4654 Y33.8866
G01 X31.1158 Y33.2366
G01 X31.2550 Y33.1413
G01 X31.4679 Y33.0863
G01 X32.1743 Y33.0855
G01 X32.2788 Y33.0970
G01 X32.4129 Y33.1436
G01 X32.5535 Y33.2406
G01 X32.6826 Y33.4324
G01 X32.7080 Y33.5272
G01 X32.7174 Y33.6540
G01 X32.6851 Y33.8196
G01 X32.5683 Y34.0093
G01 X31.6951 Y34.8829
G01 X31.5961 Y35.0278
G01 X31.5249 Y35.1830
G01 X31.4779 Y35.3814
M05
G00 X33.6642 Y35.7574
G01 F60.00
M03
G01 F500.00
G01 X33.8104 Y35.8770
G01 X33.9081 Y36.0318
G01 X33.9510 Y36.1942
G01 X33.9550 Y36.4334
G01 X36.9158 Y33.4793
G01 X37.1013 Y33.3583
G01 X37.3330 Y33.2749
G01 X37.5265 Y33.2505
G01 X37.8672 Y33.2498
G01 X37.9812 Y33.1258
G01 X38.1483 Y32.9850
G01 X37.9812 Y32.8442
G01 X37.8671 Y32.7202
G01 X36.7014 Y32.7202
G01 X33.6642 Y35.7574
G01 X33.9045 Y35.7433
G01 X34.0168 Y35.8918
G01 X34.0905 Y36.0717
G01 X36.8167 Y33.3536
G01 X36.9980 Y33.2317
G01 X37.1897 Y33.1488
G01 X37.4457 Y33.0950
G01 X37.7954 Y33.0898
G01 X37.8981 Y32.9850
G01 X37.7954 Y32.8802
G01 X36.7676 Y32.8802
G01 X33.9045 Y35.7433
G01 X34.1195 Y35.7546
G01 X34.1437 Y35.7921
G01 X36.6317 Y33.3045
G01 X36.8143 Y33.1562
G01 X37.0258 Y33.0402
G01 X36.8339 Y33.0402
G01 X34.1195 Y35.7546
M05
G00 X33.7469 Y32.8315
G01 F60.00
M03
G01 F500.00
G01 X33.5259 Y32.8155
G01 X33.3732 Y32.7667
G01 X33.1907 Y32.6358
G01 X33.0871 Y32.5178
G01 X33.0023 Y32.6971
G01 X32.8841 Y32.8446
G01 X32.8692 Y32.8589
G01 X32.8663 Y32.8615
G01 X32.8481 Y32.8780
G01 X32.8466 Y32.8793
G01 X32.8165 Y32.9045
G01 X32.7386 Y32.9594
G01 X32.5625 Y33.0422
G01 X32.6902 Y33.1533
G01 X32.8133 Y33.3328
G01 X32.8636 Y33.4875
G01 X32.8756 Y33.7028
G01 X33.7469 Y32.8315
G01 X32.8402 Y33.0845
G01 X32.9345 Y33.2199
G01 X32.9954 Y33.3567
G01 X33.4023 Y32.9498
G01 X33.3872 Y32.9449
G01 X33.3728 Y32.9399
G01 X33.3680 Y32.9381
G01 X33.3617 Y32.9358
G01 X33.3298 Y32.9228
G01 X33.2544 Y32.8848
G01 X33.1298 Y32.7947
G01 X33.0028 Y32.9522
G01 X32.8402 Y33.0845
G01 X33.0180 Y31.3027
G01 X32.9767 Y31.1623
G01 X32.9753 Y31.0433
G01 X33.0001 Y30.9055
G01 X33.0861 Y30.7083
G01 X33.1233 Y30.5631
G01 X33.1401 Y29.9345
G01 X33.1938 Y29.7803
G01 X33.2488 Y29.6916
G01 X33.3940 Y29.5670
G01 X33.5146 Y29.5096
G01 X33.7110 Y29.4877
G01 X33.8463 Y29.5126
G01 X34.0270 Y29.6130
G01 X34.3729 Y29.9549
G01 X34.5178 Y30.0539
G01 X34.6730 Y30.1251
G01 X34.8379 Y30.1691
G01 X35.1565 Y30.1865
G01 X35.3297 Y30.2438
G01 X35.4685 Y30.3465
G01 X35.5903 Y30.5345
G01 X35.6160 Y30.6489
G01 X35.6160 Y30.8260
G01 X35.5815 Y30.9340
G01 X35.4873 Y31.0888
G01 X34.0519 Y32.5257
G01 X33.9598 Y32.5934
G01 X33.8045 Y32.6592
G01 X33.6960 Y32.6740
G01 X33.5604 Y32.6591
G01 X33.4730 Y32.6358
G01 X33.3891 Y32.5919
G01 X33.2772 Y32.4980
G01 X33.2129 Y32.4176
G01 X33.1721 Y32.3302
G01 X33.1356 Y32.1938
G01 X33.1233 Y31.5968
G01 X33.0861 Y31.4516
G01 X33.0180 Y31.3027
G01 X33.1646 Y31.2386
G01 X33.1351 Y31.1395
G01 X33.1344 Y31.0606
G01 X33.1537 Y30.9503
G01 X33.2375 Y30.7620
G01 X33.2817 Y30.5897
G01 X33.2925 Y29.9932
G01 X33.3681 Y29.7987
G01 X33.4767 Y29.7044
G01 X33.5526 Y29.6652
G01 X33.6976 Y29.6476
G01 X33.7925 Y29.6633
G01 X33.9252 Y29.7364
G01 X34.2687 Y30.0765
G01 X34.4385 Y30.1934
G01 X34.6187 Y30.2761
G01 X34.8073 Y30.3266
G01 X35.1168 Y30.3425
G01 X35.2492 Y30.3834
G01 X35.3397 Y30.4429
G01 X35.4358 Y30.5789
G01 X35.4561 Y30.6568
G01 X35.4581 Y30.8003
G01 X35.4339 Y30.8716
G01 X35.3639 Y30.9869
G01 X33.9428 Y32.4087
G01 X33.8852 Y32.4518
G01 X33.7585 Y32.5060
G01 X33.6658 Y32.5124
G01 X33.5128 Y32.4788
G01 X33.3877 Y32.3822
G01 X33.3360 Y32.3096
G01 X33.2911 Y32.1465
G01 X33.2817 Y31.5703
G01 X33.2375 Y31.3980
G01 X33.1646 Y31.2386
M05
G00 X33.3110 Y31.1740
G01 F60.00
M03
G01 F500.00
G01 X33.2917 Y31.0978
G01 X33.3046 Y31.0041
G01 X33.3889 Y30.8156
G01 X33.4401 Y30.6163
G01 X33.4539 Y29.9969
G01 X33.5004 Y29.8893
G01 X33.6077 Y29.8157
G01 X33.7209 Y29.8091
G01 X33.8216 Y29.8587
G01 X34.1661 Y30.1995
G01 X34.3671 Y30.3370
G01 X34.5719 Y30.4294
G01 X34.7743 Y30.4835
G01 X35.1233 Y30.5071
G01 X35.2207 Y30.5504
G01 X35.2943 Y30.6577
G01 X35.3002 Y30.7746
G01 X35.2392 Y30.8863
G01 X33.8338 Y32.2916
G01 X33.7222 Y32.3501
G01 X33.5841 Y32.3356
G01 X33.4776 Y32.2346
G01 X33.4510 Y32.1389
G01 X33.4401 Y31.5437
G01 X33.3889 Y31.3444
G01 X33.3110 Y31.1740
M05
G00 X31.2388 Y31.0800
G01 F60.00
M03
G01 F500.00
G01 X31.0696 Y31.0127
G01 X27.9426 Y31.0127
G01 X27.8993 Y31.0560
G01 X27.8776 Y31.3125
G01 X27.8036 Y31.5550
G01 X27.6893 Y31.7650
G01 X27.5252 Y31.9592
G01 X27.5186 Y40.7883
G01 X27.4898 Y40.9269
G01 X27.4347 Y41.0650
G01 X27.2905 Y41.2692
G01 X24.5800 Y43.9803
G01 X24.5695 Y44.5474
G01 X24.5223 Y44.7017
G01 X24.4302 Y44.8521
G01 X24.4302 Y47.7879
G01 X24.5308 Y47.9582
G01 X24.5771 Y48.1492
G01 X24.5800 Y49.5100
G01 X24.5447 Y49.7241
G01 X24.4985 Y49.8301
G01 X24.4302 Y49.9321
G01 X24.4302 Y52.9549
G01 X25.3709 Y53.8956
G01 X25.6398 Y53.8989
G01 X25.8533 Y53.9413
G01 X25.9759 Y53.9831
G01 X26.2192 Y54.1098
G01 X26.4198 Y54.2732
G01 X26.5909 Y54.4819
G01 X26.7169 Y54.7241
G01 X26.7587 Y54.8467
G01 X26.8011 Y55.0602
G01 X26.8044 Y55.3291
G01 X29.6501 Y58.1748
G01 X34.6649 Y58.1748
G01 X37.5967 Y55.2431
G01 X37.7164 Y55.1451
G01 X37.8585 Y55.0677
G01 X38.0203 Y55.0171
G01 X38.1841 Y54.9998
G01 X41.9840 Y54.9998
G01 X41.9840 Y53.9800
G01 X41.9998 Y53.8660
G01 X42.0517 Y53.7514
G01 X42.1337 Y53.6587
G01 X42.2397 Y53.5935
G01 X42.3668 Y53.5618
G01 X43.4567 Y53.5684
G01 X43.5603 Y53.6036
G01 X43.6443 Y53.6587
G01 X43.7148 Y53.7347
G01 X43.7629 Y53.8216
G01 X43.7940 Y53.9800
G01 X43.7876 Y57.0714
G01 X43.7504 Y57.1863
G01 X43.6830 Y57.2843
G01 X43.5897 Y57.3603
G01 X43.4765 Y57.4071
G01 X43.3740 Y57.4200
G01 X42.3668 Y57.4182
G01 X42.2636 Y57.3958
G01 X42.1754 Y57.3523
G01 X42.0950 Y57.2843
G01 X42.0326 Y57.1961
G01 X41.9858 Y57.0372
G01 X41.9840 Y56.6902
G01 X38.5401 Y56.6902
G01 X35.5668 Y59.6599
G01 X35.4672 Y59.7338
G01 X35.3229 Y59.8069
G01 X35.1847 Y59.8479
G01 X35.0356 Y59.8647
G01 X29.3000 Y59.8652
G01 X29.1150 Y59.8445
G01 X28.8973 Y59.7630
G01 X28.7173 Y59.6319
G01 X26.9702 Y57.8855
G01 X26.9702 Y65.7608
G01 X27.1366 Y65.9582
G01 X27.2596 Y66.1924
G01 X27.3371 Y66.5039
G01 X27.3371 Y66.7761
G01 X27.2596 Y67.0876
G01 X27.1420 Y67.3136
G01 X26.9727 Y67.5169
G01 X26.7146 Y67.7078
G01 X26.4631 Y67.8120
G01 X26.1456 Y67.8595
G01 X25.8887 Y67.8368
G01 X25.6393 Y67.7588
G01 X25.4646 Y67.6654
G01 X25.3473 Y67.5799
G01 X25.1954 Y67.4296
G01 X25.1080 Y67.3136
G01 X25.0398 Y67.1967
G01 X24.9591 Y66.9988
G01 X24.9249 Y66.8577
G01 X24.9054 Y66.6567
G01 X24.9282 Y66.4037
G01 X24.9999 Y66.1686
G01 X25.1157 Y65.9550
G01 X25.2798 Y65.7608
G01 X25.2798 Y56.5122
G01 X25.0908 Y56.4679
G01 X24.8532 Y56.3660
G01 X24.6489 Y56.2272
G01 X24.4780 Y56.0573
G01 X24.3283 Y55.8365
G01 X24.2284 Y55.5978
G01 X24.1770 Y55.3443
G01 X24.1756 Y55.0909
G01 X22.9785 Y53.8935
G01 X22.8851 Y53.7786
G01 X22.8108 Y53.6437
G01 X22.7579 Y53.4785
G01 X22.7400 Y53.3178
G01 X22.7398 Y50.9005
G01 X22.5906 Y51.0428
G01 X22.4435 Y51.1380
G01 X22.2855 Y51.1993
G01 X22.0786 Y51.2298
G01 X19.8735 Y51.2268
G01 X19.6196 Y51.1639
G01 X19.4921 Y51.0967
G01 X19.3958 Y51.0249
G01 X17.2682 Y48.9009
G01 X17.1768 Y48.7907
G01 X17.1153 Y48.6875
G01 X17.0455 Y48.4924
G01 X17.0251 Y48.3222
G01 X17.0248 Y46.0351
G01 X14.6350 Y43.6453
G01 X14.6350 Y43.8738
G01 X14.7636 Y43.9451
G01 X14.8820 Y44.0419
G01 X16.6115 Y45.7715
G01 X16.7526 Y45.9660
G01 X16.8321 Y46.1865
G01 X16.8502 Y46.3600
G01 X16.8502 Y53.5198
G01 X18.8706 Y53.5203
G01 X19.0806 Y53.5520
G01 X19.2664 Y53.6297
G01 X19.4463 Y53.7660
G01 X22.2790 Y56.5987
G01 X22.3799 Y56.7214
G01 X22.4589 Y56.8671
G01 X22.5079 Y57.0253
G01 X22.5252 Y57.1930
G01 X22.5252 Y65.6549
G01 X25.2051 Y68.3348
G01 X28.2349 Y68.3348
G01 X29.9057 Y66.6640
G01 X29.9274 Y66.4075
G01 X29.9961 Y66.1777
G01 X30.1080 Y65.9664
G01 X30.2659 Y65.7739
G01 X30.4514 Y65.6230
G01 X30.6627 Y65.5111
G01 X30.8957 Y65.4419
G01 X31.1490 Y65.4207
G01 X37.0564 Y59.5134
G01 X37.1871 Y59.4071
G01 X37.3373 Y59.3284
G01 X37.4924 Y59.2827
G01 X37.6446 Y59.2674
G01 X41.2196 Y59.2673
G01 X41.3640 Y59.2064
G01 X41.5294 Y59.1805
G01 X42.4579 Y59.1801
G01 X42.6284 Y59.2044
G01 X42.7701 Y59.2615
G01 X42.8877 Y59.3429
G01 X42.9965 Y59.4626
G01 X43.0670 Y59.5891
G01 X43.1180 Y59.8010
G01 X43.1200 Y60.3770
G01 X43.0847 Y60.5891
G01 X43.0385 Y60.6951
G01 X42.9734 Y60.7931
G01 X42.8140 Y60.9374
G01 X42.6112 Y61.0250
G01 X42.7804 Y61.0923
G01 X43.8124 Y61.0923
G01 X46.6158 Y58.2889
G01 X46.6158 Y57.2158
G01 X46.5718 Y57.1140
G01 X46.5560 Y57.0000
G01 X46.5560 Y53.9800
G01 X46.5718 Y53.8660
G01 X46.6128 Y53.7692
G01 X46.6730 Y53.6894
G01 X46.7531 Y53.6241
G01 X46.8431 Y53.5816
G01 X46.9388 Y53.5618
G01 X47.9632 Y53.5605
G01 X48.0600 Y53.5758
G01 X48.1398 Y53.6074
G01 X48.1398 Y52.5194
G01 X48.0100 Y52.5400
G01 X42.2914 Y52.5369
G01 X42.1816 Y52.5089
G01 X42.0879 Y52.4558
G01 X42.0042 Y52.3721
G01 X41.9511 Y52.2784
G01 X41.9205 Y52.1372
G01 X41.9200 Y51.6102
G01 X40.4737 Y51.6102
G01 X40.3785 Y51.7126
G01 X40.2085 Y51.8519
G01 X39.9606 Y51.9863
G01 X39.6972 Y52.0632
G01 X39.4806 Y52.0845
G01 X39.3355 Y52.0790
G01 X39.1824 Y52.0551
G01 X38.9741 Y51.9919
G01 X38.7098 Y51.8507
G01 X38.5415 Y51.7126
G01 X38.4404 Y51.6033
G01 X38.3514 Y51.4809
G01 X38.2425 Y51.2746
G01 X38.1664 Y51.0273
G01 X38.1401 Y50.7699
G01 X38.1651 Y50.5092
G01 X38.2425 Y50.2554
G01 X38.3653 Y50.0276
G01 X38.5302 Y49.8282
G01 X38.7319 Y49.6641
G01 X38.9741 Y49.5381
G01 X39.2073 Y49.4695
G01 X39.4394 Y49.4455
G01 X39.6060 Y49.4534
G01 X39.8246 Y49.4967
G01 X39.9840 Y49.5538
G01 X40.1892 Y49.6648
G01 X40.3130 Y49.7581
G01 X40.4737 Y49.9198
G01 X41.9200 Y49.9198
G01 X41.9205 Y45.7828
G01 X41.9374 Y45.6803
G01 X41.9768 Y45.5892
G01 X42.0370 Y45.5094
G01 X42.1171 Y45.4441
G01 X42.2203 Y45.3974
G01 X42.3400 Y45.3800
G01 X47.6447 Y45.3800
G01 X42.4449 Y40.1802
G01 X40.9736 Y40.1802
G01 X40.7480 Y40.4213
G01 X40.5183 Y40.5787
G01 X40.2514 Y40.6918
G01 X39.9787 Y40.7471
G01 X38.9413 Y40.7471
G01 X38.6767 Y40.6943
G01 X38.4206 Y40.5891
G01 X38.1692 Y40.4188
G01 X37.9991 Y40.2484
G01 X37.9025 Y40.1195
G01 X37.8242 Y39.9857
G01 X37.7334 Y39.7666
G01 X37.6714 Y39.4575
G01 X37.6712 Y39.2164
G01 X37.6946 Y39.0514
G01 X37.7665 Y38.8110
G01 X37.8378 Y38.6581
G01 X37.9754 Y38.4507
G01 X38.0872 Y38.3258
G01 X38.2831 Y38.1643
G01 X38.4533 Y38.0650
G01 X38.2437 Y37.9366
G01 X36.2434 Y39.9368
G01 X36.0335 Y40.0880
G01 X35.8755 Y40.1493
G01 X35.6686 Y40.1798
G01 X33.6948 Y40.1802
G01 X33.7721 Y40.3986
G01 X33.7946 Y40.5883
G01 X33.7769 Y40.7896
G01 X33.7188 Y40.9786
G01 X33.6222 Y41.1524
G01 X33.4585 Y41.3324
G01 X33.2945 Y41.4448
G01 X33.1012 Y41.5234
G01 X32.8547 Y41.5597
G01 X32.0972 Y41.5598
G01 X31.8513 Y41.5240
G01 X31.6657 Y41.4502
G01 X29.9330 Y41.4502
G01 X29.7600 Y41.4318
G01 X29.5550 Y41.3597
G01 X29.3951 Y41.2552
G01 X28.6500 Y40.5101
G01 X28.5647 Y40.3864
G01 X28.5117 Y40.2742
G01 X28.4702 Y40.1301
G01 X28.4549 Y39.9779
G01 X28.4548 Y33.6200
G01 X28.4870 Y33.3894
G01 X28.5628 Y33.2070
G01 X28.6921 Y33.0330
G01 X30.3974 Y31.3425
G01 X30.5348 Y31.2495
G01 X30.6875 Y31.1852
G01 X30.8498 Y31.1520
G01 X31.0696 Y31.1473
G01 X31.2388 Y31.0800
G01 X29.7909 Y31.3329
G01 X29.8379 Y31.4442
G01 X29.9492 Y31.3329
G01 X29.7909 Y31.3329
G01 X29.7181 Y31.7903
G01 X30.2332 Y31.2754
G01 X30.2466 Y31.2627
G01 X30.2473 Y31.2621
G01 X30.2782 Y31.2341
G01 X30.2789 Y31.2335
G01 X30.2953 Y31.2193
G01 X30.3563 Y31.1727
G01 X29.4636 Y31.1727
G01 X29.5993 Y31.3274
G01 X29.6692 Y31.4496
G01 X29.7089 Y31.5926
G01 X29.7181 Y31.7903
M05
G00 X28.0063 Y32.2070
G01 F60.00
M03
G01 F500.00
G01 X28.0455 Y32.0966
G01 X28.2191 Y31.8141
G01 X28.2957 Y31.6197
G01 X28.3848 Y31.5241
G01 X28.4986 Y31.4930
G01 X29.0401 Y31.4943
G01 X29.1499 Y31.5364
G01 X29.2253 Y31.6323
G01 X29.2377 Y31.7671
G01 X29.1831 Y31.8718
G01 X28.4820 Y32.5734
G01 X28.3517 Y32.6787
G01 X28.2666 Y32.7129
G01 X28.1649 Y32.7033
G01 X28.1216 Y32.6861
G01 X28.0468 Y32.6196
G01 X28.0060 Y32.4992
G01 X28.0063 Y32.2070
M05
G00 X27.8467 Y32.1960
G01 F60.00
M03
G01 F500.00
G01 X27.8956 Y32.0392
G01 X28.0743 Y31.7451
G01 X28.1579 Y31.5383
G01 X28.2458 Y31.4302
G01 X28.3184 Y31.3785
G01 X28.4815 Y31.3336
G01 X29.0436 Y31.3340
G01 X29.2116 Y31.3872
G01 X29.3005 Y31.4623
G01 X29.3771 Y31.5807
G01 X29.3999 Y31.7401
G01 X29.3842 Y31.8349
G01 X29.3168 Y31.9600
G01 X28.5856 Y32.6956
G01 X28.4512 Y32.8063
G01 X28.3542 Y32.8524
G01 X28.2480 Y32.8743
G01 X28.2124 Y32.8718
G01 X28.1422 Y32.8617
G01 X28.1092 Y32.8546
G01 X28.0362 Y32.8214
G01 X27.9427 Y32.7426
G01 X27.8871 Y32.6613
G01 X27.8489 Y32.5314
G01 X27.8455 Y32.4897
G01 X27.8455 Y32.2239
G01 X27.8467 Y32.1960
G01 X27.6870 Y32.1853
G01 X27.7020 Y32.0975
G01 X27.7514 Y31.9698
G01 X27.9295 Y31.6760
G01 X28.0031 Y31.4899
G01 X28.0642 Y31.3944
G01 X28.2104 Y31.2554
G01 X28.4043 Y31.1838
G01 X29.0451 Y31.1738
G01 X29.1605 Y31.1956
G01 X29.3203 Y31.2655
G01 X29.4060 Y31.3390
G01 X29.5027 Y31.4725
G01 X29.5482 Y31.6006
G01 X29.5582 Y31.7823
G01 X29.5276 Y31.9071
G01 X29.4449 Y32.0559
G01 X28.6924 Y32.8147
G01 X28.5410 Y32.9387
G01 X28.4034 Y33.0050
G01 X28.3297 Y33.0265
G01 X28.2944 Y33.0319
G01 X28.2693 Y33.0338
G01 X28.2609 Y33.0342
G01 X28.2504 Y33.0343
G01 X28.0632 Y33.0079
G01 X27.9442 Y32.9523
G01 X27.8111 Y32.8362
G01 X27.7415 Y32.7277
G01 X27.6918 Y32.5617
G01 X27.6870 Y32.1853
G01 X28.6177 Y33.5604
G01 X28.6721 Y33.3461
G01 X28.7331 Y33.2353
G01 X28.8067 Y33.1447
G01 X30.4559 Y31.5052
G01 X30.6259 Y31.3825
G01 X30.8164 Y31.3183
G01 X31.1148 Y31.3073
G01 X31.2398 Y31.2460
G01 X31.3549 Y31.2221
G01 X32.3451 Y31.2221
G01 X32.4906 Y31.2571
G01 X32.6197 Y31.3327
G01 X32.7221 Y31.4439
G01 X32.7865 Y31.5773
G01 X32.8100 Y31.7261
G01 X32.8024 Y32.3419
G01 X32.7435 Y32.5065
G01 X32.6273 Y32.6460
G01 X32.4833 Y32.7308
G01 X32.3128 Y32.7647
G01 X31.3872 Y32.7647
G01 X31.2881 Y32.7524
G01 X31.1829 Y32.7161
