(G-code generated by FlatCAM Evo vUnstable - Version Date: 2023/6/31)

(Name: MainPCBV1-F_Cu.gtl_ncc_cnc)
(Type: G-code from Geometry)
(Units: MM)

(Created on Saturday, 13 April 2024 at 22:24)

(This preprocessor is the default preprocessor when used with a laser.)
(It is made to work with MACH3 compatible motion controllers.)
(This preprocessor makes no moves on the Z axis it will only move horizontally.)
(The horizontal move is done with G0 - highest possible speed set in MACH3.)
(It assumes a manually focused laser.)
(The laser is started with M3 or M4 command and stopped with the M5 command.)

(Feedrate: 120.0 mm/min)
(Steps per circle: 16)
(Preprocessor Geometry: default_laser)

(X range:    1.1250 ...   74.8450  mm)
(Y range:    1.1250 ...   76.8750  mm)

(Laser Power - Spindle Speed: 0.0)
(Laser Minimum Power: 0.0)

G21
G90
G94

G01 F500.00
M05

M05
G01 F500.00
G00 F700.00 X1.1850 Y1.2350
G01 F400.00
M03
G01 F500.00
G01 X1.1850 Y76.8000
G01 X1.2057 Y76.8750
G01 X1.1250 Y76.8750
G01 X1.1250 Y1.1250
G01 X1.2244 Y1.1250
G01 X1.1850 Y1.2350
G01 X1.1250 Y1.1250
G01 X1.1250 Y76.8750
M05
G00 F700.00 X2.2850 Y2.2185
G01 F400.00
M03
G01 F500.00
G01 X2.2850 Y1.4100
G01 X2.1600 Y1.4100
G01 X2.1600 Y28.9228
M05
G00 F700.00 X2.2355 Y2.3615
G01 F400.00
M03
G01 F500.00
G01 X2.2601 Y2.2532
G01 X2.3321 Y2.1650
G01 X2.3775 Y2.1374
G01 X2.4865 Y2.1105
G01 X49.4825 Y2.1105
G01 X49.6504 Y2.1749
G01 X49.7142 Y2.2698
G01 X49.7293 Y2.3267
G01 X49.7193 Y2.4443
G01 X49.6505 Y2.5476
G01 X49.5666 Y2.6171
G01 X36.0974 Y16.0935
G01 X35.9321 Y16.1664
G01 X32.1464 Y16.1670
G01 X31.8367 Y16.0896
G01 X31.7121 Y16.0795
G01 X30.6979 Y16.0795
G01 X30.5729 Y16.0897
G01 X30.3778 Y16.1398
G01 X30.1951 Y16.2234
G01 X30.0301 Y16.3381
G01 X29.8873 Y16.4809
G01 X29.7499 Y16.6675
G01 X29.6459 Y16.7222
G01 X29.5935 Y16.7310
G01 X29.4883 Y16.7141
G01 X29.3850 Y16.6358
G01 X29.3574 Y16.5904
G01 X29.3305 Y16.4813
G01 X29.3341 Y10.0658
G01 X29.3048 Y9.8447
G01 X29.2397 Y9.6354
G01 X29.1047 Y9.3846
G01 X28.9657 Y9.2151
G01 X28.7975 Y9.0691
G01 X28.6038 Y8.9396
G01 X25.9364 Y6.2713
G01 X25.8803 Y6.1569
G01 X25.7979 Y5.8182
G01 X25.6966 Y5.5933
G01 X25.5619 Y5.3838
G01 X25.3978 Y5.1967
G01 X25.2038 Y5.0333
G01 X24.9958 Y4.9046
G01 X24.7670 Y4.8063
G01 X24.5262 Y4.7429
G01 X24.2786 Y4.7158
G01 X24.0300 Y4.7256
G01 X23.7809 Y4.7735
G01 X23.5500 Y4.8541
G01 X23.3298 Y4.9700
G01 X23.1256 Y5.1205
G01 X22.9519 Y5.2927
G01 X22.8029 Y5.4922
G01 X22.6851 Y5.7116
G01 X22.6009 Y5.9460
G01 X22.5559 Y6.1690
G01 X22.5018 Y6.2723
G01 X22.2988 Y6.4707
G01 X22.1692 Y6.5139
G01 X15.2937 Y6.5143
G01 X15.1940 Y6.4901
G01 X15.1522 Y6.4641
G01 X15.0871 Y6.3950
G01 X14.9997 Y6.2306
G01 X14.8873 Y6.0927
G01 X14.7494 Y5.9803
G01 X14.5918 Y5.8979
G01 X14.4251 Y5.8501
G01 X12.7124 Y5.8395
G01 X12.6099 Y5.8487
G01 X12.4382 Y5.8979
G01 X12.2806 Y5.9803
G01 X12.1427 Y6.0927
G01 X12.0303 Y6.2306
G01 X11.9479 Y6.3882
G01 X11.8987 Y6.5599
G01 X11.8895 Y8.9673
G01 X11.8987 Y9.0701
G01 X11.9479 Y9.2418
G01 X12.0303 Y9.3994
G01 X12.1427 Y9.5373
G01 X12.2108 Y9.5928
G01 X12.2806 Y9.6497
G01 X12.4382 Y9.7321
G01 X12.6099 Y9.7813
G01 X12.7124 Y9.7905
G01 X14.4251 Y9.7799
G01 X14.5918 Y9.7321
G01 X14.7494 Y9.6497
G01 X14.8873 Y9.5373
G01 X14.9997 Y9.3994
G01 X15.0843 Y9.2391
G01 X15.1440 Y9.1717
G01 X15.1909 Y9.1425
G01 X15.2941 Y9.1156
G01 X22.9428 Y9.1123
G01 X23.1396 Y9.0753
G01 X23.3475 Y8.9998
G01 X23.5393 Y8.8907
G01 X23.7129 Y8.7483
G01 X24.0542 Y8.4014
G01 X24.1425 Y8.3507
G01 X24.2557 Y8.3413
G01 X24.3975 Y8.4117
G01 X26.6560 Y10.6702
G01 X26.7258 Y10.8173
G01 X26.7295 Y16.9121
G01 X26.6602 Y17.0852
G01 X23.5133 Y20.2223
G01 X23.3750 Y20.2591
G01 X23.2350 Y20.2111
G01 X23.0230 Y19.9101
G01 X22.8577 Y19.7216
G01 X22.6747 Y19.5658
G01 X22.6193 Y19.4885
G01 X22.5998 Y19.3355
G01 X22.6646 Y19.2098
G01 X25.2260 Y16.6465
G01 X25.3515 Y16.4656
G01 X25.4449 Y16.2657
G01 X25.5034 Y16.0529
G01 X25.5255 Y15.8289
G01 X25.5212 Y12.5210
G01 X25.5349 Y12.4697
G01 X25.7366 Y12.1182
G01 X25.8268 Y11.8862
G01 X25.8814 Y11.6450
G01 X25.8977 Y11.3054
G01 X25.8665 Y11.0600
G01 X25.7989 Y10.8203
G01 X25.6966 Y10.5933
G01 X25.5619 Y10.3838
G01 X25.3977 Y10.1966
G01 X25.2076 Y10.0357
G01 X24.9958 Y9.9046
G01 X24.7670 Y9.8063
G01 X24.5262 Y9.7429
G01 X24.2786 Y9.7158
G01 X24.0298 Y9.7256
G01 X23.7851 Y9.7720
G01 X23.5500 Y9.8541
G01 X23.3296 Y9.9701
G01 X23.1288 Y10.1174
G01 X22.9519 Y10.2927
G01 X22.8056 Y10.4886
G01 X22.6850 Y10.7118
G01 X22.6009 Y10.9460
G01 X22.5523 Y11.1902
G01 X22.5404 Y11.4390
G01 X22.5653 Y11.6868
G01 X22.6266 Y11.9281
G01 X22.7225 Y12.1569
G01 X22.8860 Y12.4178
G01 X22.9189 Y12.5306
G01 X22.9195 Y15.1723
G01 X22.8648 Y15.3257
G01 X16.4240 Y21.7718
G01 X16.2719 Y21.8438
G01 X16.1647 Y21.8304
G01 X16.1123 Y21.8034
G01 X16.0322 Y21.7250
G01 X15.9961 Y21.6062
G01 X15.9955 Y18.9161
G01 X15.9549 Y18.6742
G01 X15.8798 Y18.4675
G01 X15.7707 Y18.2757
G01 X15.6279 Y18.1017
G01 X13.5513 Y16.0246
G01 X13.5107 Y15.8945
G01 X13.5000 Y15.0102
G01 X13.4521 Y14.8432
G01 X13.3697 Y14.6856
G01 X13.2573 Y14.5477
G01 X13.1194 Y14.4353
G01 X12.9618 Y14.3529
G01 X12.7901 Y14.3037
G01 X12.6873 Y14.2945
G01 X9.0827 Y14.2945
G01 X8.9820 Y14.3035
G01 X8.6856 Y14.3935
G01 X8.5569 Y14.3695
G01 X8.4553 Y14.2795
G01 X8.4155 Y14.1438
G01 X8.4156 Y9.7069
G01 X8.4687 Y9.5622
G01 X8.5997 Y9.3994
G01 X8.6821 Y9.2418
G01 X8.7313 Y9.0701
G01 X8.7405 Y8.9673
G01 X8.7405 Y6.6627
G01 X8.7313 Y6.5599
G01 X8.6821 Y6.3882
G01 X8.5999 Y6.2309
G01 X8.4826 Y6.0889
G01 X8.3494 Y5.9803
G01 X8.1918 Y5.8979
G01 X8.0251 Y5.8501
G01 X6.3124 Y5.8395
G01 X6.2099 Y5.8487
G01 X6.0382 Y5.8979
G01 X5.8806 Y5.9803
G01 X5.7427 Y6.0927
G01 X5.6303 Y6.2306
G01 X5.5479 Y6.3882
G01 X5.4987 Y6.5599
G01 X5.4895 Y6.6627
G01 X5.4987 Y9.0701
G01 X5.5479 Y9.2418
G01 X5.6303 Y9.3994
G01 X5.7770 Y9.5811
G01 X5.8144 Y9.7071
G01 X5.8145 Y14.0435
G01 X5.8003 Y14.1224
G01 X5.7803 Y14.1679
G01 X5.7089 Y14.2478
G01 X5.5759 Y14.2939
G01 X3.9749 Y14.3051
G01 X3.8082 Y14.3529
G01 X3.6506 Y14.4353
G01 X3.5127 Y14.5477
G01 X3.4003 Y14.6856
G01 X3.3179 Y14.8432
G01 X3.2687 Y15.0149
G01 X3.2687 Y17.1251
G01 X3.3179 Y17.2968
G01 X3.4003 Y17.4544
G01 X3.5089 Y17.5876
G01 X3.6509 Y17.7049
G01 X3.8082 Y17.7871
G01 X3.9799 Y17.8363
G01 X4.0827 Y17.8455
G01 X5.7235 Y17.8457
G01 X5.8905 Y17.9149
G01 X7.6151 Y19.6513
G01 X7.6495 Y19.7776
G01 X7.6479 Y21.1785
G01 X7.6153 Y21.2829
G01 X7.5485 Y21.3590
G01 X7.5018 Y21.3844
G01 X7.4057 Y21.4093
G01 X6.5402 Y21.4200
G01 X6.3732 Y21.4679
G01 X6.2156 Y21.5503
G01 X6.0777 Y21.6627
G01 X5.9653 Y21.8006
G01 X5.8829 Y21.9582
G01 X5.8337 Y22.1299
G01 X5.8243 Y24.0735
G01 X5.7698 Y24.2207
G01 X2.6640 Y27.3318
G01 X2.5547 Y27.3935
G01 X2.5055 Y27.4041
G01 X2.3822 Y27.3827
G01 X2.2942 Y27.3129
G01 X2.2624 Y27.2634
G01 X2.2355 Y27.1544
G01 X2.2355 Y2.3615
M05
G00 F700.00 X2.4100 Y2.1277
G01 F400.00
M03
G01 F500.00
G01 X2.4100 Y1.4100
G01 X2.5350 Y1.4100
G01 X2.5350 Y2.1105
G01 X2.6600 Y2.1105
G01 X2.6600 Y1.4100
G01 X2.7850 Y1.4100
G01 X2.7850 Y2.1105
G01 X2.9100 Y2.1105
G01 X2.9100 Y1.4100
G01 X3.0350 Y1.4100
G01 X3.0350 Y2.1105
G01 X3.1600 Y2.1105
G01 X3.1600 Y1.4100
G01 X3.2850 Y1.4100
G01 X3.2850 Y2.1105
G01 X3.4100 Y2.1105
G01 X3.4100 Y1.4100
G01 X3.5350 Y1.4100
G01 X3.5350 Y2.1105
G01 X3.6600 Y2.1105
G01 X3.6600 Y1.4100
G01 X3.7850 Y1.4100
G01 X3.7850 Y2.1105
G01 X3.9100 Y2.1105
G01 X3.9100 Y1.4100
G01 X4.0350 Y1.4100
G01 X4.0350 Y2.1105
G01 X4.1600 Y2.1105
G01 X4.1600 Y1.4100
G01 X4.2850 Y1.4100
G01 X4.2850 Y2.1105
G01 X4.4100 Y2.1105
G01 X4.4100 Y1.4100
G01 X4.5350 Y1.4100
G01 X4.5350 Y2.1105
G01 X4.6600 Y2.1105
G01 X4.6600 Y1.4100
G01 X4.7850 Y1.4100
G01 X4.7850 Y2.1105
G01 X4.9100 Y2.1105
G01 X4.9100 Y1.4100
G01 X5.0350 Y1.4100
G01 X5.0350 Y2.1105
G01 X5.1600 Y2.1105
G01 X5.1600 Y1.4100
G01 X5.2850 Y1.4100
G01 X5.2850 Y2.1105
G01 X5.4100 Y2.1105
G01 X5.4100 Y1.4100
G01 X5.5350 Y1.4100
G01 X5.5350 Y2.1105
G01 X5.6600 Y2.1105
G01 X5.6600 Y1.4100
G01 X5.7850 Y1.4100
G01 X5.7850 Y2.1105
G01 X5.9100 Y2.1105
G01 X5.9100 Y1.4100
G01 X6.0350 Y1.4100
G01 X6.0350 Y2.1105
G01 X6.1600 Y2.1105
G01 X6.1600 Y1.4100
G01 X6.2850 Y1.4100
G01 X6.2850 Y2.1105
G01 X6.4100 Y2.1105
G01 X6.4100 Y1.4100
G01 X6.5350 Y1.4100
G01 X6.5350 Y2.1105
G01 X6.6600 Y2.1105
G01 X6.6600 Y1.4100
G01 X6.7850 Y1.4100
G01 X6.7850 Y2.1105
G01 X6.9100 Y2.1105
G01 X6.9100 Y1.4100
G01 X7.0350 Y1.4100
G01 X7.0350 Y2.1105
G01 X7.1600 Y2.1105
G01 X7.1600 Y1.4100
G01 X7.2850 Y1.4100
G01 X7.2850 Y2.1105
G01 X7.4100 Y2.1105
G01 X7.4100 Y1.4100
G01 X7.5350 Y1.4100
G01 X7.5350 Y2.1105
G01 X7.6600 Y2.1105
G01 X7.6600 Y1.4100
G01 X7.7850 Y1.4100
G01 X7.7850 Y2.1105
G01 X7.9100 Y2.1105
G01 X7.9100 Y1.4100
G01 X8.0350 Y1.4100
G01 X8.0350 Y2.1105
G01 X8.1600 Y2.1105
G01 X8.1600 Y1.4100
G01 X8.2850 Y1.4100
G01 X8.2850 Y2.1105
G01 X8.4100 Y2.1105
G01 X8.4100 Y1.4100
G01 X8.5350 Y1.4100
G01 X8.5350 Y2.1105
G01 X8.6600 Y2.1105
G01 X8.6600 Y1.4100
G01 X8.7850 Y1.4100
G01 X8.7850 Y2.1105
G01 X8.9100 Y2.1105
G01 X8.9100 Y1.4100
G01 X9.0350 Y1.4100
G01 X9.0350 Y2.1105
G01 X9.1600 Y2.1105
G01 X9.1600 Y1.4100
G01 X9.2850 Y1.4100
G01 X9.2850 Y2.1105
G01 X9.4100 Y2.1105
G01 X9.4100 Y1.4100
G01 X9.5350 Y1.4100
G01 X9.5350 Y2.1105
G01 X9.6600 Y2.1105
G01 X9.6600 Y1.4100
G01 X9.7850 Y1.4100
G01 X9.7850 Y2.1105
G01 X9.9100 Y2.1105
G01 X9.9100 Y1.4100
G01 X10.0350 Y1.4100
G01 X10.0350 Y2.1105
G01 X10.1600 Y2.1105
G01 X10.1600 Y1.4100
G01 X10.2850 Y1.4100
G01 X10.2850 Y2.1105
G01 X10.4100 Y2.1105
G01 X10.4100 Y1.4100
G01 X10.5350 Y1.4100
G01 X10.5350 Y2.1105
G01 X10.6600 Y2.1105
G01 X10.6600 Y1.4100
G01 X10.7850 Y1.4100
G01 X10.7850 Y2.1105
G01 X10.9100 Y2.1105
G01 X10.9100 Y1.4100
G01 X11.0350 Y1.4100
G01 X11.0350 Y2.1105
G01 X11.1600 Y2.1105
G01 X11.1600 Y1.4100
G01 X11.2850 Y1.4100
G01 X11.2850 Y2.1105
G01 X11.4100 Y2.1105
G01 X11.4100 Y1.4100
G01 X11.5350 Y1.4100
G01 X11.5350 Y2.1105
G01 X11.6600 Y2.1105
G01 X11.6600 Y1.4100
G01 X11.7850 Y1.4100
G01 X11.7850 Y2.1105
G01 X11.9100 Y2.1105
G01 X11.9100 Y1.4100
G01 X12.0350 Y1.4100
G01 X12.0350 Y2.1105
G01 X12.1600 Y2.1105
G01 X12.1600 Y1.4100
G01 X12.2850 Y1.4100
G01 X12.2850 Y2.1105
G01 X12.4100 Y2.1105
G01 X12.4100 Y1.4100
G01 X12.5350 Y1.4100
G01 X12.5350 Y2.1105
G01 X12.6600 Y2.1105
G01 X12.6600 Y1.4100
G01 X12.7850 Y1.4100
G01 X12.7850 Y2.1105
G01 X12.9100 Y2.1105
G01 X12.9100 Y1.4100
G01 X13.0350 Y1.4100
G01 X13.0350 Y2.1105
G01 X13.1600 Y2.1105
G01 X13.1600 Y1.4100
G01 X13.2850 Y1.4100
G01 X13.2850 Y2.1105
G01 X13.4100 Y2.1105
G01 X13.4100 Y1.4100
G01 X13.5350 Y1.4100
G01 X13.5350 Y2.1105
G01 X13.6600 Y2.1105
G01 X13.6600 Y1.4100
G01 X13.7850 Y1.4100
G01 X13.7850 Y2.1105
G01 X13.9100 Y2.1105
G01 X13.9100 Y1.4100
G01 X14.0350 Y1.4100
G01 X14.0350 Y2.1105
G01 X14.1600 Y2.1105
G01 X14.1600 Y1.4100
G01 X14.2850 Y1.4100
G01 X14.2850 Y2.1105
G01 X14.4100 Y2.1105
G01 X14.4100 Y1.4100
G01 X14.5350 Y1.4100
G01 X14.5350 Y2.1105
G01 X14.6600 Y2.1105
G01 X14.6600 Y1.4100
G01 X14.7850 Y1.4100
G01 X14.7850 Y2.1105
G01 X14.9100 Y2.1105
G01 X14.9100 Y1.4100
G01 X15.0350 Y1.4100
G01 X15.0350 Y2.1105
G01 X15.1600 Y2.1105
G01 X15.1600 Y1.4100
G01 X15.2850 Y1.4100
G01 X15.2850 Y2.1105
G01 X15.4100 Y2.1105
G01 X15.4100 Y1.4100
G01 X15.5350 Y1.4100
G01 X15.5350 Y2.1105
G01 X15.6600 Y2.1105
G01 X15.6600 Y1.4100
G01 X15.7850 Y1.4100
G01 X15.7850 Y2.1105
G01 X15.9100 Y2.1105
G01 X15.9100 Y1.4100
G01 X16.0350 Y1.4100
G01 X16.0350 Y2.1105
G01 X16.1600 Y2.1105
G01 X16.1600 Y1.4100
G01 X16.2850 Y1.4100
G01 X16.2850 Y2.1105
G01 X16.4100 Y2.1105
G01 X16.4100 Y1.4100
G01 X16.5350 Y1.4100
G01 X16.5350 Y2.1105
G01 X16.6600 Y2.1105
G01 X16.6600 Y1.4100
G01 X16.7850 Y1.4100
G01 X16.7850 Y2.1105
G01 X16.9100 Y2.1105
G01 X16.9100 Y1.4100
G01 X17.0350 Y1.4100
G01 X17.0350 Y2.1105
G01 X17.1600 Y2.1105
G01 X17.1600 Y1.4100
G01 X17.2850 Y1.4100
G01 X17.2850 Y2.1105
G01 X17.4100 Y2.1105
G01 X17.4100 Y1.4100
G01 X17.5350 Y1.4100
G01 X17.5350 Y2.1105
G01 X17.6600 Y2.1105
G01 X17.6600 Y1.4100
G01 X17.7850 Y1.4100
G01 X17.7850 Y2.1105
G01 X17.9100 Y2.1105
G01 X17.9100 Y1.4100
G01 X18.0350 Y1.4100
G01 X18.0350 Y2.1105
G01 X18.1600 Y2.1105
G01 X18.1600 Y1.4100
G01 X18.2850 Y1.4100
G01 X18.2850 Y2.1105
G01 X18.4100 Y2.1105
G01 X18.4100 Y1.4100
G01 X18.5350 Y1.4100
G01 X18.5350 Y2.1105
G01 X18.6600 Y2.1105
G01 X18.6600 Y1.4100
G01 X18.7850 Y1.4100
G01 X18.7850 Y2.1105
G01 X18.9100 Y2.1105
G01 X18.9100 Y1.4100
G01 X19.0350 Y1.4100
G01 X19.0350 Y2.1105
G01 X19.1600 Y2.1105
G01 X19.1600 Y1.4100
G01 X19.2850 Y1.4100
G01 X19.2850 Y2.1105
G01 X19.4100 Y2.1105
G01 X19.4100 Y1.4100
G01 X19.5350 Y1.4100
G01 X19.5350 Y2.1105
G01 X19.6600 Y2.1105
G01 X19.6600 Y1.4100
G01 X19.7850 Y1.4100
G01 X19.7850 Y2.1105
G01 X19.9100 Y2.1105
G01 X19.9100 Y1.4100
G01 X20.0350 Y1.4100
G01 X20.0350 Y2.1105
G01 X20.1600 Y2.1105
G01 X20.1600 Y1.4100
G01 X20.2850 Y1.4100
G01 X20.2850 Y2.1105
G01 X20.4100 Y2.1105
G01 X20.4100 Y1.4100
G01 X20.5350 Y1.4100
G01 X20.5350 Y2.1105
G01 X20.6600 Y2.1105
G01 X20.6600 Y1.4100
G01 X20.7850 Y1.4100
G01 X20.7850 Y2.1105
G01 X20.9100 Y2.1105
G01 X20.9100 Y1.4100
G01 X21.0350 Y1.4100
G01 X21.0350 Y2.1105
G01 X21.1600 Y2.1105
G01 X21.1600 Y1.4100
G01 X21.2850 Y1.4100
G01 X21.2850 Y2.1105
G01 X21.4100 Y2.1105
G01 X21.4100 Y1.4100
G01 X21.5350 Y1.4100
G01 X21.5350 Y2.1105
G01 X21.6600 Y2.1105
G01 X21.6600 Y1.4100
G01 X21.7850 Y1.4100
G01 X21.7850 Y2.1105
G01 X21.9100 Y2.1105
G01 X21.9100 Y1.4100
G01 X22.0350 Y1.4100
G01 X22.0350 Y2.1105
G01 X22.1600 Y2.1105
G01 X22.1600 Y1.4100
G01 X22.2850 Y1.4100
G01 X22.2850 Y2.1105
G01 X22.4100 Y2.1105
G01 X22.4100 Y1.4100
G01 X22.5350 Y1.4100
G01 X22.5350 Y2.1105
G01 X22.6600 Y2.1105
G01 X22.6600 Y1.4100
G01 X22.7850 Y1.4100
G01 X22.7850 Y2.1105
G01 X22.9100 Y2.1105
G01 X22.9100 Y1.4100
G01 X23.0350 Y1.4100
G01 X23.0350 Y2.1105
G01 X23.1600 Y2.1105
G01 X23.1600 Y1.4100
G01 X23.2850 Y1.4100
G01 X23.2850 Y2.1105
G01 X23.4100 Y2.1105
G01 X23.4100 Y1.4100
G01 X23.5350 Y1.4100
G01 X23.5350 Y2.1105
G01 X23.6600 Y2.1105
G01 X23.6600 Y1.4100
G01 X23.7850 Y1.4100
G01 X23.7850 Y2.1105
G01 X23.9100 Y2.1105
G01 X23.9100 Y1.4100
G01 X24.0350 Y1.4100
G01 X24.0350 Y2.1105
G01 X24.1600 Y2.1105
G01 X24.1600 Y1.4100
G01 X24.2850 Y1.4100
G01 X24.2850 Y2.1105
G01 X24.4100 Y2.1105
G01 X24.4100 Y1.4100
G01 X24.5350 Y1.4100
G01 X24.5350 Y2.1105
G01 X24.6600 Y2.1105
G01 X24.6600 Y1.4100
G01 X24.7850 Y1.4100
G01 X24.7850 Y2.1105
G01 X24.9100 Y2.1105
G01 X24.9100 Y1.4100
G01 X25.0350 Y1.4100
G01 X25.0350 Y2.1105
G01 X25.1600 Y2.1105
G01 X25.1600 Y1.4100
G01 X25.2850 Y1.4100
G01 X25.2850 Y2.1105
G01 X25.4100 Y2.1105
G01 X25.4100 Y1.4100
G01 X25.5350 Y1.4100
G01 X25.5350 Y2.1105
G01 X25.6600 Y2.1105
G01 X25.6600 Y1.4100
G01 X25.7850 Y1.4100
G01 X25.7850 Y2.1105
G01 X25.9100 Y2.1105
G01 X25.9100 Y1.4100
G01 X26.0350 Y1.4100
G01 X26.0350 Y2.1105
G01 X26.1600 Y2.1105
G01 X26.1600 Y1.4100
G01 X26.2850 Y1.4100
G01 X26.2850 Y2.1105
G01 X26.4100 Y2.1105
G01 X26.4100 Y1.4100
G01 X26.5350 Y1.4100
G01 X26.5350 Y2.1105
G01 X26.6600 Y2.1105
G01 X26.6600 Y1.4100
G01 X26.7850 Y1.4100
G01 X26.7850 Y2.1105
G01 X26.9100 Y2.1105
G01 X26.9100 Y1.4100
G01 X27.0350 Y1.4100
G01 X27.0350 Y2.1105
G01 X27.1600 Y2.1105
G01 X27.1600 Y1.4100
G01 X27.2850 Y1.4100
G01 X27.2850 Y2.1105
G01 X27.4100 Y2.1105
G01 X27.4100 Y1.4100
G01 X27.5350 Y1.4100
G01 X27.5350 Y2.1105
G01 X27.6600 Y2.1105
G01 X27.6600 Y1.4100
G01 X27.7850 Y1.4100
G01 X27.7850 Y2.1105
G01 X27.9100 Y2.1105
G01 X27.9100 Y1.4100
G01 X28.0350 Y1.4100
G01 X28.0350 Y2.1105
G01 X28.1600 Y2.1105
G01 X28.1600 Y1.4100
G01 X28.2850 Y1.4100
G01 X28.2850 Y2.1105
G01 X28.4100 Y2.1105
G01 X28.4100 Y1.4100
G01 X28.5350 Y1.4100
G01 X28.5350 Y2.1105
G01 X28.6600 Y2.1105
G01 X28.6600 Y1.4100
G01 X28.7850 Y1.4100
G01 X28.7850 Y2.1105
G01 X28.9100 Y2.1105
G01 X28.9100 Y1.4100
G01 X29.0350 Y1.4100
G01 X29.0350 Y2.1105
G01 X29.1600 Y2.1105
G01 X29.1600 Y1.4100
G01 X29.2850 Y1.4100
G01 X29.2850 Y2.1105
G01 X29.4100 Y2.1105
G01 X29.4100 Y1.4100
G01 X29.5350 Y1.4100
G01 X29.5350 Y2.1105
G01 X29.6600 Y2.1105
G01 X29.6600 Y1.4100
G01 X29.7850 Y1.4100
G01 X29.7850 Y2.1105
G01 X29.9100 Y2.1105
G01 X29.9100 Y1.4100
G01 X30.0350 Y1.4100
G01 X30.0350 Y2.1105
