(G-code generated by FlatCAM Evo vUnstable - Version Date: 2023/6/31)

(Name: MainPCBV1-PTH.drl_cnc)
(Type: G-code from Excellon)
(Units: MM)

(Created on Saturday, 13 April 2024 at 22:19)

(This preprocessor is the default preprocessor when used with a laser.)
(It is made to work with MACH3 compatible motion controllers.)
(This preprocessor makes no moves on the Z axis it will only move horizontally.)
(The horizontal move is done with G0 - highest possible speed set in MACH3.)
(It assumes a manually focused laser.)
(The laser is started with M3 or M4 command and stopped with the M5 command.)

(Feedrate: 300 mm/min)
(Steps per circle: 16)
(Preprocessor Excellon: default_laser)
(X range:   18.1049 ...   69.2656  mm)
(Y range:    4.4494 ...   74.0250  mm)

(Laser Power - Spindle Speed: 100)
(Laser Minimum Power: 0.0)

G21
G90
G94

G01 F300.00
M05

M03 S100
G00 X24.2200 Y6.3937
M03 S100

M05
G00 X24.2200 Y6.3937
M03 S100

M05
G00 X24.2200 Y6.3937
M03 S100

M05
G00 X24.2200 Y6.3937
M03 S100

M05
G00 X24.2200 Y6.3937
M03 S100

M05
G00 X24.2200 Y6.3937
M03 S100

M05
G00 X24.2200 Y6.3937
M03 S100

M05
G00 X24.2200 Y6.3937
M03 S100

M05
G00 X24.2200 Y6.3937
M03 S100

M05
G00 X24.2200 Y6.3937
M03 S100

M05
G00 X24.2200 Y6.3937
M03 S100

M05
G00 X24.2200 Y6.3937
M03 S100

M05
G00 X24.2200 Y6.3937
M03 S100

M05
G00 X24.2200 Y6.3937
M03 S100

M05
G00 X24.2200 Y6.3937
M03 S100

M05
G00 X24.2200 Y6.3937
M03 S100

M05
G00 X24.2200 Y6.3937
M03 S100

M05
G00 X24.2200 Y6.3937
M03 S100

M05
G00 X24.2200 Y6.3937
M03 S100

M05
G00 X24.2200 Y6.3937
M03 S100

M05
G00 X24.2200 Y6.3937
M03 S100

M05
G00 X24.2200 Y6.3937
M03 S100

M05
G00 X24.2200 Y6.3937
M03 S100

M05
G00 X24.2200 Y6.3937
M03 S100

M05
G00 X24.2200 Y6.3937
M03 S100

M05
G00 X24.2200 Y6.3937
M03 S100

M05
G00 X24.2200 Y6.3937
M03 S100

M05
G00 X24.2200 Y6.3937
M03 S100

M05
G00 X24.2200 Y6.3937
M03 S100

M05
G00 X24.2200 Y6.3937
M03 S100

M05
G00 X24.2200 Y6.3937
M03 S100

M05
G00 X24.2200 Y6.3937
M03 S100

M05
G00 X24.2200 Y6.3937
M03 S100

M05
G00 X24.2200 Y6.3937
M03 S100

M05
G00 X24.2200 Y6.3937
M03 S100

M05
G00 X24.2200 Y6.3937
M03 S100

M05
G00 X24.2200 Y6.3937
M03 S100

M05
G00 X24.2200 Y6.3937
M03 S100

M05
G00 X24.2200 Y6.3937
M03 S100

M05
G00 X24.2200 Y6.3937
M03 S100

M05
G00 X24.2200 Y6.3937
M03 S100

M05
G00 X24.2200 Y6.3937
M03 S100

M05
G00 X24.2200 Y6.3937
M03 S100

M05
G00 X24.2200 Y6.3937
M03 S100

M05
G00 X24.2200 Y6.3937
M03 S100

M05
G00 X24.2200 Y6.3937
M03 S100

M05
G00 X24.2200 Y6.3937
M03 S100

M05
G00 X24.2200 Y6.3937
M03 S100

M05
G00 X24.2200 Y6.3937
M03 S100

M05
G00 X24.2200 Y6.3937
M03 S100

M05
G00 X24.2200 Y6.3937
M03 S100

M05
G00 X24.2200 Y6.3937
M03 S100

M05
G00 X24.2200 Y6.3937
M03 S100

M05
G00 X24.2200 Y6.3937
M03 S100

M05
G00 X24.2200 Y6.3937
M03 S100

M05
G00 X24.2200 Y6.3937
M03 S100

M05
G00 X24.2200 Y6.3937
M03 S100

M05
G00 X24.2200 Y6.3937
M03 S100

M05
G00 X24.2200 Y6.3937
M03 S100

M05
G00 X24.2200 Y6.3937
M03 S100

M05
G00 X24.2200 Y6.3937
M03 S100

M05
G00 X24.2200 Y6.3937
M03 S100

M05
G00 X24.2200 Y6.3937
M03 S100

M05
G00 X24.2200 Y6.3937
M03 S100

M05
G00 X24.2200 Y6.3937
M03 S100

M05
G00 X24.2200 Y6.3937
M03 S100

M05
G00 X24.2200 Y6.3937
M03 S100

M05
G00 X24.2200 Y6.3937
M03 S100

M05
G00 X24.2200 Y6.3937
M03 S100

M05
G00 X24.2200 Y6.3937
M03 S100

M05
G00 X24.2200 Y6.3937
M03 S100

M05
G00 X24.2200 Y6.3937
M03 S100

M05
G00 X24.2200 Y6.3937
M03 S100

M05
G00 X24.2200 Y6.3937
M03 S100

M05
G00 X24.2200 Y6.3937
M03 S100

M05
G00 X24.2200 Y6.3937
M03 S100

M05
G00 X24.2200 Y6.3937
M03 S100

M05
G00 X24.2200 Y6.3937
M03 S100

M05
G00 X24.2200 Y6.3937
M03 S100

M05
G00 X24.2200 Y6.3937
M03 S100

M05
G00 X24.2200 Y6.3937
M03 S100

M05
G00 X24.2200 Y6.3937
M03 S100

M05
G00 X24.2200 Y6.3937
M03 S100

M05
G00 X24.2200 Y6.3937
M03 S100

M05
G00 X24.2200 Y6.3937
M03 S100

M05
G00 X24.2200 Y6.3937
M03 S100

M05
G00 X24.2200 Y6.3937
M03 S100

M05
G00 X24.2200 Y6.3937
M03 S100

M05
G00 X24.2200 Y6.3937
M03 S100

M05
G00 X24.2200 Y6.3937
M03 S100

M05
G00 X24.2200 Y6.3937
M03 S100

M05
G00 X24.2200 Y6.3937
M03 S100

M05
G00 X24.2200 Y6.3937
M03 S100

M05
G00 X24.2200 Y6.3937
M03 S100

M05
G00 X24.2200 Y6.3937
M03 S100

M05
G00 X24.2200 Y6.3937
M03 S100

M05
G00 X24.2200 Y6.3937
M03 S100

M05
G00 X24.2200 Y6.3937
M03 S100

M05
G00 X24.2200 Y6.3937
M03 S100

M05
G00 X24.2200 Y6.3937
M03 S100

M05
G00 X24.2200 Y6.3937
M03 S100

M05
G00 X24.2200 Y6.3937
M03 S100

M05
G00 X24.2200 Y6.3937
M03 S100

M05
G00 X24.2200 Y6.3937
M03 S100

M05
G00 X24.2200 Y6.3937
M03 S100

M05
G00 X24.2200 Y6.3937
M03 S100

M05
G00 X24.2200 Y6.3937
M03 S100

M05
G00 X24.2200 Y6.3937
M03 S100

M05
G00 X24.2200 Y6.3937
M03 S100

M05
G00 X24.2200 Y6.3937
M03 S100

M05
G00 X24.2200 Y6.3937
M03 S100

M05
G00 X24.2200 Y6.3937
M03 S100

M05
G00 X24.2200 Y6.3937
M03 S100

M05
G00 X24.2200 Y6.3937
M03 S100

M05
G00 X24.2200 Y6.3937
M03 S100

M05
G00 X24.2200 Y6.3937
M03 S100

M05
G00 X24.2200 Y6.3937
M03 S100

M05
G00 X24.2200 Y6.3937
M03 S100

M05
G00 X24.2200 Y6.3937
M03 S100

M05
G00 X24.2200 Y6.3937
M03 S100

M05
G00 X24.2200 Y6.3937
M03 S100

M05
G00 X24.2200 Y6.3937
M03 S100

M05
G00 X24.2200 Y6.3937
M03 S100

M05
G00 X24.2200 Y6.3937
M03 S100

M05
G00 X24.2200 Y6.3937
M03 S100

M05
G00 X24.2200 Y6.3937
M03 S100

M05
G00 X24.2200 Y6.3937
M03 S100

M05
G00 X24.2200 Y6.3937
M03 S100

M05
G00 X24.2200 Y11.3950
M03 S100

M05
G00 X24.2200 Y11.3950
M03 S100

M05
G00 X24.2200 Y11.3950
M03 S100

M05
G00 X24.2200 Y11.3950
M03 S100

M05
G00 X24.2200 Y11.3950
M03 S100

M05
G00 X24.2200 Y11.3950
M03 S100

M05
G00 X24.2200 Y11.3950
M03 S100

M05
G00 X24.2200 Y11.3950
M03 S100

M05
G00 X24.2200 Y11.3950
M03 S100

M05
G00 X24.2200 Y11.3950
M03 S100

M05
G00 X24.2200 Y11.3950
M03 S100

M05
G00 X24.2200 Y11.3950
M03 S100

M05
G00 X24.2200 Y11.3950
M03 S100

M05
G00 X24.2200 Y11.3950
M03 S100

M05
G00 X24.2200 Y11.3950
M03 S100

M05
G00 X24.2200 Y11.3950
M03 S100

M05
G00 X24.2200 Y11.3950
M03 S100

M05
G00 X24.2200 Y11.3950
M03 S100

M05
G00 X24.2200 Y11.3950
M03 S100

M05
G00 X24.2200 Y11.3950
M03 S100

M05
G00 X24.2200 Y11.3950
M03 S100

M05
G00 X24.2200 Y11.3950
M03 S100

M05
G00 X24.2200 Y11.3950
M03 S100

M05
G00 X24.2200 Y11.3950
M03 S100

M05
G00 X24.2200 Y11.3950
M03 S100

M05
G00 X24.2200 Y11.3950
M03 S100

M05
G00 X24.2200 Y11.3950
M03 S100

M05
G00 X24.2200 Y11.3950
M03 S100

M05
G00 X24.2200 Y11.3950
M03 S100

M05
G00 X24.2200 Y11.3950
M03 S100

M05
G00 X24.2200 Y11.3950
M03 S100

M05
G00 X24.2200 Y11.3950
M03 S100

M05
G00 X24.2200 Y11.3950
M03 S100

M05
G00 X24.2200 Y11.3950
M03 S100

M05
G00 X24.2200 Y11.3950
M03 S100

M05
G00 X24.2200 Y11.3950
M03 S100

M05
G00 X24.2200 Y11.3950
M03 S100

M05
G00 X24.2200 Y11.3950
M03 S100

M05
G00 X24.2200 Y11.3950
M03 S100

M05
G00 X24.2200 Y11.3950
M03 S100

M05
G00 X24.2200 Y11.3950
M03 S100

M05
G00 X24.2200 Y11.3950
M03 S100

M05
G00 X24.2200 Y11.3950
M03 S100

M05
G00 X24.2200 Y11.3950
M03 S100

M05
G00 X24.2200 Y11.3950
M03 S100

M05
G00 X24.2200 Y11.3950
M03 S100

M05
G00 X24.2200 Y11.3950
M03 S100

M05
G00 X24.2200 Y11.3950
M03 S100

M05
G00 X24.2200 Y11.3950
M03 S100

M05
G00 X24.2200 Y11.3950
M03 S100

M05
G00 X24.2200 Y11.3950
M03 S100

M05
G00 X24.2200 Y11.3950
M03 S100

M05
G00 X24.2200 Y11.3950
M03 S100

M05
G00 X24.2200 Y11.3950
M03 S100

M05
G00 X24.2200 Y11.3950
M03 S100

M05
G00 X24.2200 Y11.3950
M03 S100

M05
G00 X24.2200 Y11.3950
M03 S100

M05
G00 X24.2200 Y11.3950
M03 S100

M05
G00 X24.2200 Y11.3950
M03 S100

M05
G00 X24.2200 Y11.3950
M03 S100

M05
G00 X24.2200 Y11.3950
M03 S100

M05
G00 X24.2200 Y11.3950
M03 S100

M05
G00 X24.2200 Y11.3950
M03 S100

M05
G00 X24.2200 Y11.3950
M03 S100

M05
G00 X24.2200 Y11.3950
M03 S100

M05
G00 X24.2200 Y11.3950
M03 S100

M05
G00 X24.2200 Y11.3950
M03 S100

M05
G00 X24.2200 Y11.3950
M03 S100

M05
G00 X24.2200 Y11.3950
M03 S100

M05
G00 X24.2200 Y11.3950
M03 S100

M05
G00 X24.2200 Y11.3950
M03 S100

M05
G00 X24.2200 Y11.3950
M03 S100

M05
G00 X24.2200 Y11.3950
M03 S100

M05
G00 X24.2200 Y11.3950
M03 S100

M05
G00 X24.2200 Y11.3950
M03 S100

M05
G00 X24.2200 Y11.3950
M03 S100

M05
G00 X24.2200 Y11.3950
M03 S100

M05
G00 X24.2200 Y11.3950
M03 S100

M05
G00 X24.2200 Y11.3950
M03 S100

M05
G00 X24.2200 Y11.3950
M03 S100

M05
G00 X24.2200 Y11.3950
M03 S100

M05
G00 X24.2200 Y11.3950
M03 S100

M05
G00 X24.2200 Y11.3950
M03 S100

M05
G00 X24.2200 Y11.3950
M03 S100

M05
G00 X24.2200 Y11.3950
M03 S100

M05
G00 X24.2200 Y11.3950
M03 S100

M05
G00 X24.2200 Y11.3950
M03 S100

M05
G00 X24.2200 Y11.3950
M03 S100

M05
G00 X24.2200 Y11.3950
M03 S100

M05
G00 X24.2200 Y11.3950
M03 S100

M05
G00 X24.2200 Y11.3950
M03 S100

M05
G00 X24.2200 Y11.3950
M03 S100

M05
G00 X24.2200 Y11.3950
M03 S100

M05
G00 X24.2200 Y11.3950
M03 S100

M05
G00 X24.2200 Y11.3950
M03 S100

M05
G00 X24.2200 Y11.3950
M03 S100

M05
G00 X24.2200 Y11.3950
M03 S100

M05
G00 X24.2200 Y11.3950
M03 S100

M05
G00 X24.2200 Y11.3950
M03 S100

M05
G00 X24.2200 Y11.3950
M03 S100

M05
G00 X24.2200 Y11.3950
M03 S100

M05
G00 X24.2200 Y11.3950
M03 S100

M05
G00 X24.2200 Y11.3950
M03 S100

M05
G00 X24.2200 Y11.3950
M03 S100

M05
G00 X24.2200 Y11.3950
M03 S100

M05
G00 X24.2200 Y11.3950
M03 S100

M05
G00 X24.2200 Y11.3950
M03 S100

M05
G00 X24.2200 Y11.3950
M03 S100

M05
G00 X24.2200 Y11.3950
M03 S100

M05
G00 X24.2200 Y11.3950
M03 S100

M05
G00 X24.2200 Y11.3950
M03 S100

M05
G00 X24.2200 Y11.3950
M03 S100

M05
G00 X24.2200 Y11.3950
M03 S100

M05
G00 X24.2200 Y11.3950
M03 S100

M05
G00 X24.2200 Y11.3950
M03 S100

M05
G00 X24.2200 Y11.3950
M03 S100

M05
G00 X24.2200 Y11.3950
M03 S100

M05
G00 X24.2200 Y11.3950
M03 S100

M05
G00 X24.2200 Y11.3950
M03 S100

M05
G00 X24.2200 Y11.3950
M03 S100

M05
G00 X24.2200 Y11.3950
M03 S100

M05
G00 X24.2200 Y11.3950
M03 S100

M05
G00 X24.2200 Y11.3950
M03 S100

M05
G00 X24.2200 Y11.3950
M03 S100

M05
G00 X24.2200 Y11.3950
M03 S100

M05
G00 X24.2200 Y11.3950
M03 S100

M05
G00 X24.2200 Y11.3950
M03 S100

M05
G00 X24.2200 Y11.3950
M03 S100

M05
G00 X26.6813 Y20.9200
M03 S100

M05
G00 X26.6813 Y20.9200
M03 S100

M05
G00 X26.6813 Y20.9200
M03 S100

M05
G00 X26.6813 Y20.9200
M03 S100

M05
G00 X26.6813 Y20.9200
M03 S100

M05
G00 X26.6813 Y20.9200
M03 S100

M05
G00 X26.6813 Y20.9200
M03 S100

M05
G00 X26.6813 Y20.9200
M03 S100

M05
G00 X26.6813 Y20.9200
M03 S100

M05
G00 X26.6813 Y20.9200
M03 S100

M05
G00 X26.6813 Y20.9200
M03 S100

M05
G00 X26.6813 Y20.9200
M03 S100

M05
G00 X26.6813 Y20.9200
M03 S100

M05
G00 X26.6813 Y20.9200
M03 S100

M05
G00 X26.6813 Y20.9200
M03 S100

M05
G00 X26.6813 Y20.9200
M03 S100

M05
G00 X26.6813 Y20.9200
M03 S100

M05
G00 X26.6813 Y20.9200
M03 S100

M05
G00 X26.6813 Y20.9200
M03 S100

M05
G00 X26.6813 Y20.9200
M03 S100

M05
G00 X26.6813 Y20.9200
M03 S100

M05
G00 X26.6813 Y20.9200
M03 S100

M05
G00 X26.6813 Y20.9200
M03 S100

M05
G00 X26.6813 Y20.9200
M03 S100

M05
G00 X26.6813 Y20.9200
M03 S100

M05
G00 X26.6813 Y20.9200
M03 S100

M05
G00 X26.6813 Y20.9200
M03 S100

M05
G00 X26.6813 Y20.9200
M03 S100

M05
G00 X26.6813 Y20.9200
M03 S100

M05
G00 X26.6813 Y20.9200
M03 S100

M05
G00 X26.6813 Y20.9200
M03 S100

M05
G00 X26.6813 Y20.9200
M03 S100

M05
G00 X26.6813 Y20.9200
M03 S100

M05
G00 X26.6813 Y20.9200
M03 S100

M05
G00 X26.6813 Y20.9200
M03 S100

M05
G00 X26.6813 Y20.9200
M03 S100

M05
G00 X26.6813 Y20.9200
M03 S100

M05
G00 X26.6813 Y20.9200
M03 S100

M05
G00 X26.6813 Y20.9200
M03 S100

M05
G00 X26.6813 Y20.9200
M03 S100

M05
G00 X26.6813 Y20.9200
M03 S100

M05
G00 X26.6813 Y20.9200
M03 S100

M05
G00 X26.6813 Y20.9200
M03 S100

M05
G00 X26.6813 Y20.9200
M03 S100

M05
G00 X26.6813 Y20.9200
M03 S100

M05
G00 X26.6813 Y20.9200
M03 S100

M05
G00 X26.6813 Y20.9200
M03 S100

M05
G00 X26.6813 Y20.9200
M03 S100

M05
G00 X26.6813 Y20.9200
M03 S100

M05
G00 X26.6813 Y20.9200
M03 S100

M05
G00 X26.6813 Y20.9200
M03 S100

M05
G00 X26.6813 Y20.9200
M03 S100

M05
G00 X26.6813 Y20.9200
M03 S100

M05
G00 X26.6813 Y20.9200
M03 S100

M05
G00 X26.6813 Y20.9200
M03 S100

M05
G00 X26.6813 Y20.9200
M03 S100

M05
G00 X26.6813 Y20.9200
M03 S100

M05
G00 X26.6813 Y20.9200
M03 S100

M05
G00 X26.6813 Y20.9200
M03 S100

M05
G00 X26.6813 Y20.9200
M03 S100

M05
G00 X26.6813 Y20.9200
M03 S100

M05
G00 X26.6813 Y20.9200
M03 S100

M05
G00 X26.6813 Y20.9200
M03 S100

M05
G00 X26.6813 Y20.9200
M03 S100

M05
G00 X26.6813 Y20.9200
M03 S100

M05
G00 X26.6813 Y20.9200
M03 S100

M05
G00 X26.6813 Y20.9200
M03 S100

M05
G00 X26.6813 Y20.9200
M03 S100

M05
G00 X26.6813 Y20.9200
M03 S100

M05
G00 X26.6813 Y20.9200
M03 S100

M05
G00 X26.6813 Y20.9200
M03 S100

M05
G00 X26.6813 Y20.9200
M03 S100

M05
G00 X26.6813 Y20.9200
M03 S100

M05
G00 X26.6813 Y20.9200
M03 S100

M05
G00 X26.6813 Y20.9200
M03 S100

M05
G00 X26.6813 Y20.9200
M03 S100

M05
G00 X26.6813 Y20.9200
M03 S100

M05
G00 X26.6813 Y20.9200
M03 S100

M05
G00 X26.6813 Y20.9200
M03 S100

M05
G00 X26.6813 Y20.9200
M03 S100

M05
G00 X26.6813 Y20.9200
M03 S100

M05
G00 X26.6813 Y20.9200
M03 S100

M05
G00 X26.6813 Y20.9200
M03 S100

M05
G00 X26.6813 Y20.9200
M03 S100

M05
G00 X26.6813 Y20.9200
M03 S100

M05
G00 X26.6813 Y20.9200
M03 S100

M05
G00 X26.6813 Y20.9200
M03 S100

M05
G00 X26.6813 Y20.9200
M03 S100

M05
G00 X26.6813 Y20.9200
M03 S100

M05
G00 X26.6813 Y20.9200
M03 S100

M05
G00 X26.6813 Y20.9200
M03 S100

M05
G00 X26.6813 Y20.9200
M03 S100

M05
G00 X26.6813 Y20.9200
M03 S100

M05
G00 X26.6813 Y20.9200
M03 S100

M05
G00 X26.6813 Y20.9200
M03 S100

M05
G00 X26.6813 Y20.9200
M03 S100

M05
G00 X26.6813 Y20.9200
M03 S100

M05
G00 X26.6813 Y20.9200
M03 S100

M05
G00 X26.6813 Y20.9200
M03 S100

M05
G00 X26.6813 Y20.9200
M03 S100

M05
G00 X26.6813 Y20.9200
M03 S100

M05
G00 X26.6813 Y20.9200
M03 S100

M05
G00 X26.6813 Y20.9200
M03 S100

M05
G00 X26.6813 Y20.9200
M03 S100

M05
G00 X26.6813 Y20.9200
M03 S100

M05
G00 X26.6813 Y20.9200
M03 S100

M05
G00 X26.6813 Y20.9200
M03 S100

M05
G00 X26.6813 Y20.9200
M03 S100

M05
G00 X26.6813 Y20.9200
M03 S100

M05
G00 X26.6813 Y20.9200
M03 S100

M05
G00 X26.6813 Y20.9200
M03 S100

M05
G00 X26.6813 Y20.9200
M03 S100

M05
G00 X26.6813 Y20.9200
M03 S100

M05
G00 X26.6813 Y20.9200
M03 S100

M05
G00 X26.6813 Y20.9200
M03 S100

M05
G00 X26.6813 Y20.9200
M03 S100

M05
G00 X26.6813 Y20.9200
M03 S100

M05
G00 X26.6813 Y20.9200
M03 S100

M05
G00 X26.6813 Y20.9200
M03 S100

M05
G00 X26.6813 Y20.9200
M03 S100

M05
G00 X26.6813 Y20.9200
M03 S100

M05
G00 X26.6813 Y20.9200
M03 S100

M05
G00 X26.6813 Y20.9200
M03 S100

M05
G00 X26.6813 Y20.9200
M03 S100

M05
G00 X26.6813 Y20.9200
M03 S100

M05
G00 X26.6813 Y20.9200
M03 S100

M05
G00 X26.6813 Y20.9200
M03 S100

M05
G00 X26.6813 Y20.9200
M03 S100

M05
G00 X21.6800 Y20.9200
M03 S100

M05
G00 X21.6800 Y20.9200
M03 S100

M05
G00 X21.6800 Y20.9200
M03 S100

M05
G00 X21.6800 Y20.9200
M03 S100

M05
G00 X21.6800 Y20.9200
M03 S100

M05
G00 X21.6800 Y20.9200
M03 S100

M05
G00 X21.6800 Y20.9200
M03 S100

M05
G00 X21.6800 Y20.9200
M03 S100

M05
G00 X21.6800 Y20.9200
M03 S100

M05
G00 X21.6800 Y20.9200
M03 S100

M05
G00 X21.6800 Y20.9200
M03 S100

M05
G00 X21.6800 Y20.9200
M03 S100

M05
G00 X21.6800 Y20.9200
M03 S100

M05
G00 X21.6800 Y20.9200
M03 S100

M05
G00 X21.6800 Y20.9200
M03 S100

M05
G00 X21.6800 Y20.9200
M03 S100

M05
G00 X21.6800 Y20.9200
M03 S100

M05
G00 X21.6800 Y20.9200
M03 S100

M05
G00 X21.6800 Y20.9200
M03 S100

M05
G00 X21.6800 Y20.9200
M03 S100

M05
G00 X21.6800 Y20.9200
M03 S100

M05
G00 X21.6800 Y20.9200
M03 S100

M05
G00 X21.6800 Y20.9200
M03 S100

M05
G00 X21.6800 Y20.9200
M03 S100

M05
G00 X21.6800 Y20.9200
M03 S100

M05
G00 X21.6800 Y20.9200
M03 S100

M05
G00 X21.6800 Y20.9200
M03 S100

M05
G00 X21.6800 Y20.9200
M03 S100

M05
G00 X21.6800 Y20.9200
M03 S100

M05
G00 X21.6800 Y20.9200
M03 S100

M05
G00 X21.6800 Y20.9200
M03 S100

M05
G00 X21.6800 Y20.9200
M03 S100

M05
G00 X21.6800 Y20.9200
M03 S100

M05
G00 X21.6800 Y20.9200
M03 S100

M05
G00 X21.6800 Y20.9200
M03 S100

M05
G00 X21.6800 Y20.9200
M03 S100

M05
G00 X21.6800 Y20.9200
M03 S100

M05
G00 X21.6800 Y20.9200
M03 S100

M05
G00 X21.6800 Y20.9200
M03 S100

M05
G00 X21.6800 Y20.9200
M03 S100

