(G-code generated by FlatCAM Evo vUnstable - Version Date: 2023/6/31)

(Name: margen_iso_combined_cnc)
(Type: G-code from Geometry)
(Units: MM)

(Created on Saturday, 13 April 2024 at 22:25)

(This preprocessor is the default preprocessor when used with a laser.)
(It is made to work with MACH3 compatible motion controllers.)
(This preprocessor makes no moves on the Z axis it will only move horizontally.)
(The horizontal move is done with G0 - highest possible speed set in MACH3.)
(It assumes a manually focused laser.)
(The laser is started with M3 or M4 command and stopped with the M5 command.)

(Feedrate: 120.0 mm/min)
(Steps per circle: 16)
(Preprocessor Geometry: default_laser)

(X range:    1.1700 ...   75.2100  mm)
(Y range:    1.0450 ...   76.9900  mm)

(Laser Power - Spindle Speed: 0.0)
(Laser Minimum Power: 0.0)

G21
G90
G94

G01 F20.00
M05

M05
G01 F20.00
G00 F600.00 X74.8300 Y1.4250
G01 F20.00
M03
G01 F20.00
G01 X74.8300 Y76.6100
G01 X1.5500 Y76.6100
G01 X1.5500 Y1.4250
G01 X74.8300 Y1.4250
M05
G00 F600.00 X74.9200 Y1.3350
G01 F20.00
M03
G01 F20.00
G01 X74.9200 Y76.7000
G01 X1.4600 Y76.7000
G01 X1.4600 Y1.3350
G01 X74.9200 Y1.3350
M05
G00 F600.00 X1.2600 Y76.8000
G01 F20.00
M03
G01 F20.00
G01 X1.2676 Y76.8383
G01 X1.2893 Y76.8707
G01 X1.3217 Y76.8924
G01 X1.3600 Y76.9000
G01 X75.0200 Y76.9000
G01 X75.0583 Y76.8924
G01 X75.0907 Y76.8707
G01 X75.1124 Y76.8383
G01 X75.1200 Y76.8000
G01 X75.1200 Y1.2350
G01 X75.1124 Y1.1967
G01 X75.0907 Y1.1643
G01 X75.0583 Y1.1426
G01 X75.0200 Y1.1350
G01 X1.3600 Y1.1350
G01 X1.3217 Y1.1426
G01 X1.2893 Y1.1643
G01 X1.2676 Y1.1967
G01 X1.2600 Y1.2350
G01 X1.2600 Y76.8000
M05
G00 F600.00 X1.1700 Y76.8000
G01 F20.00
M03
G01 F20.00
G01 X1.1844 Y76.8727
G01 X1.2256 Y76.9344
G01 X1.2873 Y76.9756
G01 X1.3600 Y76.9900
G01 X75.0200 Y76.9900
G01 X75.0927 Y76.9756
G01 X75.1544 Y76.9344
G01 X75.1956 Y76.8727
G01 X75.2100 Y76.8000
G01 X75.2100 Y1.2350
G01 X75.1956 Y1.1623
G01 X75.1544 Y1.1006
G01 X75.0927 Y1.0594
G01 X75.0200 Y1.0450
G01 X1.3600 Y1.0450
G01 X1.2873 Y1.0594
G01 X1.2256 Y1.1006
G01 X1.1844 Y1.1623
G01 X1.1700 Y1.2350
G01 X1.1700 Y76.8000
M05
M05
M05



